; generated by PrusaSlicer 2.3.0-rc2+ on 2021-04-16 at 01:32:43 UTC

; 

; external perimeters extrusion width = 0.45mm
; perimeters extrusion width = 0.45mm
; infill extrusion width = 0.45mm
; solid infill extrusion width = 0.45mm
; top infill extrusion width = 0.40mm
; support material extrusion width = 0.40mm
; first layer extrusion width = 0.20mm

M201 X500 Y500 Z100 E5000 ; sets maximum accelerations, mm/sec^2
M203 X500 Y500 Z10 E60 ; sets maximum feedrates, mm/sec
M204 P500 R1000 T500 ; sets acceleration (P, T) and retract acceleration (R), mm/sec^2
M205 X8.00 Y8.00 Z0.40 E5.00 ; sets the jerk limits, mm/sec
M205 S0 T0 ; sets the minimum extruding and travel feed rate, mm/sec
M107
M190 S80 ; set bed temperature and wait for it to be reached
M104 S220 ; set temperature
;TYPE:Custom
G28 ; Home
M109 S220 ; set temperature and wait for it to be reached
G21 ; set units to millimeters
G90 ; use absolute coordinates
M83 ; use relative distances for extrusion
;LAYER_CHANGE
;Z:0.1
;HEIGHT:0.1
;BEFORE_LAYER_CHANGE
;0.1


G1 E-0.50000 F2700.000
G1 Z0.500 F9000.000
;AFTER_LAYER_CHANGE
;0.1
G1 X88.466 Y47.405
G1 Z0.100
G1 E0.50000 F2400.000
;TYPE:Skirt
;WIDTH:0.2
G1 F1200.000
G1 X89.836 Y45.482 E0.01753
G1 X91.519 Y43.781 E0.01776
G1 X93.207 Y42.539 E0.01556
G1 X95.288 Y41.440 E0.01747
G1 X96.240 Y41.067 E0.00759
G1 X98.259 Y40.505 E0.01556
G1 X100.794 Y40.229 E0.01893
G1 X103.138 Y40.361 E0.01743
G1 X104.994 Y40.743 E0.01406
G1 X105.832 Y41.003 E0.00651
G1 X107.612 Y41.722 E0.01425
G1 X109.272 Y42.686 E0.01425
G1 X109.962 Y43.164 E0.00623
G1 X111.284 Y44.281 E0.01285
G1 X148.107 Y81.079 E0.38642
G1 X149.026 Y82.272 E0.01118
G1 X149.648 Y83.644 E0.01118
G1 X149.881 Y84.620 E0.00745
G1 X149.961 Y85.620 E0.00745
G1 X149.936 Y173.509 E0.65239
G1 X149.817 Y174.499 E0.00740
G1 X149.550 Y175.453 E0.00735
G1 X149.143 Y176.356 E0.00735
G1 X148.603 Y177.187 E0.00735
G1 X147.944 Y177.927 E0.00735
G1 X147.176 Y178.562 E0.00740
G1 X146.320 Y179.073 E0.00740
G1 X145.403 Y179.446 E0.00735
G1 X144.433 Y179.678 E0.00740
G1 X143.433 Y179.758 E0.00745
G1 X76.227 Y179.748 E0.49886
G1 X75.251 Y179.619 E0.00731
G1 X74.305 Y179.345 E0.00731
G1 X73.412 Y178.932 E0.00731
G1 X72.591 Y178.390 E0.00731
G1 X71.860 Y177.730 E0.00731
G1 X71.237 Y176.968 E0.00731
G1 X70.735 Y176.121 E0.00731
G1 X70.368 Y175.215 E0.00726
G1 X70.160 Y174.375 E0.00642
G1 X70.064 Y173.522 E0.00637
G1 X70.027 Y167.780 E0.04263
G1 X70.046 Y117.229 E0.37523
G1 X70.211 Y114.420 E0.02089
G1 X70.692 Y111.669 E0.02073
G1 X86.776 Y51.587 E0.46169
G1 X87.450 Y49.452 E0.01662
G1 X88.439 Y47.458 E0.01652
G1 X88.599 Y47.538 F9000.000
G1 F1200.000
G1 X89.973 Y45.596 E0.01766
G1 X91.636 Y43.916 E0.01755
G1 X93.305 Y42.688 E0.01538
G1 X95.367 Y41.600 E0.01730
G1 X96.294 Y41.237 E0.00739
G1 X98.289 Y40.681 E0.01537
G1 X100.799 Y40.407 E0.01874
G1 X103.109 Y40.537 E0.01717
G1 X104.949 Y40.915 E0.01395
G1 X105.769 Y41.171 E0.00638
G1 X107.529 Y41.880 E0.01408
G1 X109.180 Y42.839 E0.01418
G1 X109.856 Y43.307 E0.00610
G1 X111.167 Y44.416 E0.01275
G1 X147.975 Y81.200 E0.38627
G1 X148.872 Y82.361 E0.01089
G1 X149.478 Y83.697 E0.01089
G1 X149.704 Y84.647 E0.00725
G1 X149.782 Y85.624 E0.00728
G1 X149.758 Y173.499 E0.65228
G1 X149.643 Y174.457 E0.00716
G1 X149.385 Y175.386 E0.00716
G1 X148.986 Y176.271 E0.00721
G1 X148.460 Y177.080 E0.00716
G1 X147.819 Y177.800 E0.00716
G1 X147.070 Y178.419 E0.00721
G1 X146.242 Y178.913 E0.00716
G1 X145.348 Y179.276 E0.00716
G1 X144.404 Y179.501 E0.00721
G1 X143.436 Y179.580 E0.00721
G1 X76.244 Y179.570 E0.49876
G1 X75.294 Y179.446 E0.00711
G1 X74.379 Y179.182 E0.00707
G1 X73.508 Y178.782 E0.00711
G1 X72.708 Y178.255 E0.00711
G1 X71.996 Y177.614 E0.00711
G1 X71.391 Y176.878 E0.00707
G1 X70.901 Y176.054 E0.00711
G1 X70.540 Y175.166 E0.00711
G1 X70.337 Y174.351 E0.00624
G1 X70.242 Y173.510 E0.00628
G1 X70.205 Y167.779 E0.04254
G1 X70.224 Y117.229 E0.37522
G1 X70.389 Y114.435 E0.02078
G1 X70.864 Y111.717 E0.02049
G1 X86.946 Y51.639 E0.46165
G1 X87.611 Y49.530 E0.01641
G1 X88.572 Y47.591 E0.01606
G1 X88.731 Y47.670 F9000.000
G1 F1200.000
G1 X88.770 Y47.591 E0.00065
G1 X90.107 Y45.714 E0.01710
G1 X91.754 Y44.050 E0.01738
G1 X93.402 Y42.838 E0.01519
G1 X95.439 Y41.763 E0.01709
G1 X96.341 Y41.409 E0.00719
G1 X98.318 Y40.857 E0.01524
G1 X100.797 Y40.586 E0.01851
G1 X103.079 Y40.713 E0.01697
G1 X104.904 Y41.088 E0.01383
G1 X105.701 Y41.336 E0.00619
G1 X107.451 Y42.041 E0.01401
G1 X109.089 Y42.992 E0.01405
G1 X109.749 Y43.450 E0.00597
G1 X111.050 Y44.550 E0.01264
G1 X147.848 Y81.326 E0.38617
G1 X148.720 Y82.456 E0.01060
G1 X149.308 Y83.750 E0.01055
G1 X149.528 Y84.675 E0.00706
G1 X149.604 Y85.617 E0.00701
G1 X149.580 Y173.483 E0.65221
G1 X149.470 Y174.415 E0.00697
G1 X149.219 Y175.320 E0.00697
G1 X148.834 Y176.176 E0.00697
G1 X148.324 Y176.964 E0.00697
G1 X147.696 Y177.670 E0.00701
G1 X146.973 Y178.268 E0.00697
G1 X146.168 Y178.750 E0.00697
G1 X145.299 Y179.105 E0.00697
G1 X144.374 Y179.325 E0.00706
G1 X143.432 Y179.401 E0.00701
G1 X76.261 Y179.393 E0.49859
G1 X75.337 Y179.272 E0.00692
G1 X74.441 Y179.014 E0.00692
G1 X73.593 Y178.625 E0.00692
G1 X72.820 Y178.115 E0.00688
G1 X72.126 Y177.492 E0.00692
G1 X71.538 Y176.776 E0.00688
G1 X71.061 Y175.975 E0.00692
G1 X70.710 Y175.111 E0.00692
G1 X70.511 Y174.313 E0.00610
G1 X70.420 Y173.496 E0.00610
G1 X70.384 Y167.778 E0.04244
G1 X70.403 Y117.230 E0.37521
G1 X70.566 Y114.457 E0.02062
G1 X71.038 Y111.758 E0.02034
G1 X87.119 Y51.685 E0.46161
G1 X87.772 Y49.607 E0.01617
G1 X88.705 Y47.724 E0.01560
G1 E-0.35000 F2700.000
;WIPE_START
G1 F7200.000
G1 X88.770 Y47.591 E-0.05273
G1 X88.916 Y47.386 E-0.08977
;WIPE_END
G1 E-0.00750 F2700.000
G1 Z0.600 F9000.000
G1 X142.968 Y85.829
G1 Z0.100
G1 E0.50000 F2400.000
;TYPE:Perimeter
G1 F1200.000
G1 X142.961 Y96.801 E0.08144
G1 X142.856 Y98.455 E0.01230
G1 X142.546 Y100.068 E0.01219
G1 X142.033 Y101.628 E0.01219
G1 X141.327 Y103.111 E0.01219
G1 X140.439 Y104.492 E0.01219
G1 X139.384 Y105.751 E0.01219
G1 X138.177 Y106.865 E0.01219
G1 X136.839 Y107.818 E0.01219
G1 X135.392 Y108.593 E0.01219
G1 X133.857 Y109.179 E0.01219
G1 X132.247 Y109.570 E0.01230
G1 X111.157 Y113.289 E0.15897
G1 X110.534 Y113.452 E0.00478
G1 X109.929 Y113.723 E0.00492
G1 X109.376 Y114.089 E0.00492
G1 X108.891 Y114.541 E0.00492
G1 X108.750 Y114.723 E0.00171
G1 X108.486 Y115.066 E0.00321
G1 X108.172 Y115.650 E0.00492
G1 X107.958 Y116.277 E0.00492
G1 X107.850 Y116.931 E0.00492
G1 X107.850 Y117.594 E0.00492
G1 X107.958 Y118.248 E0.00492
G1 X108.172 Y118.876 E0.00492
G1 X108.486 Y119.460 E0.00492
G1 X108.891 Y119.985 E0.00492
G1 X109.376 Y120.436 E0.00492
G1 X109.929 Y120.802 E0.00492
G1 X110.534 Y121.073 E0.00492
G1 X111.157 Y121.237 E0.00478
G1 X127.610 Y124.138 E0.12402
G1 X129.723 Y124.639 E0.01612
G1 X131.752 Y125.377 E0.01602
G1 X133.680 Y126.346 E0.01602
G1 X135.484 Y127.532 E0.01602
G1 X137.137 Y128.919 E0.01602
G1 X138.618 Y130.489 E0.01602
G1 X139.907 Y132.220 E0.01602
G1 X140.986 Y134.090 E0.01602
G1 X141.841 Y136.072 E0.01602
G1 X142.460 Y138.139 E0.01602
G1 X142.835 Y140.265 E0.01602
G1 X142.961 Y142.433 E0.01612
G1 X142.915 Y167.062 E0.18282
G1 X142.947 Y172.766 E0.04234
G1 X77.047 Y172.766 E0.48916
G1 X77.020 Y167.743 E0.03729
G1 X77.038 Y152.841 E0.11061
G1 X113.602 Y146.394 E0.27559
G1 X114.225 Y146.230 E0.00478
G1 X114.830 Y145.959 E0.00492
G1 X115.383 Y145.593 E0.00492
G1 X115.868 Y145.142 E0.00492
G1 X116.273 Y144.617 E0.00492
G1 X116.587 Y144.033 E0.00492
G1 X116.800 Y143.405 E0.00492
G1 X116.909 Y142.751 E0.00492
G1 X116.909 Y142.088 E0.00492
G1 X116.800 Y141.434 E0.00492
G1 X116.587 Y140.807 E0.00492
G1 X116.273 Y140.223 E0.00492
G1 X115.868 Y139.698 E0.00492
G1 X115.383 Y139.246 E0.00492
G1 X114.830 Y138.880 E0.00492
G1 X114.225 Y138.609 E0.00492
G1 X113.602 Y138.446 E0.00478
G1 X91.564 Y134.560 E0.16611
G1 X89.564 Y134.086 E0.01526
G1 X87.645 Y133.387 E0.01516
G1 X85.820 Y132.471 E0.01516
G1 X84.113 Y131.349 E0.01516
G1 X82.549 Y130.036 E0.01516
G1 X81.148 Y128.551 E0.01516
G1 X79.928 Y126.913 E0.01516
G1 X78.907 Y125.144 E0.01516
G1 X78.098 Y123.269 E0.01516
G1 X77.513 Y121.313 E0.01516
G1 X77.158 Y119.302 E0.01516
G1 X77.039 Y117.263 E0.01516
G1 X77.158 Y115.224 E0.01516
G1 X77.513 Y113.213 E0.01516
G1 X78.098 Y111.257 E0.01516
G1 X78.907 Y109.382 E0.01516
G1 X79.928 Y107.613 E0.01516
G1 X80.351 Y107.046 E0.00525
G1 X81.148 Y105.975 E0.00991
G1 X82.549 Y104.490 E0.01516
G1 X84.113 Y103.177 E0.01516
G1 X85.820 Y102.055 E0.01516
G1 X87.645 Y101.138 E0.01516
G1 X89.564 Y100.440 E0.01516
G1 X91.564 Y99.966 E0.01526
G1 X120.989 Y94.777 E0.22179
G1 X121.625 Y94.609 E0.00488
G1 X122.242 Y94.329 E0.00503
G1 X122.803 Y93.950 E0.00503
G1 X123.293 Y93.483 E0.00503
G1 X123.698 Y92.940 E0.00503
G1 X124.007 Y92.337 E0.00503
G1 X124.211 Y91.691 E0.00503
G1 X124.303 Y91.020 E0.00503
G1 X124.283 Y90.343 E0.00503
G1 X124.150 Y89.679 E0.00503
G1 X123.907 Y89.047 E0.00503
G1 X123.563 Y88.464 E0.00503
G1 X123.138 Y87.961 E0.00488
G1 X95.654 Y60.477 E0.28851
G1 X94.814 Y59.485 E0.00965
G1 X94.158 Y58.384 E0.00951
G1 X93.692 Y57.190 E0.00951
G1 X93.429 Y55.936 E0.00951
G1 X93.376 Y54.655 E0.00951
G1 X93.534 Y53.383 E0.00951
G1 X93.900 Y52.155 E0.00951
G1 X94.463 Y51.004 E0.00951
G1 X95.208 Y49.961 E0.00951
G1 X96.114 Y49.054 E0.00951
G1 X97.157 Y48.310 E0.00951
G1 X98.308 Y47.747 E0.00951
G1 X99.537 Y47.381 E0.00951
G1 X100.809 Y47.223 E0.00951
G1 X102.089 Y47.276 E0.00951
G1 X103.343 Y47.539 E0.00951
G1 X104.537 Y48.004 E0.00951
G1 X105.638 Y48.660 E0.00951
G1 X106.631 Y49.501 E0.00965
G1 X142.926 Y85.786 E0.38095
G1 X143.147 Y85.755 F9000.000
G1 F1200.000
G1 X143.140 Y96.807 E0.08204
G1 X143.034 Y98.477 E0.01243
G1 X142.719 Y100.112 E0.01236
G1 X142.199 Y101.694 E0.01236
G1 X141.484 Y103.198 E0.01236
G1 X140.583 Y104.599 E0.01236
G1 X139.513 Y105.874 E0.01236
G1 X138.290 Y107.004 E0.01236
G1 X136.934 Y107.970 E0.01236
G1 X135.466 Y108.756 E0.01236
G1 X133.910 Y109.350 E0.01236
G1 X132.284 Y109.745 E0.01243
G1 X111.195 Y113.463 E0.15895
G1 X110.593 Y113.621 E0.00462
G1 X110.015 Y113.880 E0.00470
G1 X109.487 Y114.230 E0.00470
G1 X109.023 Y114.662 E0.00470
G1 X108.892 Y114.832 E0.00160
G1 X108.636 Y115.163 E0.00311
G1 X108.336 Y115.721 E0.00470
G1 X108.132 Y116.321 E0.00470
G1 X108.028 Y116.946 E0.00470
G1 X108.028 Y117.580 E0.00470
G1 X108.132 Y118.205 E0.00470
G1 X108.336 Y118.804 E0.00470
G1 X108.636 Y119.362 E0.00470
G1 X109.023 Y119.864 E0.00470
G1 X109.487 Y120.295 E0.00470
G1 X110.015 Y120.645 E0.00470
G1 X110.593 Y120.904 E0.00470
G1 X111.195 Y121.062 E0.00462
G1 X127.646 Y123.963 E0.12400
G1 X129.775 Y124.467 E0.01624
G1 X131.822 Y125.213 E0.01618
G1 X133.770 Y126.191 E0.01618
G1 X135.590 Y127.388 E0.01618
G1 X137.260 Y128.789 E0.01618
G1 X138.755 Y130.374 E0.01618
G1 X140.057 Y132.122 E0.01618
G1 X141.146 Y134.009 E0.01618
G1 X142.009 Y136.010 E0.01618
G1 X142.634 Y138.098 E0.01618
G1 X143.013 Y140.244 E0.01618
G1 X143.140 Y142.428 E0.01623
G1 X143.093 Y167.061 E0.18285
G1 X143.127 Y172.944 E0.04367
G1 X76.870 Y172.944 E0.49181
G1 X76.841 Y167.743 E0.03861
G1 X76.860 Y152.841 E0.11061
G1 X76.882 Y152.749 E0.00070
G1 X76.921 Y152.702 E0.00045
G1 X77.008 Y152.665 E0.00070
G1 X113.564 Y146.219 E0.27554
G1 X114.166 Y146.061 E0.00462
G1 X114.744 Y145.802 E0.00470
G1 X115.272 Y145.452 E0.00470
G1 X115.736 Y145.021 E0.00470
G1 X116.123 Y144.519 E0.00470
G1 X116.422 Y143.961 E0.00470
G1 X116.627 Y143.361 E0.00470
G1 X116.730 Y142.736 E0.00470
G1 X116.730 Y142.103 E0.00470
G1 X116.627 Y141.478 E0.00470
G1 X116.422 Y140.878 E0.00470
G1 X116.123 Y140.320 E0.00470
G1 X115.736 Y139.819 E0.00470
G1 X115.272 Y139.387 E0.00470
G1 X114.744 Y139.037 E0.00470
G1 X114.166 Y138.778 E0.00470
G1 X113.564 Y138.620 E0.00462
G1 X91.527 Y134.735 E0.16610
G1 X89.512 Y134.257 E0.01537
G1 X87.574 Y133.552 E0.01531
G1 X85.730 Y132.626 E0.01531
G1 X84.007 Y131.492 E0.01531
G1 X82.426 Y130.166 E0.01531
G1 X81.011 Y128.666 E0.01531
G1 X79.779 Y127.011 E0.01531
G1 X78.747 Y125.224 E0.01531
G1 X77.930 Y123.330 E0.01531
G1 X77.339 Y121.354 E0.01531
G1 X76.980 Y119.322 E0.01531
G1 X76.860 Y117.263 E0.01531
G1 X76.980 Y115.203 E0.01531
G1 X77.339 Y113.172 E0.01531
G1 X77.544 Y112.484 E0.00533
G1 X77.930 Y111.196 E0.00999
G1 X78.747 Y109.301 E0.01531
G1 X79.779 Y107.515 E0.01531
G1 X80.207 Y106.939 E0.00533
G1 X81.011 Y105.860 E0.00999
G1 X82.426 Y104.360 E0.01531
G1 X84.007 Y103.034 E0.01531
G1 X85.730 Y101.900 E0.01531
G1 X87.574 Y100.974 E0.01531
G1 X89.512 Y100.269 E0.01531
G1 X91.527 Y99.791 E0.01537
G1 X120.951 Y94.603 E0.22177
G1 X121.565 Y94.440 E0.00472
G1 X122.155 Y94.173 E0.00480
G1 X122.691 Y93.810 E0.00480
G1 X123.159 Y93.364 E0.00480
G1 X123.546 Y92.845 E0.00480
G1 X123.841 Y92.269 E0.00480
G1 X124.036 Y91.652 E0.00480
G1 X124.124 Y91.011 E0.00480
G1 X124.105 Y90.364 E0.00480
G1 X123.978 Y89.729 E0.00480
G1 X123.746 Y89.125 E0.00480
G1 X123.417 Y88.568 E0.00480
G1 X123.007 Y88.082 E0.00472
G1 X95.523 Y60.598 E0.28851
G1 X94.668 Y59.589 E0.00982
G1 X93.997 Y58.463 E0.00973
G1 X93.520 Y57.241 E0.00973
G1 X93.251 Y55.958 E0.00973
G1 X93.197 Y54.648 E0.00973
G1 X93.359 Y53.347 E0.00973
G1 X93.733 Y52.090 E0.00973
G1 X94.309 Y50.912 E0.00973
G1 X95.071 Y49.845 E0.00973
G1 X95.998 Y48.918 E0.00973
G1 X97.065 Y48.156 E0.00973
G1 X98.243 Y47.580 E0.00973
G1 X99.500 Y47.206 E0.00973
G1 X100.801 Y47.044 E0.00973
G1 X102.111 Y47.098 E0.00973
G1 X103.395 Y47.367 E0.00973
G1 X104.616 Y47.843 E0.00973
G1 X105.742 Y48.515 E0.00973
G1 X106.752 Y49.370 E0.00982
G1 X143.104 Y85.713 E0.38156
G1 X143.325 Y85.681 F9000.000
;TYPE:External perimeter
G1 F1200.000
G1 X143.319 Y96.813 E0.08263
G1 X143.211 Y98.500 E0.01255
G1 X142.892 Y100.157 E0.01253
G1 X142.365 Y101.761 E0.01253
G1 X141.640 Y103.285 E0.01253
G1 X140.727 Y104.705 E0.01253
G1 X139.643 Y105.998 E0.01253
G1 X138.403 Y107.143 E0.01253
G1 X137.028 Y108.122 E0.01253
G1 X135.540 Y108.919 E0.01253
G1 X133.964 Y109.521 E0.01253
G1 X132.320 Y109.920 E0.01255
G1 X111.233 Y113.638 E0.15894
G1 X110.653 Y113.790 E0.00445
G1 X110.101 Y114.037 E0.00448
G1 X109.598 Y114.371 E0.00448
G1 X109.155 Y114.782 E0.00448
G1 X109.033 Y114.941 E0.00149
G1 X108.786 Y115.261 E0.00300
G1 X108.501 Y115.793 E0.00448
G1 X108.306 Y116.365 E0.00448
G1 X108.207 Y116.961 E0.00448
G1 X108.207 Y117.565 E0.00448
G1 X108.306 Y118.161 E0.00448
G1 X108.501 Y118.733 E0.00448
G1 X108.786 Y119.265 E0.00448
G1 X109.155 Y119.743 E0.00448
G1 X109.598 Y120.155 E0.00448
G1 X110.101 Y120.488 E0.00448
G1 X110.653 Y120.735 E0.00448
G1 X111.233 Y120.888 E0.00445
G1 X127.682 Y123.788 E0.12398
G1 X129.826 Y124.296 E0.01635
G1 X131.893 Y125.049 E0.01633
G1 X133.859 Y126.036 E0.01633
G1 X135.697 Y127.245 E0.01633
G1 X137.383 Y128.659 E0.01633
G1 X138.892 Y130.259 E0.01633
G1 X140.206 Y132.024 E0.01633
G1 X141.306 Y133.929 E0.01633
G1 X142.177 Y135.949 E0.01633
G1 X142.808 Y138.057 E0.01633
G1 X143.190 Y140.223 E0.01633
G1 X143.319 Y142.423 E0.01635
G1 X143.272 Y167.061 E0.18289
G1 X143.307 Y173.123 E0.04500
G1 X76.692 Y173.123 E0.49447
G1 X76.662 Y167.743 E0.03993
G1 X76.681 Y152.820 E0.11077
G1 X76.718 Y152.667 E0.00117
G1 X76.811 Y152.555 E0.00108
G1 X76.956 Y152.493 E0.00117
G1 X113.526 Y146.045 E0.27564
G1 X114.106 Y145.892 E0.00445
G1 X114.657 Y145.645 E0.00448
G1 X115.161 Y145.312 E0.00448
G1 X115.603 Y144.900 E0.00448
G1 X115.972 Y144.422 E0.00448
G1 X116.258 Y143.890 E0.00448
G1 X116.453 Y143.318 E0.00448
G1 X116.552 Y142.722 E0.00448
G1 X116.552 Y142.118 E0.00448
G1 X116.453 Y141.522 E0.00448
G1 X116.258 Y140.950 E0.00448
G1 X115.972 Y140.418 E0.00448
G1 X115.603 Y139.939 E0.00448
G1 X115.161 Y139.528 E0.00448
G1 X114.657 Y139.194 E0.00448
G1 X114.106 Y138.947 E0.00448
G1 X113.526 Y138.795 E0.00445
G1 X91.491 Y134.910 E0.16608
G1 X89.461 Y134.428 E0.01549
G1 X87.503 Y133.716 E0.01547
G1 X85.641 Y132.781 E0.01547
G1 X83.900 Y131.636 E0.01547
G1 X82.304 Y130.296 E0.01547
G1 X80.874 Y128.781 E0.01547
G1 X79.629 Y127.109 E0.01547
G1 X78.588 Y125.305 E0.01547
G1 X77.762 Y123.391 E0.01547
G1 X77.165 Y121.395 E0.01547
G1 X76.803 Y119.343 E0.01547
G1 X76.682 Y117.263 E0.01547
G1 X76.803 Y115.183 E0.01547
G1 X77.165 Y113.131 E0.01547
