; generated by PrusaSlicer 2.3.0-rc2+ on 2021-04-16 at 14:18:14 UTC

; 

; external perimeters extrusion width = 0.45mm
; perimeters extrusion width = 0.45mm
; infill extrusion width = 0.45mm
; solid infill extrusion width = 0.45mm
; top infill extrusion width = 0.40mm
; support material extrusion width = 0.40mm
; first layer extrusion width = 0.20mm

M201 X500 Y500 Z100 E5000 ; sets maximum accelerations, mm/sec^2
M203 X500 Y500 Z10 E60 ; sets maximum feedrates, mm/sec
M204 P500 R1000 T500 ; sets acceleration (P, T) and retract acceleration (R), mm/sec^2
M205 X8.00 Y8.00 Z0.40 E5.00 ; sets the jerk limits, mm/sec
M205 S0 T0 ; sets the minimum extruding and travel feed rate, mm/sec
M107
M190 S80 ; set bed temperature and wait for it to be reached
M104 S220 ; set temperature
;TYPE:Custom
G28 ; Home
M109 S220 ; set temperature and wait for it to be reached
G21 ; set units to millimeters
G90 ; use absolute coordinates
M83 ; use relative distances for extrusion
;LAYER_CHANGE
;Z:0.1
;HEIGHT:0.1
;BEFORE_LAYER_CHANGE
;0.1


G1 E-0.50000 F2700.000
G1 Z0.500 F9000.000
;AFTER_LAYER_CHANGE
;0.1
G1 X91.511 Y89.319
G1 Z0.100
G1 E0.50000 F2400.000
;TYPE:Skirt
;WIDTH:0.2
G1 F1200.000
G1 X93.556 Y88.884 E0.01552
G1 X97.682 Y88.225 E0.03101
G1 X105.048 Y87.476 E0.05496
G1 X114.506 Y87.461 E0.07021
G1 X122.385 Y88.234 E0.05876
G1 X126.551 Y88.903 E0.03132
G1 X128.465 Y89.311 E0.01453
G1 X129.787 Y89.877 E0.01067
G1 X130.953 Y90.707 E0.01062
G1 X131.921 Y91.770 E0.01067
G1 X132.637 Y93.009 E0.01062
G1 X133.056 Y94.284 E0.00996
G1 X133.213 Y95.610 E0.00991
G1 X133.214 Y124.326 E0.21315
G1 X133.152 Y125.181 E0.00636
G1 X132.981 Y126.021 E0.00636
G1 X132.708 Y126.827 E0.00632
G1 X132.331 Y127.597 E0.00636
G1 X131.578 Y128.661 E0.00968
G1 X130.638 Y129.556 E0.00963
G1 X129.538 Y130.256 E0.00968
G1 X128.330 Y130.728 E0.00963
G1 X126.381 Y131.127 E0.01476
G1 X122.394 Y131.765 E0.02997
G1 X114.901 Y132.527 E0.05591
G1 X104.842 Y132.507 E0.07467
G1 X97.729 Y131.781 E0.05307
G1 X95.043 Y131.372 E0.02017
G1 X91.806 Y130.765 E0.02445
G1 X90.968 Y130.487 E0.00655
G1 X90.174 Y130.101 E0.00655
G1 X89.484 Y129.649 E0.00613
G1 X88.854 Y129.116 E0.00613
G1 X88.290 Y128.504 E0.00617
G1 X87.810 Y127.833 E0.00613
G1 X87.416 Y127.108 E0.00613
G1 X87.111 Y126.334 E0.00617
G1 X86.906 Y125.535 E0.00613
G1 X86.801 Y124.716 E0.00613
G1 X86.788 Y95.552 E0.21648
G1 X86.861 Y94.730 E0.00613
G1 X87.034 Y93.923 E0.00613
G1 X87.305 Y93.144 E0.00613
G1 X87.669 Y92.403 E0.00613
G1 X88.141 Y91.687 E0.00636
G1 X88.704 Y91.033 E0.00641
G1 X89.342 Y90.460 E0.00636
G1 X90.053 Y89.970 E0.00641
G1 X91.456 Y89.343 E0.01141
G1 X91.529 Y89.508 F9000.000
G1 F1200.000
G1 X91.587 Y89.482 E0.00047
G1 X93.607 Y89.056 E0.01533
G1 X97.706 Y88.402 E0.03081
G1 X105.057 Y87.654 E0.05484
G1 X114.506 Y87.639 E0.07014
G1 X122.358 Y88.410 E0.05856
G1 X126.520 Y89.079 E0.03129
G1 X128.398 Y89.477 E0.01425
G1 X129.686 Y90.025 E0.01039
G1 X130.827 Y90.834 E0.01039
G1 X131.775 Y91.873 E0.01043
G1 X132.475 Y93.084 E0.01039
G1 X132.881 Y94.318 E0.00964
G1 X133.035 Y95.614 E0.00969
G1 X133.035 Y124.325 E0.21312
G1 X132.975 Y125.156 E0.00618
G1 X132.808 Y125.979 E0.00623
G1 X132.537 Y126.773 E0.00623
G1 X132.169 Y127.521 E0.00618
G1 X131.434 Y128.554 E0.00941
G1 X130.515 Y129.426 E0.00941
G1 X129.444 Y130.104 E0.00941
G1 X128.256 Y130.564 E0.00946
G1 X126.349 Y130.952 E0.01444
G1 X122.363 Y131.589 E0.02997
G1 X114.874 Y132.350 E0.05588
G1 X104.863 Y132.330 E0.07431
G1 X97.749 Y131.603 E0.05308
G1 X95.072 Y131.196 E0.02010
G1 X91.852 Y130.593 E0.02432
G1 X91.025 Y130.317 E0.00646
G1 X90.249 Y129.938 E0.00642
G1 X88.964 Y128.973 E0.01192
G1 X87.953 Y127.725 E0.01192
G1 X87.278 Y126.267 E0.01192
G1 X86.978 Y124.689 E0.01192
G1 X86.967 Y95.555 E0.21626
G1 X87.209 Y93.960 E0.01197
G1 X87.831 Y92.479 E0.01192
G1 X88.295 Y91.779 E0.00623
G1 X88.844 Y91.145 E0.00623
G1 X89.476 Y90.582 E0.00628
G1 X90.169 Y90.109 E0.00623
G1 X91.474 Y89.532 E0.01059
G1 E-0.35000 F2700.000
;WIPE_START
G1 F7200.000
G1 X91.587 Y89.482 E-0.04400
G1 X91.857 Y89.425 E-0.09850
;WIPE_END
G1 E-0.00750 F2700.000
G1 Z0.600 F9000.000
G1 X87.382 Y94.003
G1 Z0.100
G1 E0.50000 F2400.000
G1 F1200.000
G1 X87.993 Y92.555 E0.01167
G1 X88.449 Y91.871 E0.00610
G1 X88.989 Y91.252 E0.00610
G1 X89.605 Y90.708 E0.00610
G1 X90.280 Y90.250 E0.00605
G1 X91.658 Y89.647 E0.01116
G1 X93.658 Y89.228 E0.01517
G1 X97.731 Y88.579 E0.03061
G1 X105.072 Y87.832 E0.05478
G1 X114.506 Y87.818 E0.07003
G1 X122.331 Y88.587 E0.05836
G1 X126.483 Y89.254 E0.03121
G1 X128.331 Y89.644 E0.01402
G1 X129.590 Y90.176 E0.01015
G1 X130.707 Y90.966 E0.01015
G1 X131.633 Y91.981 E0.01020
G1 X132.316 Y93.166 E0.01015
G1 X132.709 Y94.366 E0.00937
G1 X132.856 Y95.620 E0.00937
G1 X132.857 Y124.324 E0.21307
G1 X132.797 Y125.138 E0.00605
G1 X132.634 Y125.937 E0.00605
G1 X132.370 Y126.708 E0.00605
G1 X132.007 Y127.445 E0.00610
G1 X131.291 Y128.447 E0.00914
G1 X130.390 Y129.296 E0.00919
G1 X129.342 Y129.955 E0.00919
G1 X128.187 Y130.398 E0.00919
G1 X126.310 Y130.777 E0.01422
G1 X122.337 Y131.413 E0.02986
G1 X114.853 Y132.172 E0.05584
G1 X104.884 Y132.152 E0.07400
G1 X97.768 Y131.426 E0.05310
G1 X95.107 Y131.020 E0.01998
G1 X91.897 Y130.420 E0.02424
G1 X91.088 Y130.150 E0.00633
G1 X90.323 Y129.775 E0.00633
G1 X89.078 Y128.835 E0.01158
G1 X88.099 Y127.621 E0.01158
G1 X87.445 Y126.205 E0.01158
G1 X87.155 Y124.667 E0.01162
G1 X87.145 Y95.563 E0.21603
G1 X87.373 Y94.063 E0.01127
G1 X87.549 Y94.089 F9000.000
G1 F1200.000
G1 X88.153 Y92.636 E0.01168
G1 X88.596 Y91.973 E0.00592
G1 X89.126 Y91.368 E0.00597
G1 X89.725 Y90.841 E0.00592
G1 X90.392 Y90.392 E0.00597
G1 X91.729 Y89.812 E0.01082
G1 X93.703 Y89.402 E0.01496
G1 X97.749 Y88.756 E0.03041
G1 X105.087 Y88.010 E0.05475
G1 X114.506 Y87.996 E0.06992
G1 X122.310 Y88.764 E0.05821
G1 X126.452 Y89.430 E0.03114
G1 X128.258 Y89.809 E0.01370
G1 X129.491 Y90.325 E0.00992
G1 X130.588 Y91.098 E0.00996
G1 X131.488 Y92.086 E0.00992
G1 X132.155 Y93.243 E0.00992
G1 X132.535 Y94.409 E0.00910
G1 X132.678 Y95.627 E0.00910
G1 X132.678 Y124.324 E0.21301
G1 X132.620 Y125.119 E0.00592
G1 X132.459 Y125.901 E0.00592
G1 X132.199 Y126.655 E0.00592
G1 X131.847 Y127.364 E0.00588
G1 X131.147 Y128.341 E0.00892
G1 X130.266 Y129.167 E0.00897
G1 X129.246 Y129.803 E0.00892
G1 X128.123 Y130.230 E0.00892
G1 X125.169 Y130.794 E0.02232
G1 X122.312 Y131.236 E0.02146
G1 X114.833 Y131.995 E0.05580
G1 X104.899 Y131.974 E0.07374
G1 X97.787 Y131.248 E0.05306
G1 X95.135 Y130.844 E0.01991
G1 X91.949 Y130.249 E0.02406
G1 X91.151 Y129.983 E0.00624
G1 X90.403 Y129.614 E0.00619
G1 X89.192 Y128.697 E0.01128
G1 X88.245 Y127.517 E0.01123
G1 X87.611 Y126.137 E0.01128
G1 X87.333 Y124.643 E0.01128
G1 X87.324 Y95.572 E0.21579
G1 X87.539 Y94.148 E0.01069
G1 E-0.35000 F2700.000
;WIPE_START
G1 F7200.000
G1 X87.690 Y93.778 E-0.14250
;WIPE_END
G1 E-0.00750 F2700.000
G1 Z0.600 F9000.000
G1 X113.457 Y94.632
G1 Z0.100
G1 E0.50000 F2400.000
;TYPE:Perimeter
G1 F1200.000
G1 X114.043 Y94.632 E0.00435
G1 X114.043 Y96.190 E0.01156
G1 X121.957 Y96.190 E0.05875
G1 X121.957 Y95.422 E0.00569
G1 X124.000 Y95.739 E0.01534
G1 X126.043 Y96.113 E0.01542
G1 X126.043 Y96.393 E0.00208
G1 X117.043 Y96.393 E0.06681
G1 X117.043 Y98.307 E0.01421
G1 X126.043 Y98.307 E0.06681
G1 X126.043 Y98.510 E0.00151
G1 X114.043 Y98.510 E0.08907
G1 X114.043 Y121.490 E0.17057
G1 X126.043 Y121.490 E0.08907
G1 X126.043 Y121.693 E0.00151
G1 X117.043 Y121.693 E0.06681
G1 X117.043 Y123.607 E0.01421
G1 X126.043 Y123.607 E0.06681
G1 X126.043 Y123.888 E0.00208
G1 X124.038 Y124.255 E0.01513
G1 X121.957 Y124.578 E0.01563
G1 X121.957 Y123.810 E0.00569
G1 X114.043 Y123.810 E0.05875
G1 X114.043 Y125.368 E0.01156
G1 X113.457 Y125.368 E0.00435
G1 X113.457 Y94.692 E0.22770
G1 X114.221 Y96.011 F9000.000
G1 F1200.000
G1 X121.779 Y96.011 E0.05609
G1 X121.779 Y95.214 E0.00592
G1 X124.029 Y95.562 E0.01691
G1 X126.221 Y95.964 E0.01654
G1 X126.221 Y96.571 E0.00451
G1 X117.221 Y96.571 E0.06681
G1 X117.221 Y98.129 E0.01156
G1 X126.221 Y98.129 E0.06681
G1 X126.221 Y98.689 E0.00416
G1 X114.221 Y98.689 E0.08907
G1 X114.221 Y121.311 E0.16792
G1 X126.221 Y121.311 E0.08907
G1 X126.221 Y121.871 E0.00416
G1 X117.221 Y121.871 E0.06681
G1 X117.221 Y123.429 E0.01156
G1 X126.221 Y123.429 E0.06681
G1 X126.221 Y124.036 E0.00451
G1 X124.068 Y124.431 E0.01625
G1 X121.779 Y124.786 E0.01720
G1 X121.779 Y123.989 E0.00592
G1 X114.221 Y123.989 E0.05609
G1 X114.221 Y125.546 E0.01156
G1 X113.279 Y125.546 E0.00700
G1 X113.279 Y94.454 E0.23080
G1 X114.221 Y94.454 E0.00700
G1 X114.221 Y95.951 E0.01112
G1 X114.400 Y95.832 F9000.000
;TYPE:External perimeter
G1 F1200.000
G1 X121.600 Y95.832 E0.05344
G1 X121.600 Y95.006 E0.00614
G1 X124.059 Y95.386 E0.01847
G1 X126.400 Y95.815 E0.01766
G1 X126.400 Y96.750 E0.00694
G1 X117.400 Y96.750 E0.06681
G1 X117.400 Y97.950 E0.00891
G1 X126.400 Y97.950 E0.06681
G1 X126.400 Y98.868 E0.00681
G1 X114.400 Y98.868 E0.08907
G1 X114.400 Y121.132 E0.16527
G1 X126.400 Y121.132 E0.08907
G1 X126.400 Y122.050 E0.00681
G1 X117.400 Y122.050 E0.06681
G1 X117.400 Y123.250 E0.00891
G1 X126.400 Y123.250 E0.06681
G1 X126.400 Y124.185 E0.00694
G1 X124.098 Y124.607 E0.01737
G1 X121.600 Y124.994 E0.01876
G1 X121.600 Y124.168 E0.00614
G1 X114.400 Y124.168 E0.05344
G1 X114.400 Y125.725 E0.01156
G1 X113.100 Y125.725 E0.00965
G1 X113.100 Y94.275 E0.23345
G1 X114.400 Y94.275 E0.00965
G1 X114.400 Y95.772 E0.01112
G1 X114.492 Y96.222 F9000.000
G1 E-0.35000 F2700.000
;WIPE_START
G1 F7200.000
G1 X114.800 Y95.776 E-0.14250
;WIPE_END
G1 E-0.00750 F2700.000
G1 Z0.600 F9000.000
G1 X116.537 Y96.243
G1 Z0.100
G1 E0.50000 F2400.000
;TYPE:Solid infill
;WIDTH:0.200979
G1 F1200.000
G1 X116.909 Y96.615 E0.00393
G1 X116.909 Y96.869 E0.00189
G1 X116.364 Y96.323 E0.00576
G1 X116.110 Y96.323 E0.00189
G1 X116.909 Y97.123 E0.00844
G1 X116.909 Y97.377 E0.00189
G1 X115.856 Y96.323 E0.01112
G1 X115.602 Y96.323 E0.00189
G1 X116.909 Y97.631 E0.01380
G1 X116.909 Y97.884 E0.00189
G1 X115.348 Y96.323 E0.01648
G1 X115.094 Y96.323 E0.00189
G1 X116.909 Y98.138 E0.01916
G1 X116.909 Y98.252 E0.00085
G1 X116.820 Y98.252 E0.00067
G1 X116.820 Y98.303 E0.00038
G1 X114.840 Y96.323 E0.02089
G1 X114.586 Y96.323 E0.00189
G1 X116.640 Y98.377 E0.02167
G1 X116.386 Y98.377 E0.00189
G1 X114.252 Y96.243 E0.02252
G1 X113.989 Y94.965 F9000.000
G1 F1200.000
G1 X113.791 Y94.766 E0.00210
G1 X113.591 Y94.766 E0.00149
G1 X113.591 Y94.820 E0.00041
G1 X113.909 Y95.138 E0.00336
G1 X113.909 Y95.392 E0.00189
G1 X113.591 Y95.074 E0.00336
G1 X113.591 Y95.328 E0.00189
G1 X113.909 Y95.646 E0.00336
G1 X113.909 Y95.900 E0.00189
G1 X113.591 Y95.582 E0.00336
G1 X113.591 Y95.836 E0.00189
G1 X113.909 Y96.154 E0.00336
G1 X113.909 Y96.323 E0.00127
G1 X114.079 Y96.323 E0.00127
G1 X116.132 Y98.377 E0.02167
G1 X115.878 Y98.377 E0.00189
G1 X113.591 Y96.090 E0.02414
G1 X113.591 Y96.343 E0.00189
G1 X115.624 Y98.377 E0.02146
G1 X115.370 Y98.377 E0.00189
G1 X113.591 Y96.597 E0.01878
G1 X113.591 Y96.851 E0.00189
G1 X115.116 Y98.377 E0.01610
G1 X114.862 Y98.377 E0.00189
G1 X113.591 Y97.105 E0.01342
G1 X113.591 Y97.359 E0.00189
G1 X114.609 Y98.377 E0.01074
G1 X114.355 Y98.377 E0.00189
G1 X113.591 Y97.613 E0.00806
G1 X113.591 Y97.867 E0.00189
G1 X114.101 Y98.377 E0.00538
G1 X113.909 Y98.377 E0.00143
G1 X113.909 Y98.439 E0.00046
G1 X113.591 Y98.121 E0.00336
G1 X113.591 Y98.375 E0.00189
G1 X113.909 Y98.693 E0.00336
G1 X113.909 Y98.946 E0.00189
G1 X113.591 Y98.628 E0.00336
G1 X113.591 Y98.882 E0.00189
G1 X113.909 Y99.200 E0.00336
G1 X113.909 Y99.454 E0.00189
G1 X113.591 Y99.136 E0.00336
G1 X113.591 Y99.390 E0.00189
G1 X113.909 Y99.708 E0.00336
G1 X113.909 Y99.962 E0.00189
G1 X113.591 Y99.644 E0.00336
G1 X113.591 Y99.898 E0.00189
G1 X113.909 Y100.216 E0.00336
G1 X113.909 Y100.470 E0.00189
G1 X113.591 Y100.152 E0.00336
G1 X113.591 Y100.406 E0.00189
G1 X113.909 Y100.724 E0.00336
G1 X113.909 Y100.978 E0.00189
G1 X113.591 Y100.659 E0.00336
G1 X113.591 Y100.913 E0.00189
G1 X113.909 Y101.231 E0.00336
G1 X113.909 Y101.485 E0.00189
G1 X113.591 Y101.167 E0.00336
G1 X113.591 Y101.421 E0.00189
G1 X113.909 Y101.739 E0.00336
G1 X113.909 Y101.993 E0.00189
G1 X113.591 Y101.675 E0.00336
G1 X113.591 Y101.929 E0.00189
G1 X113.909 Y102.247 E0.00336
G1 X113.909 Y102.501 E0.00189
G1 X113.591 Y102.183 E0.00336
G1 X113.591 Y102.437 E0.00189
G1 X113.909 Y102.755 E0.00336
G1 X113.909 Y103.009 E0.00189
G1 X113.591 Y102.690 E0.00336
G1 X113.591 Y102.944 E0.00189
G1 X113.909 Y103.262 E0.00336
G1 X113.909 Y103.516 E0.00189
G1 X113.591 Y103.198 E0.00336
G1 X113.591 Y103.452 E0.00189
G1 X113.909 Y103.770 E0.00336
G1 X113.909 Y104.024 E0.00189
G1 X113.591 Y103.706 E0.00336
G1 X113.591 Y103.960 E0.00189
G1 X113.909 Y104.278 E0.00336
G1 X113.909 Y104.532 E0.00189
G1 X113.591 Y104.214 E0.00336
G1 X113.591 Y104.468 E0.00189
G1 X113.909 Y104.786 E0.00336
G1 X113.909 Y105.040 E0.00189
G1 X113.591 Y104.721 E0.00336
G1 X113.591 Y104.975 E0.00189
G1 X113.909 Y105.293 E0.00336
G1 X113.909 Y105.547 E0.00189
G1 X113.591 Y105.229 E0.00336
G1 X113.591 Y105.483 E0.00189
G1 X113.909 Y105.801 E0.00336
G1 X113.909 Y106.055 E0.00189
G1 X113.591 Y105.737 E0.00336
G1 X113.591 Y105.991 E0.00189
G1 X113.909 Y106.309 E0.00336
G1 X113.909 Y106.563 E0.00189
G1 X113.591 Y106.245 E0.00336
G1 X113.591 Y106.499 E0.00189
G1 X113.909 Y106.817 E0.00336
G1 X113.909 Y107.071 E0.00189
G1 X113.591 Y106.753 E0.00336
G1 X113.591 Y107.006 E0.00189
G1 X113.909 Y107.324 E0.00336
G1 X113.909 Y107.578 E0.00189
G1 X113.591 Y107.260 E0.00336
G1 X113.591 Y107.514 E0.00189
G1 X113.909 Y107.832 E0.00336
G1 X113.909 Y108.086 E0.00189
G1 X113.591 Y107.768 E0.00336
G1 X113.591 Y108.022 E0.00189
G1 X113.909 Y108.340 E0.00336
G1 X113.909 Y108.594 E0.00189
G1 X113.591 Y108.276 E0.00336
G1 X113.591 Y108.530 E0.00189
G1 X113.909 Y108.848 E0.00336
G1 X113.909 Y109.102 E0.00189
G1 X113.591 Y108.784 E0.00336
G1 X113.591 Y109.037 E0.00189
G1 X113.909 Y109.355 E0.00336
G1 X113.909 Y109.609 E0.00189
G1 X113.591 Y109.291 E0.00336
G1 X113.591 Y109.545 E0.00189
G1 X113.909 Y109.863 E0.00336
G1 X113.909 Y110.117 E0.00189
G1 X113.591 Y109.799 E0.00336
G1 X113.591 Y110.053 E0.00189
G1 X113.909 Y110.371 E0.00336
G1 X113.909 Y110.625 E0.00189
G1 X113.591 Y110.307 E0.00336
G1 X113.591 Y110.561 E0.00189
G1 X113.909 Y110.879 E0.00336
G1 X113.909 Y111.133 E0.00189
G1 X113.591 Y110.815 E0.00336
G1 X113.591 Y111.068 E0.00189
G1 X113.909 Y111.387 E0.00336
G1 X113.909 Y111.640 E0.00189
G1 X113.591 Y111.322 E0.00336
G1 X113.591 Y111.576 E0.00189
G1 X113.909 Y111.894 E0.00336
G1 X113.909 Y112.148 E0.00189
G1 X113.591 Y111.830 E0.00336
G1 X113.591 Y112.084 E0.00189
G1 X113.909 Y112.402 E0.00336
G1 X113.909 Y112.656 E0.00189
G1 X113.591 Y112.338 E0.00336
G1 X113.591 Y112.592 E0.00189
G1 X113.909 Y112.910 E0.00336
G1 X113.909 Y113.164 E0.00189
G1 X113.591 Y112.846 E0.00336
G1 X113.591 Y113.099 E0.00189
G1 X113.909 Y113.418 E0.00336
G1 X113.909 Y113.671 E0.00189
G1 X113.591 Y113.353 E0.00336
G1 X113.591 Y113.607 E0.00189
G1 X113.909 Y113.925 E0.00336
G1 X113.909 Y114.179 E0.00189
G1 X113.591 Y113.861 E0.00336
G1 X113.591 Y114.115 E0.00189
G1 X113.909 Y114.433 E0.00336
G1 X113.909 Y114.687 E0.00189
G1 X113.591 Y114.369 E0.00336
G1 X113.591 Y114.623 E0.00189
G1 X113.909 Y114.941 E0.00336
G1 X113.909 Y115.195 E0.00189
G1 X113.591 Y114.877 E0.00336
G1 X113.591 Y115.130 E0.00189
G1 X113.909 Y115.449 E0.00336
G1 X113.909 Y115.702 E0.00189
G1 X113.591 Y115.384 E0.00336
G1 X113.591 Y115.638 E0.00189
G1 X113.909 Y115.956 E0.00336
G1 X113.909 Y116.210 E0.00189
G1 X113.591 Y115.892 E0.00336
G1 X113.591 Y116.146 E0.00189
G1 X113.909 Y116.464 E0.00336
G1 X113.909 Y116.718 E0.00189
G1 X113.591 Y116.400 E0.00336
G1 X113.591 Y116.654 E0.00189
G1 X113.909 Y116.972 E0.00336
G1 X113.909 Y117.226 E0.00189
G1 X113.591 Y116.908 E0.00336
G1 X113.591 Y117.162 E0.00189
G1 X113.909 Y117.480 E0.00336
G1 X113.909 Y117.733 E0.00189
G1 X113.591 Y117.415 E0.00336
G1 X113.591 Y117.669 E0.00189
G1 X113.909 Y117.987 E0.00336
G1 X113.909 Y118.241 E0.00189
G1 X113.591 Y117.923 E0.00336
G1 X113.591 Y118.177 E0.00189
G1 X113.909 Y118.495 E0.00336
G1 X113.909 Y118.749 E0.00189
