; generated by PrusaSlicer 2.3.0-rc2+ on 2021-04-16 at 04:34:05 UTC

; 

; external perimeters extrusion width = 0.45mm
; perimeters extrusion width = 0.45mm
; infill extrusion width = 0.45mm
; solid infill extrusion width = 0.45mm
; top infill extrusion width = 0.40mm
; support material extrusion width = 0.40mm
; first layer extrusion width = 0.20mm

M201 X500 Y500 Z100 E5000 ; sets maximum accelerations, mm/sec^2
M203 X500 Y500 Z10 E60 ; sets maximum feedrates, mm/sec
M204 P500 R1000 T500 ; sets acceleration (P, T) and retract acceleration (R), mm/sec^2
M205 X8.00 Y8.00 Z0.40 E5.00 ; sets the jerk limits, mm/sec
M205 S0 T0 ; sets the minimum extruding and travel feed rate, mm/sec
M107
M190 S80 ; set bed temperature and wait for it to be reached
M104 S220 ; set temperature
;TYPE:Custom
G28 ; Home
M109 S220 ; set temperature and wait for it to be reached
G21 ; set units to millimeters
G90 ; use absolute coordinates
M83 ; use relative distances for extrusion
;LAYER_CHANGE
;Z:0.1
;HEIGHT:0.1
;BEFORE_LAYER_CHANGE
;0.1


G1 E-0.50000 F2700.000
G1 Z0.500 F9000.000
;AFTER_LAYER_CHANGE
;0.1
G1 X70.972 Y82.275
G1 Z0.100
G1 E0.50000 F2400.000
;TYPE:Skirt
;WIDTH:0.2
G1 F1200.000
G1 X71.895 Y81.078 E0.01123
G1 X108.720 Y44.277 E0.38644
G1 X110.037 Y43.164 E0.01280
G1 X110.727 Y42.686 E0.00623
G1 X112.393 Y41.720 E0.01430
G1 X114.174 Y41.001 E0.01425
G1 X115.011 Y40.741 E0.00651
G1 X116.867 Y40.360 E0.01406
G1 X119.218 Y40.229 E0.01748
G1 X121.746 Y40.506 E0.01888
G1 X123.765 Y41.068 E0.01556
G1 X124.717 Y41.442 E0.00759
G1 X126.797 Y42.542 E0.01747
G1 X128.480 Y43.781 E0.01551
G1 X130.164 Y45.481 E0.01776
G1 X131.534 Y47.404 E0.01753
G1 X132.550 Y49.451 E0.01697
G1 X133.225 Y51.588 E0.01663
G1 X149.308 Y111.668 E0.46166
G1 X149.789 Y114.417 E0.02071
G1 X149.954 Y117.230 E0.02091
G1 X149.943 Y173.258 E0.41589
G1 X149.861 Y174.252 E0.00740
G1 X149.632 Y175.215 E0.00735
G1 X149.262 Y176.128 E0.00731
G1 X148.759 Y176.974 E0.00731
G1 X148.135 Y177.735 E0.00731
G1 X147.409 Y178.390 E0.00726
G1 X146.587 Y178.933 E0.00731
G1 X145.694 Y179.345 E0.00731
G1 X144.748 Y179.619 E0.00731
G1 X143.772 Y179.748 E0.00731
G1 X76.561 Y179.758 E0.49890
G1 X75.568 Y179.678 E0.00740
G1 X74.598 Y179.447 E0.00740
G1 X73.680 Y179.074 E0.00735
G1 X72.824 Y178.562 E0.00740
G1 X72.056 Y177.927 E0.00740
G1 X71.397 Y177.187 E0.00735
G1 X70.854 Y176.351 E0.00740
G1 X70.448 Y175.448 E0.00735
G1 X70.182 Y174.493 E0.00735
G1 X70.064 Y173.510 E0.00735
G1 X70.039 Y85.617 E0.65241
G1 X70.119 Y84.624 E0.00740
G1 X70.350 Y83.647 E0.00745
G1 X70.947 Y82.330 E0.01073
G1 X71.109 Y82.404 F9000.000
G1 F1200.000
G1 X72.023 Y81.202 E0.01120
G1 X108.838 Y44.412 E0.38634
G1 X110.146 Y43.306 E0.01271
G1 X110.821 Y42.838 E0.00610
G1 X112.473 Y41.880 E0.01418
G1 X114.238 Y41.168 E0.01413
G1 X115.053 Y40.915 E0.00633
G1 X116.893 Y40.536 E0.01395
G1 X119.215 Y40.407 E0.01727
G1 X121.713 Y40.681 E0.01865
G1 X123.714 Y41.239 E0.01542
G1 X124.635 Y41.601 E0.00734
G1 X126.697 Y42.689 E0.01730
G1 X128.365 Y43.917 E0.01538
G1 X130.028 Y45.597 E0.01755
G1 X131.381 Y47.497 E0.01732
G1 X132.390 Y49.531 E0.01685
G1 X133.053 Y51.637 E0.01639
G1 X149.136 Y111.717 E0.46167
G1 X149.611 Y114.437 E0.02049
G1 X149.776 Y117.229 E0.02076
G1 X149.764 Y173.258 E0.41589
G1 X149.685 Y174.225 E0.00721
G1 X149.461 Y175.163 E0.00716
G1 X149.100 Y176.051 E0.00711
G1 X148.610 Y176.875 E0.00711
G1 X148.002 Y177.616 E0.00711
G1 X147.290 Y178.257 E0.00711
G1 X146.489 Y178.783 E0.00711
G1 X145.618 Y179.183 E0.00711
G1 X144.697 Y179.448 E0.00711
G1 X143.753 Y179.571 E0.00707
G1 X76.568 Y179.580 E0.49870
G1 X75.600 Y179.502 E0.00721
G1 X74.650 Y179.276 E0.00725
G1 X73.756 Y178.912 E0.00716
G1 X72.923 Y178.414 E0.00721
G1 X72.180 Y177.799 E0.00716
G1 X71.539 Y177.079 E0.00716
G1 X71.013 Y176.270 E0.00716
G1 X70.617 Y175.390 E0.00716
G1 X70.356 Y174.455 E0.00721
G1 X70.242 Y173.497 E0.00716
G1 X70.218 Y85.618 E0.65231
G1 X70.296 Y84.644 E0.00725
G1 X70.521 Y83.700 E0.00721
G1 X71.084 Y82.458 E0.01012
G1 X71.246 Y82.532 F9000.000
G1 F1200.000
G1 X71.282 Y82.452 E0.00065
G1 X72.155 Y81.322 E0.01060
G1 X108.951 Y44.550 E0.38614
G1 X110.254 Y43.448 E0.01267
G1 X110.915 Y42.990 E0.00597
G1 X112.547 Y42.042 E0.01401
G1 X114.303 Y41.334 E0.01405
G1 X115.100 Y41.087 E0.00619
G1 X116.925 Y40.712 E0.01383
G1 X119.219 Y40.586 E0.01706
G1 X121.686 Y40.858 E0.01842
G1 X123.662 Y41.410 E0.01524
G1 X124.559 Y41.762 E0.00715
G1 X126.596 Y42.837 E0.01709
G1 X128.245 Y44.049 E0.01519
G1 X129.892 Y45.713 E0.01738
G1 X131.229 Y47.589 E0.01710
G1 X132.227 Y49.605 E0.01670
G1 X132.881 Y51.686 E0.01619
G1 X148.963 Y111.760 E0.46162
G1 X149.434 Y114.457 E0.02032
G1 X149.597 Y117.229 E0.02061
G1 X149.586 Y173.257 E0.41589
G1 X149.509 Y174.193 E0.00697
G1 X149.290 Y175.112 E0.00701
G1 X148.939 Y175.975 E0.00692
G1 X148.461 Y176.777 E0.00692
G1 X147.869 Y177.497 E0.00692
G1 X147.180 Y178.116 E0.00688
G1 X146.400 Y178.628 E0.00692
G1 X145.553 Y179.017 E0.00692
G1 X144.656 Y179.274 E0.00692
G1 X143.738 Y179.393 E0.00688
G1 X76.568 Y179.401 E0.49859
G1 X75.621 Y179.324 E0.00706
G1 X74.702 Y179.105 E0.00701
G1 X73.832 Y178.750 E0.00697
G1 X73.027 Y178.269 E0.00697
G1 X72.304 Y177.670 E0.00697
G1 X71.680 Y176.969 E0.00697
G1 X71.169 Y176.182 E0.00697
G1 X70.783 Y175.326 E0.00697
G1 X70.532 Y174.421 E0.00697
G1 X70.420 Y173.483 E0.00701
G1 X70.396 Y85.618 E0.65221
G1 X70.472 Y84.677 E0.00701
G1 X70.692 Y83.752 E0.00706
G1 X71.221 Y82.586 E0.00950
G1 E-0.35000 F2700.000
;WIPE_START
G1 F7200.000
G1 X71.282 Y82.452 E-0.05268
G1 X71.436 Y82.252 E-0.08982
;WIPE_END
G1 E-0.00750 F2700.000
G1 Z0.600 F9000.000
G1 X77.032 Y85.829
G1 Z0.100
G1 E0.50000 F2400.000
;TYPE:Perimeter
G1 F1200.000
G1 X113.369 Y49.501 E0.38140
G1 X114.362 Y48.660 E0.00965
G1 X115.463 Y48.004 E0.00951
G1 X116.657 Y47.539 E0.00951
G1 X117.911 Y47.276 E0.00951
G1 X119.191 Y47.223 E0.00951
G1 X120.463 Y47.381 E0.00951
G1 X121.692 Y47.747 E0.00951
G1 X122.843 Y48.310 E0.00951
G1 X123.886 Y49.054 E0.00951
G1 X124.792 Y49.961 E0.00951
G1 X125.537 Y51.004 E0.00951
G1 X126.100 Y52.155 E0.00951
G1 X126.466 Y53.383 E0.00951
G1 X126.624 Y54.655 E0.00951
G1 X126.571 Y55.936 E0.00951
G1 X126.308 Y57.190 E0.00951
G1 X125.842 Y58.384 E0.00951
G1 X125.186 Y59.485 E0.00951
G1 X124.346 Y60.477 E0.00965
G1 X96.862 Y87.961 E0.28851
G1 X96.437 Y88.464 E0.00488
G1 X96.093 Y89.047 E0.00503
G1 X95.850 Y89.679 E0.00503
G1 X95.717 Y90.343 E0.00503
G1 X95.697 Y91.020 E0.00503
G1 X95.789 Y91.691 E0.00503
G1 X95.993 Y92.337 E0.00503
G1 X96.302 Y92.940 E0.00503
G1 X96.707 Y93.483 E0.00503
G1 X97.197 Y93.950 E0.00503
G1 X97.758 Y94.329 E0.00503
G1 X98.375 Y94.609 E0.00503
G1 X99.011 Y94.777 E0.00488
G1 X128.436 Y99.966 E0.22179
G1 X130.436 Y100.440 E0.01526
G1 X132.355 Y101.138 E0.01516
G1 X134.180 Y102.055 E0.01516
G1 X135.887 Y103.177 E0.01516
G1 X137.451 Y104.490 E0.01516
G1 X138.852 Y105.975 E0.01516
G1 X140.072 Y107.613 E0.01516
G1 X141.093 Y109.382 E0.01516
G1 X141.902 Y111.257 E0.01516
G1 X142.487 Y113.213 E0.01516
G1 X142.842 Y115.224 E0.01516
G1 X142.883 Y115.930 E0.00525
G1 X142.961 Y117.263 E0.00991
G1 X142.842 Y119.302 E0.01516
G1 X142.487 Y121.313 E0.01516
G1 X141.902 Y123.269 E0.01516
G1 X141.093 Y125.144 E0.01516
G1 X140.072 Y126.913 E0.01516
G1 X138.852 Y128.551 E0.01516
G1 X137.451 Y130.036 E0.01516
G1 X135.887 Y131.349 E0.01516
G1 X134.180 Y132.471 E0.01516
G1 X132.355 Y133.387 E0.01516
G1 X130.436 Y134.086 E0.01516
G1 X128.436 Y134.560 E0.01526
G1 X106.398 Y138.446 E0.16611
G1 X105.775 Y138.609 E0.00478
G1 X105.170 Y138.880 E0.00492
G1 X104.617 Y139.246 E0.00492
G1 X104.132 Y139.698 E0.00492
G1 X103.727 Y140.223 E0.00492
G1 X103.413 Y140.807 E0.00492
G1 X103.200 Y141.434 E0.00492
G1 X103.091 Y142.088 E0.00492
G1 X103.091 Y142.751 E0.00492
G1 X103.200 Y143.405 E0.00492
G1 X103.413 Y144.033 E0.00492
G1 X103.727 Y144.617 E0.00492
G1 X104.132 Y145.142 E0.00492
G1 X104.617 Y145.593 E0.00492
G1 X105.170 Y145.959 E0.00492
G1 X105.775 Y146.230 E0.00492
G1 X106.398 Y146.394 E0.00478
G1 X142.961 Y152.841 E0.27559
G1 X142.915 Y169.114 E0.12079
G1 X142.946 Y172.766 E0.02711
G1 X77.048 Y172.766 E0.48915
G1 X77.020 Y164.926 E0.05819
G1 X77.039 Y142.433 E0.16696
G1 X77.165 Y140.265 E0.01612
G1 X77.540 Y138.139 E0.01602
G1 X78.159 Y136.072 E0.01602
G1 X79.014 Y134.090 E0.01602
G1 X80.093 Y132.220 E0.01602
G1 X81.382 Y130.489 E0.01602
G1 X81.895 Y129.945 E0.00555
G1 X82.863 Y128.919 E0.01047
G1 X84.516 Y127.532 E0.01602
G1 X86.320 Y126.346 E0.01602
G1 X88.248 Y125.377 E0.01602
G1 X90.277 Y124.639 E0.01602
G1 X92.390 Y124.138 E0.01612
G1 X108.843 Y121.237 E0.12402
G1 X109.466 Y121.073 E0.00478
G1 X110.071 Y120.802 E0.00492
G1 X110.624 Y120.436 E0.00492
G1 X111.109 Y119.985 E0.00492
G1 X111.514 Y119.460 E0.00492
G1 X111.828 Y118.876 E0.00492
G1 X112.042 Y118.248 E0.00492
G1 X112.150 Y117.594 E0.00492
G1 X112.150 Y116.931 E0.00492
G1 X112.042 Y116.277 E0.00492
G1 X111.828 Y115.650 E0.00492
G1 X111.514 Y115.066 E0.00492
G1 X111.109 Y114.541 E0.00492
G1 X110.624 Y114.089 E0.00492
G1 X110.071 Y113.723 E0.00492
G1 X109.466 Y113.452 E0.00492
G1 X108.843 Y113.289 E0.00478
G1 X87.753 Y109.570 E0.15897
G1 X86.143 Y109.179 E0.01230
G1 X84.608 Y108.593 E0.01219
G1 X83.161 Y107.818 E0.01219
G1 X81.823 Y106.865 E0.01219
G1 X80.616 Y105.751 E0.01219
G1 X79.561 Y104.492 E0.01219
G1 X78.673 Y103.111 E0.01219
G1 X77.967 Y101.628 E0.01219
G1 X77.454 Y100.068 E0.01219
G1 X77.144 Y98.455 E0.01219
G1 X77.039 Y96.801 E0.01230
G1 X77.032 Y85.889 E0.08100
G1 X76.854 Y85.889 F9000.000
G1 F1200.000
G1 X76.853 Y85.755 E0.00099
G1 X113.248 Y49.370 E0.38200
G1 X114.258 Y48.515 E0.00982
G1 X115.384 Y47.843 E0.00973
G1 X116.605 Y47.367 E0.00973
G1 X117.889 Y47.098 E0.00973
G1 X119.199 Y47.044 E0.00973
G1 X120.500 Y47.206 E0.00973
G1 X121.757 Y47.580 E0.00973
G1 X122.935 Y48.156 E0.00973
G1 X124.002 Y48.918 E0.00973
G1 X124.929 Y49.845 E0.00973
G1 X125.691 Y50.912 E0.00973
G1 X126.267 Y52.090 E0.00973
G1 X126.641 Y53.347 E0.00973
G1 X126.803 Y54.648 E0.00973
G1 X126.749 Y55.958 E0.00973
G1 X126.480 Y57.241 E0.00973
G1 X126.003 Y58.463 E0.00973
G1 X125.332 Y59.589 E0.00973
G1 X124.477 Y60.598 E0.00982
G1 X96.993 Y88.082 E0.28851
G1 X96.583 Y88.568 E0.00472
G1 X96.254 Y89.125 E0.00480
G1 X96.022 Y89.729 E0.00480
G1 X95.895 Y90.364 E0.00480
G1 X95.876 Y91.011 E0.00480
G1 X95.964 Y91.652 E0.00480
G1 X96.159 Y92.269 E0.00480
G1 X96.454 Y92.845 E0.00480
G1 X96.841 Y93.364 E0.00480
G1 X97.309 Y93.810 E0.00480
G1 X97.845 Y94.173 E0.00480
G1 X98.435 Y94.440 E0.00480
G1 X99.049 Y94.603 E0.00472
G1 X128.473 Y99.791 E0.22177
G1 X130.488 Y100.269 E0.01537
G1 X132.426 Y100.974 E0.01531
G1 X134.270 Y101.900 E0.01531
G1 X135.993 Y103.034 E0.01531
G1 X137.574 Y104.360 E0.01531
G1 X138.989 Y105.860 E0.01531
G1 X140.221 Y107.515 E0.01531
G1 X141.253 Y109.301 E0.01531
G1 X142.070 Y111.196 E0.01531
G1 X142.661 Y113.172 E0.01531
G1 X143.020 Y115.203 E0.01531
G1 X143.061 Y115.920 E0.00533
G1 X143.140 Y117.263 E0.00999
G1 X143.020 Y119.322 E0.01531
G1 X142.661 Y121.354 E0.01531
G1 X142.070 Y123.330 E0.01531
G1 X141.253 Y125.224 E0.01531
G1 X140.221 Y127.011 E0.01531
G1 X138.989 Y128.666 E0.01531
G1 X137.574 Y130.166 E0.01531
G1 X135.993 Y131.492 E0.01531
G1 X134.270 Y132.626 E0.01531
G1 X132.426 Y133.552 E0.01531
G1 X130.488 Y134.257 E0.01531
G1 X128.473 Y134.735 E0.01537
G1 X106.436 Y138.620 E0.16610
G1 X105.834 Y138.778 E0.00462
G1 X105.256 Y139.037 E0.00470
G1 X104.728 Y139.387 E0.00470
G1 X104.264 Y139.819 E0.00470
G1 X103.877 Y140.320 E0.00470
G1 X103.578 Y140.878 E0.00470
G1 X103.373 Y141.478 E0.00470
G1 X103.270 Y142.103 E0.00470
G1 X103.270 Y142.736 E0.00470
G1 X103.373 Y143.361 E0.00470
G1 X103.578 Y143.961 E0.00470
G1 X103.877 Y144.519 E0.00470
G1 X104.264 Y145.021 E0.00470
G1 X104.728 Y145.452 E0.00470
G1 X105.256 Y145.802 E0.00470
G1 X105.834 Y146.061 E0.00470
G1 X106.436 Y146.219 E0.00462
G1 X142.992 Y152.665 E0.27554
G1 X143.079 Y152.702 E0.00070
G1 X143.118 Y152.749 E0.00045
G1 X143.140 Y152.841 E0.00070
G1 X143.093 Y169.113 E0.12079
G1 X143.126 Y172.944 E0.02844
G1 X76.870 Y172.944 E0.49180
G1 X76.841 Y164.926 E0.05952
G1 X76.860 Y142.428 E0.16700
G1 X76.987 Y140.244 E0.01624
G1 X77.366 Y138.098 E0.01618
G1 X77.991 Y136.010 E0.01618
G1 X78.854 Y134.009 E0.01618
G1 X79.943 Y132.122 E0.01618
G1 X81.245 Y130.374 E0.01618
G1 X81.765 Y129.823 E0.00563
G1 X82.740 Y128.789 E0.01055
G1 X84.410 Y127.388 E0.01618
G1 X86.230 Y126.191 E0.01618
G1 X88.178 Y125.213 E0.01618
G1 X90.225 Y124.467 E0.01618
G1 X92.354 Y123.963 E0.01624
G1 X108.805 Y121.062 E0.12400
G1 X109.407 Y120.904 E0.00462
G1 X109.985 Y120.645 E0.00470
G1 X110.513 Y120.295 E0.00470
G1 X110.977 Y119.864 E0.00470
G1 X111.364 Y119.362 E0.00470
G1 X111.664 Y118.804 E0.00470
G1 X111.868 Y118.205 E0.00470
G1 X111.972 Y117.580 E0.00470
G1 X111.972 Y116.946 E0.00470
G1 X111.868 Y116.321 E0.00470
G1 X111.664 Y115.721 E0.00470
G1 X111.364 Y115.163 E0.00470
G1 X110.977 Y114.662 E0.00470
G1 X110.513 Y114.230 E0.00470
G1 X109.985 Y113.880 E0.00470
G1 X109.407 Y113.621 E0.00470
G1 X108.805 Y113.463 E0.00462
G1 X87.716 Y109.745 E0.15895
G1 X86.090 Y109.350 E0.01243
G1 X84.534 Y108.756 E0.01236
G1 X83.066 Y107.970 E0.01236
G1 X81.710 Y107.004 E0.01236
G1 X80.487 Y105.874 E0.01236
G1 X79.417 Y104.599 E0.01236
G1 X78.516 Y103.198 E0.01236
G1 X77.801 Y101.694 E0.01236
G1 X77.281 Y100.112 E0.01236
G1 X76.966 Y98.477 E0.01236
G1 X76.860 Y96.807 E0.01243
G1 X76.854 Y85.949 E0.08060
G1 X76.675 Y85.681 F9000.000
;TYPE:External perimeter
G1 F1200.000
G1 X113.127 Y49.238 E0.38261
G1 X114.153 Y48.369 E0.00998
G1 X115.305 Y47.683 E0.00995
G1 X116.554 Y47.195 E0.00995
G1 X117.867 Y46.920 E0.00995
G1 X119.206 Y46.865 E0.00995
G1 X120.537 Y47.030 E0.00995
G1 X121.822 Y47.413 E0.00995
G1 X123.026 Y48.002 E0.00995
G1 X124.118 Y48.781 E0.00995
G1 X125.066 Y49.729 E0.00995
G1 X125.845 Y50.820 E0.00995
G1 X126.434 Y52.025 E0.00995
G1 X126.816 Y53.310 E0.00995
G1 X126.982 Y54.640 E0.00995
G1 X126.927 Y55.980 E0.00995
G1 X126.652 Y57.292 E0.00995
G1 X126.164 Y58.541 E0.00995
G1 X125.478 Y59.693 E0.00995
G1 X124.609 Y60.719 E0.00998
G1 X97.125 Y88.203 E0.28851
G1 X96.729 Y88.671 E0.00455
G1 X96.415 Y89.203 E0.00458
G1 X96.194 Y89.779 E0.00458
G1 X96.073 Y90.384 E0.00458
G1 X96.054 Y91.001 E0.00458
G1 X96.139 Y91.612 E0.00458
G1 X96.325 Y92.201 E0.00458
G1 X96.606 Y92.750 E0.00458
G1 X96.975 Y93.245 E0.00458
G1 X97.422 Y93.671 E0.00458
G1 X97.933 Y94.016 E0.00458
G1 X98.495 Y94.272 E0.00458
G1 X99.087 Y94.428 E0.00455
G1 X128.509 Y99.616 E0.22176
G1 X130.539 Y100.097 E0.01549
G1 X132.497 Y100.810 E0.01547
G1 X134.359 Y101.745 E0.01547
G1 X136.100 Y102.890 E0.01547
G1 X137.696 Y104.229 E0.01547
G1 X139.126 Y105.745 E0.01547
G1 X140.371 Y107.417 E0.01547
G1 X141.412 Y109.221 E0.01547
G1 X142.238 Y111.134 E0.01547
G1 X142.835 Y113.131 E0.01547
G1 X143.197 Y115.183 E0.01547
G1 X143.240 Y115.909 E0.00540
G1 X143.318 Y117.263 E0.01006
G1 X143.197 Y119.343 E0.01547
G1 X142.835 Y121.395 E0.01547
G1 X142.238 Y123.391 E0.01547
G1 X141.412 Y125.305 E0.01547
G1 X140.371 Y127.109 E0.01547
G1 X139.126 Y128.781 E0.01547
G1 X137.696 Y130.296 E0.01547
G1 X136.100 Y131.636 E0.01547
G1 X134.359 Y132.781 E0.01547
G1 X132.497 Y133.716 E0.01547
G1 X130.539 Y134.428 E0.01547
G1 X128.509 Y134.910 E0.01549
G1 X106.474 Y138.795 E0.16608
G1 X105.894 Y138.947 E0.00445
G1 X105.343 Y139.194 E0.00448
G1 X104.839 Y139.528 E0.00448
G1 X104.397 Y139.939 E0.00448
G1 X104.028 Y140.418 E0.00448
G1 X103.742 Y140.950 E0.00448
G1 X103.547 Y141.522 E0.00448
G1 X103.448 Y142.118 E0.00448
G1 X103.448 Y142.722 E0.00448
G1 X103.547 Y143.318 E0.00448
G1 X103.742 Y143.890 E0.00448
G1 X104.028 Y144.422 E0.00448
G1 X104.397 Y144.900 E0.00448
G1 X104.839 Y145.312 E0.00448
G1 X105.343 Y145.645 E0.00448
G1 X105.894 Y145.892 E0.00448
G1 X106.474 Y146.045 E0.00445
G1 X143.044 Y152.493 E0.27564
G1 X143.189 Y152.555 E0.00117
G1 X143.282 Y152.667 E0.00108
G1 X143.319 Y152.820 E0.00117
G1 X143.272 Y169.113 E0.12094
G1 X143.306 Y173.123 E0.02977
G1 X76.693 Y173.123 E0.49446
G1 X76.662 Y164.926 E0.06084
G1 X76.681 Y142.423 E0.16704
G1 X76.810 Y140.223 E0.01635
