; generated by PrusaSlicer 2.3.0-rc2+ on 2021-04-16 at 18:47:00 UTC

; 

; external perimeters extrusion width = 0.45mm
; perimeters extrusion width = 0.45mm
; infill extrusion width = 0.45mm
; solid infill extrusion width = 0.45mm
; top infill extrusion width = 0.40mm
; support material extrusion width = 0.40mm
; first layer extrusion width = 0.20mm

M201 X500 Y500 Z100 E5000 ; sets maximum accelerations, mm/sec^2
M203 X500 Y500 Z10 E60 ; sets maximum feedrates, mm/sec
M204 P500 R1000 T500 ; sets acceleration (P, T) and retract acceleration (R), mm/sec^2
M205 X8.00 Y8.00 Z0.40 E5.00 ; sets the jerk limits, mm/sec
M205 S0 T0 ; sets the minimum extruding and travel feed rate, mm/sec
M107
M190 S80 ; set bed temperature and wait for it to be reached
M104 S220 ; set temperature
;TYPE:Custom
G28 ; Home
M109 S220 ; set temperature and wait for it to be reached
G21 ; set units to millimeters
G90 ; use absolute coordinates
M83 ; use relative distances for extrusion
;LAYER_CHANGE
;Z:0.1
;HEIGHT:0.1
;BEFORE_LAYER_CHANGE
;0.1


G1 E-0.50000 F2700.000
G1 Z0.500 F9000.000
;AFTER_LAYER_CHANGE
;0.1
G1 X80.813 Y49.317
G1 Z0.100
G1 E0.50000 F2400.000
;TYPE:Skirt
;WIDTH:0.2
G1 F1200.000
G1 X81.806 Y47.094 E0.01807
G1 X82.508 Y46.001 E0.00965
G1 X83.609 Y44.623 E0.01309
G1 X84.315 Y43.928 E0.00735
G1 X86.304 Y42.417 E0.01854
G1 X88.745 Y41.262 E0.02004
G1 X91.406 Y40.641 E0.02028
G1 X93.694 Y40.579 E0.01699
G1 X95.048 Y40.722 E0.01011
G1 X96.739 Y41.102 E0.01287
G1 X97.651 Y41.421 E0.00717
G1 X99.833 Y42.505 E0.01808
G1 X101.941 Y44.165 E0.01992
G1 X139.836 Y81.900 E0.39696
G1 X140.767 Y83.108 E0.01132
G1 X141.395 Y84.504 E0.01137
G1 X141.618 Y85.450 E0.00721
G1 X141.697 Y86.425 E0.00726
G1 X142.006 Y173.575 E0.64691
G1 X141.889 Y174.565 E0.00740
G1 X141.620 Y175.532 E0.00745
G1 X141.209 Y176.440 E0.00740
G1 X140.661 Y177.281 E0.00745
G1 X139.996 Y178.023 E0.00740
G1 X139.225 Y178.655 E0.00740
G1 X138.362 Y179.166 E0.00745
G1 X137.436 Y179.537 E0.00740
G1 X136.484 Y179.759 E0.00726
G1 X135.509 Y179.837 E0.00726
G1 X84.051 Y179.820 E0.38197
G1 X83.083 Y179.677 E0.00726
G1 X82.154 Y179.393 E0.00721
G1 X81.277 Y178.974 E0.00721
G1 X80.472 Y178.430 E0.00721
G1 X79.752 Y177.768 E0.00726
G1 X79.143 Y177.011 E0.00721
G1 X78.649 Y176.166 E0.00726
G1 X78.290 Y175.264 E0.00721
G1 X78.063 Y174.286 E0.00745
G1 X77.988 Y173.286 E0.00745
G1 X78.458 Y109.596 E0.47277
G1 X80.235 Y51.947 E0.42812
G1 X80.800 Y49.376 E0.01954
G1 X80.973 Y49.414 F9000.000
G1 F1200.000
G1 X81.964 Y47.178 E0.01815
G1 X82.648 Y46.112 E0.00941
G1 X83.738 Y44.747 E0.01297
G1 X84.430 Y44.065 E0.00721
G1 X86.395 Y42.570 E0.01833
G1 X88.807 Y41.430 E0.01980
G1 X91.431 Y40.818 E0.02000
G1 X93.694 Y40.757 E0.01680
G1 X95.011 Y40.897 E0.00983
G1 X96.685 Y41.273 E0.01273
G1 X97.578 Y41.584 E0.00702
G1 X99.735 Y42.655 E0.01788
G1 X101.820 Y44.296 E0.01969
G1 X139.705 Y82.021 E0.39685
G1 X140.616 Y83.202 E0.01107
G1 X141.225 Y84.557 E0.01103
G1 X141.441 Y85.478 E0.00702
G1 X141.519 Y86.427 E0.00707
G1 X141.828 Y173.559 E0.64677
G1 X141.715 Y174.523 E0.00721
G1 X141.456 Y175.459 E0.00721
G1 X141.058 Y176.344 E0.00721
G1 X140.526 Y177.164 E0.00725
G1 X139.879 Y177.888 E0.00721
G1 X139.129 Y178.505 E0.00721
G1 X138.289 Y179.003 E0.00725
G1 X137.388 Y179.365 E0.00721
G1 X136.461 Y179.582 E0.00707
G1 X135.512 Y179.659 E0.00707
G1 X84.076 Y179.643 E0.38180
G1 X83.134 Y179.505 E0.00707
G1 X82.229 Y179.230 E0.00702
G1 X81.369 Y178.821 E0.00707
G1 X80.585 Y178.292 E0.00702
G1 X79.888 Y177.652 E0.00702
G1 X79.294 Y176.916 E0.00702
G1 X78.816 Y176.100 E0.00702
G1 X78.462 Y175.216 E0.00707
G1 X78.240 Y174.264 E0.00725
G1 X78.167 Y173.284 E0.00730
G1 X78.636 Y109.598 E0.47274
G1 X80.412 Y51.973 E0.42794
G1 X80.960 Y49.472 E0.01900
G1 X81.134 Y49.511 F9000.000
G1 F1200.000
G1 X81.152 Y49.429 E0.00062
G1 X82.121 Y47.263 E0.01762
G1 X82.788 Y46.222 E0.00917
G1 X83.872 Y44.865 E0.01289
G1 X84.549 Y44.198 E0.00706
G1 X86.487 Y42.724 E0.01807
G1 X88.870 Y41.597 E0.01957
G1 X91.463 Y40.994 E0.01976
G1 X93.694 Y40.936 E0.01657
G1 X94.974 Y41.071 E0.00956
G1 X96.637 Y41.444 E0.01265
G1 X97.511 Y41.750 E0.00688
G1 X99.644 Y42.808 E0.01767
G1 X101.704 Y44.432 E0.01947
G1 X139.578 Y82.147 E0.39675
G1 X140.461 Y83.292 E0.01073
G1 X141.055 Y84.610 E0.01073
G1 X141.266 Y85.512 E0.00688
G1 X141.340 Y86.429 E0.00683
G1 X141.650 Y173.544 E0.64664
G1 X141.541 Y174.482 E0.00701
G1 X141.288 Y175.399 E0.00706
G1 X140.900 Y176.260 E0.00701
G1 X140.386 Y177.053 E0.00701
G1 X139.757 Y177.757 E0.00701
G1 X139.027 Y178.358 E0.00701
G1 X138.215 Y178.840 E0.00701
G1 X137.339 Y179.193 E0.00701
G1 X136.437 Y179.405 E0.00688
G1 X135.507 Y179.480 E0.00692
G1 X84.100 Y179.466 E0.38158
G1 X83.184 Y179.333 E0.00688
G1 X82.303 Y179.067 E0.00683
G1 X81.471 Y178.674 E0.00683
G1 X80.702 Y178.157 E0.00688
G1 X80.019 Y177.531 E0.00688
G1 X79.441 Y176.815 E0.00683
G1 X78.976 Y176.021 E0.00683
G1 X78.631 Y175.161 E0.00688
G1 X78.416 Y174.234 E0.00706
G1 X78.345 Y173.286 E0.00706
G1 X78.815 Y109.600 E0.47275
G1 X80.589 Y51.998 E0.42777
G1 X81.121 Y49.569 E0.01845
G1 E-0.35000 F2700.000
;WIPE_START
G1 F7200.000
G1 X81.152 Y49.429 E-0.05111
G1 X81.257 Y49.195 E-0.09139
;WIPE_END
G1 E-0.00750 F2700.000
G1 Z0.600 F9000.000
G1 X135.015 Y172.845
G1 Z0.100
G1 E0.50000 F2400.000
;TYPE:Perimeter
G1 F1200.000
G1 X84.985 Y172.845 E0.37136
G1 X85.046 Y166.050 E0.05044
G1 X85.404 Y137.282 E0.21355
G1 X85.442 Y136.854 E0.00319
G1 X85.532 Y136.561 E0.00228
G1 X85.676 Y136.297 E0.00223
G1 X85.867 Y136.070 E0.00221
G1 X86.101 Y135.883 E0.00223
G1 X86.374 Y135.742 E0.00228
G1 X86.787 Y135.631 E0.00317
G1 X109.765 Y131.573 E0.17320
G1 X110.909 Y131.088 E0.00923
G1 X111.852 Y130.110 E0.01009
G1 X112.315 Y128.909 E0.00955
G1 X112.315 Y127.656 E0.00930
G1 X111.852 Y126.455 E0.00955
G1 X110.909 Y125.477 E0.01009
G1 X109.765 Y124.992 E0.00923
G1 X96.306 Y122.612 E0.10145
G1 X93.743 Y121.906 E0.01973
G1 X91.474 Y120.774 E0.01882
G1 X89.475 Y119.236 E0.01873
G1 X87.810 Y117.329 E0.01879
G1 X86.543 Y115.089 E0.01910
G1 X85.734 Y112.542 E0.01984
G1 X85.452 Y109.701 E0.02119
G1 X85.737 Y106.856 E0.02122
G1 X86.534 Y104.297 E0.01990
G1 X87.783 Y102.050 E0.01908
G1 X89.428 Y100.142 E0.01870
G1 X91.416 Y98.608 E0.01864
G1 X93.696 Y97.485 E0.01886
G1 X96.320 Y96.794 E0.02014
G1 X117.109 Y93.122 E0.15670
G1 X118.030 Y92.787 E0.00727
G1 X118.889 Y92.126 E0.00805
G1 X119.474 Y91.250 E0.00782
G1 X119.753 Y90.265 E0.00760
G1 X119.725 Y89.251 E0.00753
G1 X119.395 Y88.279 E0.00762
G1 X118.866 Y87.535 E0.00677
G1 X88.927 Y57.594 E0.31430
G1 X88.016 Y56.456 E0.01082
G1 X87.462 Y55.280 E0.00965
G1 X87.185 Y54.023 E0.00955
G1 X87.186 Y52.738 E0.00954
G1 X87.465 Y51.481 E0.00956
G1 X88.021 Y50.303 E0.00967
G1 X88.859 Y49.245 E0.01001
G1 X89.916 Y48.408 E0.01001
G1 X91.094 Y47.852 E0.00967
G1 X92.352 Y47.572 E0.00956
G1 X93.637 Y47.571 E0.00954
G1 X94.893 Y47.849 E0.00955
G1 X96.070 Y48.403 E0.00965
G1 X97.208 Y49.313 E0.01082
G1 X134.702 Y86.655 E0.39280
G1 X134.597 Y94.511 E0.05832
G1 X134.373 Y96.651 E0.01597
G1 X133.753 Y98.543 E0.01478
G1 X132.777 Y100.260 E0.01466
G1 X131.495 Y101.751 E0.01460
G1 X129.963 Y102.968 E0.01452
G1 X128.243 Y103.862 E0.01439
G1 X126.292 Y104.415 E0.01505
G1 X114.928 Y106.427 E0.08566
G1 X113.777 Y106.981 E0.00949
G1 X112.885 Y107.952 E0.00978
G1 X112.441 Y109.138 E0.00940
G1 X112.454 Y110.379 E0.00921
G1 X112.925 Y111.553 E0.00939
G1 X113.842 Y112.496 E0.00977
G1 X114.963 Y112.990 E0.00909
G1 X122.869 Y114.390 E0.05960
G1 X125.434 Y115.060 E0.01968
G1 X127.812 Y116.177 E0.01950
G1 X129.983 Y117.743 E0.01987
G1 X131.842 Y119.737 E0.02024
G1 X133.293 Y122.151 E0.02090
G1 X134.244 Y124.988 E0.02222
G1 X134.597 Y128.371 E0.02525
G1 X134.662 Y137.390 E0.06695
G1 X135.014 Y172.785 E0.26274
G1 X135.195 Y173.023 F9000.000
G1 F1200.000
G1 X84.805 Y173.023 E0.37404
G1 X84.868 Y166.048 E0.05178
G1 X85.225 Y137.273 E0.21361
G1 X85.265 Y136.819 E0.00338
G1 X85.367 Y136.491 E0.00255
G1 X85.528 Y136.196 E0.00249
G1 X85.742 Y135.941 E0.00247
G1 X86.004 Y135.732 E0.00249
G1 X86.310 Y135.575 E0.00255
G1 X86.748 Y135.457 E0.00337
G1 X109.714 Y131.401 E0.17311
G1 X110.806 Y130.938 E0.00881
G1 X111.699 Y130.012 E0.00955
G1 X112.136 Y128.876 E0.00904
G1 X112.136 Y127.689 E0.00881
G1 X111.699 Y126.553 E0.00904
G1 X110.806 Y125.627 E0.00955
G1 X109.714 Y125.164 E0.00881
G1 X96.267 Y122.786 E0.10136
G1 X93.679 Y122.074 E0.01992
G1 X91.379 Y120.926 E0.01908
G1 X89.352 Y119.366 E0.01899
G1 X87.664 Y117.433 E0.01905
G1 X86.379 Y115.161 E0.01938
G1 X85.559 Y112.578 E0.02012
G1 X85.272 Y109.701 E0.02146
G1 X85.561 Y106.820 E0.02149
G1 X86.369 Y104.227 E0.02017
G1 X87.636 Y101.947 E0.01935
G1 X89.304 Y100.012 E0.01897
G1 X91.321 Y98.456 E0.01891
G1 X93.633 Y97.317 E0.01913
G1 X96.282 Y96.619 E0.02033
G1 X117.063 Y92.949 E0.15664
G1 X117.943 Y92.629 E0.00695
G1 X118.757 Y92.002 E0.00762
G1 X119.310 Y91.174 E0.00739
G1 X119.574 Y90.243 E0.00719
G1 X119.548 Y89.283 E0.00713
G1 X119.234 Y88.362 E0.00722
G1 X118.729 Y87.651 E0.00647
G1 X88.793 Y57.713 E0.31426
G1 X87.864 Y56.551 E0.01105
G1 X87.292 Y55.338 E0.00996
G1 X87.006 Y54.042 E0.00985
G1 X87.007 Y52.719 E0.00983
G1 X87.295 Y51.423 E0.00985
G1 X87.869 Y50.208 E0.00997
G1 X88.732 Y49.118 E0.01032
G1 X89.821 Y48.255 E0.01032
G1 X91.036 Y47.682 E0.00997
G1 X92.332 Y47.394 E0.00985
G1 X93.656 Y47.393 E0.00983
G1 X94.951 Y47.679 E0.00985
G1 X96.165 Y48.250 E0.00996
G1 X97.327 Y49.180 E0.01105
G1 X134.882 Y86.582 E0.39343
G1 X134.775 Y94.521 E0.05894
G1 X134.549 Y96.688 E0.01617
G1 X133.917 Y98.616 E0.01506
G1 X132.924 Y100.363 E0.01492
G1 X131.619 Y101.881 E0.01485
G1 X130.061 Y103.118 E0.01477
G1 X128.309 Y104.029 E0.01465
G1 X126.332 Y104.589 E0.01525
G1 X114.983 Y106.598 E0.08555
G1 X113.885 Y107.127 E0.00905
G1 X113.040 Y108.047 E0.00927
G1 X112.620 Y109.170 E0.00890
G1 X112.633 Y110.343 E0.00871
G1 X113.077 Y111.453 E0.00888
G1 X113.946 Y112.347 E0.00925
G1 X115.015 Y112.818 E0.00868
G1 X122.907 Y114.216 E0.05949
G1 X125.495 Y114.892 E0.01986
G1 X127.903 Y116.022 E0.01974
G1 X130.102 Y117.608 E0.02012
G1 X131.985 Y119.629 E0.02051
G1 X133.456 Y122.075 E0.02119
G1 X134.420 Y124.950 E0.02251
G1 X134.775 Y128.361 E0.02546
G1 X134.841 Y137.389 E0.06701
G1 X135.194 Y172.963 E0.26408
G1 X135.375 Y173.202 F9000.000
;TYPE:External perimeter
G1 F1200.000
G1 X84.625 Y173.202 E0.37671
G1 X84.689 Y166.046 E0.05312
G1 X85.047 Y137.264 E0.21366
G1 X85.089 Y136.785 E0.00357
G1 X85.202 Y136.421 E0.00283
G1 X85.380 Y136.095 E0.00275
G1 X85.616 Y135.813 E0.00273
G1 X85.906 Y135.581 E0.00275
G1 X86.245 Y135.407 E0.00283
G1 X86.709 Y135.282 E0.00357
G1 X109.662 Y131.229 E0.17302
G1 X110.703 Y130.788 E0.00839
G1 X111.545 Y129.914 E0.00901
G1 X111.958 Y128.842 E0.00853
G1 X111.958 Y127.722 E0.00831
G1 X111.545 Y126.651 E0.00853
G1 X110.703 Y125.777 E0.00901
G1 X109.663 Y125.336 E0.00839
G1 X96.227 Y122.961 E0.10127
G1 X93.615 Y122.241 E0.02011
G1 X91.284 Y121.078 E0.01934
G1 X89.229 Y119.497 E0.01925
G1 X87.518 Y117.536 E0.01932
G1 X86.214 Y115.232 E0.01965
G1 X85.383 Y112.614 E0.02039
G1 X85.093 Y109.701 E0.02173
G1 X85.385 Y106.785 E0.02175
G1 X86.205 Y104.156 E0.02044
G1 X87.489 Y101.845 E0.01963
G1 X89.181 Y99.882 E0.01924
G1 X91.226 Y98.303 E0.01918
G1 X93.570 Y97.149 E0.01939
G1 X96.244 Y96.445 E0.02052
G1 X117.017 Y92.776 E0.15658
G1 X117.856 Y92.471 E0.00663
G1 X118.624 Y91.879 E0.00720
G1 X119.146 Y91.099 E0.00696
G1 X119.395 Y90.220 E0.00678
G1 X119.370 Y89.315 E0.00673
G1 X119.073 Y88.444 E0.00683
G1 X118.592 Y87.767 E0.00617
G1 X88.660 Y57.833 E0.31422
G1 X87.711 Y56.646 E0.01128
G1 X87.122 Y55.396 E0.01026
G1 X86.828 Y54.062 E0.01014
G1 X86.829 Y52.699 E0.01012
G1 X87.125 Y51.364 E0.01015
G1 X87.716 Y50.113 E0.01027
G1 X88.605 Y48.991 E0.01062
G1 X89.726 Y48.102 E0.01062
G1 X90.978 Y47.512 E0.01027
G1 X92.312 Y47.215 E0.01015
G1 X93.675 Y47.214 E0.01012
G1 X95.009 Y47.509 E0.01014
G1 X96.260 Y48.098 E0.01026
G1 X97.446 Y49.047 E0.01128
G1 X135.061 Y86.509 E0.39406
G1 X134.954 Y94.532 E0.05956
G1 X134.725 Y96.726 E0.01637
G1 X134.081 Y98.689 E0.01533
G1 X133.070 Y100.466 E0.01518
G1 X131.744 Y102.010 E0.01511
G1 X130.158 Y103.269 E0.01503
G1 X128.375 Y104.195 E0.01492
G1 X126.372 Y104.763 E0.01545
G1 X115.039 Y106.770 E0.08543
G1 X113.993 Y107.273 E0.00861
G1 X113.195 Y108.142 E0.00876
G1 X112.799 Y109.201 E0.00839
G1 X112.811 Y110.308 E0.00822
G1 X113.230 Y111.354 E0.00837
G1 X114.049 Y112.198 E0.00873
G1 X115.068 Y112.646 E0.00826
G1 X122.945 Y114.041 E0.05938
G1 X125.556 Y114.723 E0.02003
G1 X127.994 Y115.868 E0.01999
G1 X130.220 Y117.474 E0.02038
G1 X132.129 Y119.521 E0.02078
G1 X133.619 Y122.000 E0.02147
G1 X134.596 Y124.912 E0.02280
G1 X134.954 Y128.351 E0.02567
G1 X135.019 Y137.387 E0.06707
G1 X135.375 Y173.142 E0.26541
G1 X135.028 Y173.003 F9000.000
G1 E-0.35000 F2700.000
;WIPE_START
G1 F7200.000
G1 X134.975 Y173.142 E-0.14250
;WIPE_END
G1 E-0.00750 F2700.000
G1 Z0.600 F9000.000
G1 X106.604 Y58.746
G1 Z0.100
G1 E0.50000 F2400.000
;TYPE:Solid infill
;WIDTH:0.200217
G1 F1200.000
G1 X134.568 Y86.710 E0.29391
G1 X134.564 Y86.960 E0.00185
G1 X96.615 Y49.010 E0.39886
G1 X95.998 Y48.517 E0.00587
G1 X95.754 Y48.402 E0.00201
G1 X134.561 Y87.209 E0.40787
G1 X134.558 Y87.459 E0.00185
G1 X95.276 Y48.177 E0.41286
G1 X94.815 Y47.969 E0.00376
G1 X134.554 Y87.708 E0.41767
G1 X134.551 Y87.957 E0.00185
G1 X94.490 Y47.897 E0.42104
G1 X94.166 Y47.825 E0.00247
G1 X134.547 Y88.207 E0.42442
G1 X134.544 Y88.456 E0.00185
G1 X93.841 Y47.754 E0.42779
G1 X93.622 Y47.705 E0.00167
G1 X93.540 Y47.705 E0.00061
G1 X134.541 Y88.706 E0.43093
G1 X134.537 Y88.955 E0.00185
G1 X93.288 Y47.705 E0.43355
G1 X93.035 Y47.706 E0.00188
G1 X134.534 Y89.205 E0.43617
G1 X134.531 Y89.454 E0.00185
G1 X92.782 Y47.706 E0.43878
G1 X92.530 Y47.706 E0.00188
G1 X134.527 Y89.704 E0.44140
G1 X134.524 Y89.953 E0.00185
G1 X92.293 Y47.722 E0.44385
G1 X92.086 Y47.768 E0.00157
G1 X134.521 Y90.203 E0.44599
G1 X134.517 Y90.452 E0.00185
G1 X91.880 Y47.814 E0.44813
G1 X91.673 Y47.860 E0.00157
G1 X134.514 Y90.701 E0.45027
G1 X134.511 Y90.951 E0.00185
G1 X91.466 Y47.906 E0.45241
G1 X91.259 Y47.952 E0.00157
G1 X134.507 Y91.200 E0.45455
G1 X134.504 Y91.450 E0.00185
G1 X91.067 Y48.013 E0.45653
G1 X90.895 Y48.094 E0.00141
G1 X134.501 Y91.699 E0.45830
G1 X134.497 Y91.949 E0.00185
G1 X90.723 Y48.175 E0.46007
G1 X90.552 Y48.256 E0.00141
G1 X134.494 Y92.198 E0.46184
G1 X134.491 Y92.448 E0.00185
G1 X90.380 Y48.337 E0.46361
G1 X90.208 Y48.418 E0.00141
G1 X134.487 Y92.697 E0.46538
G1 X134.484 Y92.947 E0.00185
G1 X90.036 Y48.499 E0.46715
G1 X89.887 Y48.602 E0.00135
G1 X134.481 Y93.196 E0.46869
G1 X134.477 Y93.445 E0.00185
G1 X89.746 Y48.714 E0.47014
G1 X89.604 Y48.826 E0.00134
G1 X134.474 Y93.695 E0.47159
G1 X134.470 Y93.944 E0.00185
G1 X89.463 Y48.937 E0.47303
G1 X89.322 Y49.049 E0.00134
G1 X134.467 Y94.194 E0.47448
G1 X134.464 Y94.443 E0.00185
G1 X89.181 Y49.161 E0.47593
G1 X89.040 Y49.273 E0.00134
G1 X134.445 Y94.677 E0.47721
G1 X134.421 Y94.906 E0.00171
G1 X88.911 Y49.396 E0.47832
G1 X88.799 Y49.537 E0.00134
G1 X134.397 Y95.135 E0.47925
G1 X134.373 Y95.364 E0.00171
G1 X88.687 Y49.678 E0.48017
G1 X88.575 Y49.819 E0.00134
G1 X134.349 Y95.593 E0.48109
G1 X134.325 Y95.822 E0.00171
G1 X88.464 Y49.960 E0.48202
G1 X88.352 Y50.101 E0.00134
G1 X134.301 Y96.051 E0.48294
G1 X134.278 Y96.280 E0.00171
G1 X88.240 Y50.242 E0.48386
G1 X88.130 Y50.385 E0.00134
G1 X134.254 Y96.508 E0.48477
G1 X134.242 Y96.623 E0.00085
G1 X134.211 Y96.718 E0.00075
G1 X88.049 Y50.557 E0.48516
G1 X87.968 Y50.729 E0.00141
G1 X134.148 Y96.908 E0.48536
G1 X134.086 Y97.099 E0.00149
G1 X87.887 Y50.900 E0.48556
G1 X87.806 Y51.072 E0.00141
G1 X134.023 Y97.289 E0.48575
G1 X133.961 Y97.480 E0.00149
G1 X87.725 Y51.244 E0.48595
G1 X87.644 Y51.416 E0.00141
G1 X133.899 Y97.670 E0.48615
G1 X133.836 Y97.860 E0.00149
G1 X87.576 Y51.600 E0.48621
G1 X87.530 Y51.807 E0.00157
G1 X133.774 Y98.051 E0.48603
G1 X133.711 Y98.241 E0.00149
G1 X87.484 Y52.014 E0.48586
G1 X87.438 Y52.221 E0.00157
G1 X133.649 Y98.432 E0.48569
G1 X133.566 Y98.602 E0.00141
G1 X87.392 Y52.427 E0.48530
G1 X87.346 Y52.634 E0.00157
G1 X133.474 Y98.763 E0.48482
