; generated by PrusaSlicer 2.3.0-rc2+ on 2021-04-16 at 18:47:48 UTC

; 

; external perimeters extrusion width = 0.45mm
; perimeters extrusion width = 0.45mm
; infill extrusion width = 0.45mm
; solid infill extrusion width = 0.45mm
; top infill extrusion width = 0.40mm
; support material extrusion width = 0.40mm
; first layer extrusion width = 0.20mm

M201 X500 Y500 Z100 E5000 ; sets maximum accelerations, mm/sec^2
M203 X500 Y500 Z10 E60 ; sets maximum feedrates, mm/sec
M204 P500 R1000 T500 ; sets acceleration (P, T) and retract acceleration (R), mm/sec^2
M205 X8.00 Y8.00 Z0.40 E5.00 ; sets the jerk limits, mm/sec
M205 S0 T0 ; sets the minimum extruding and travel feed rate, mm/sec
M107
M190 S80 ; set bed temperature and wait for it to be reached
M104 S220 ; set temperature
;TYPE:Custom
G28 ; Home
M109 S220 ; set temperature and wait for it to be reached
G21 ; set units to millimeters
G90 ; use absolute coordinates
M83 ; use relative distances for extrusion
;LAYER_CHANGE
;Z:0.1
;HEIGHT:0.1
;BEFORE_LAYER_CHANGE
;0.1


G1 E-0.50000 F2700.000
G1 Z0.500 F9000.000
;AFTER_LAYER_CHANGE
;0.1
G1 X90.566 Y89.302
G1 Z0.100
G1 E0.50000 F2400.000
;TYPE:Skirt
;WIDTH:0.2
G1 F1200.000
G1 X92.617 Y88.873 E0.01555
G1 X96.752 Y88.217 E0.03108
G1 X105.069 Y87.475 E0.06198
G1 X114.506 Y87.461 E0.07005
G1 X123.313 Y88.224 E0.06562
G1 X127.525 Y88.899 E0.03166
G1 X129.342 Y89.275 E0.01377
G1 X130.674 Y89.815 E0.01067
G1 X131.861 Y90.626 E0.01067
G1 X132.844 Y91.667 E0.01062
G1 X133.587 Y92.898 E0.01067
G1 X134.041 Y94.215 E0.01034
G1 X134.213 Y95.597 E0.01034
G1 X134.214 Y124.332 E0.21330
G1 X134.147 Y125.219 E0.00660
G1 X133.964 Y126.083 E0.00655
G1 X133.668 Y126.921 E0.00660
G1 X133.263 Y127.713 E0.00660
G1 X132.489 Y128.762 E0.00968
G1 X131.531 Y129.638 E0.00963
G1 X130.423 Y130.313 E0.00963
G1 X129.200 Y130.764 E0.00968
G1 X126.255 Y131.322 E0.02225
G1 X123.318 Y131.775 E0.02206
G1 X114.854 Y132.530 E0.06308
G1 X105.225 Y132.534 E0.07148
G1 X96.852 Y131.794 E0.06239
G1 X91.018 Y130.817 E0.04391
G1 X90.004 Y130.501 E0.00788
G1 X89.053 Y130.030 E0.00788
G1 X87.767 Y129.031 E0.01209
G1 X86.763 Y127.757 E0.01204
G1 X86.094 Y126.279 E0.01204
G1 X85.798 Y124.678 E0.01209
G1 X85.789 Y95.540 E0.21629
G1 X85.868 Y94.686 E0.00636
G1 X86.055 Y93.849 E0.00636
G1 X86.347 Y93.044 E0.00636
G1 X86.737 Y92.287 E0.00632
G1 X87.219 Y91.586 E0.00632
G1 X87.781 Y90.956 E0.00627
G1 X88.423 Y90.397 E0.00632
G1 X89.130 Y89.924 E0.00632
G1 X90.511 Y89.326 E0.01117
G1 X89.528 Y89.911 F9000.000
G1 F1200.000
G1 X90.921 Y89.389 E0.01104
G1 X93.775 Y88.854 E0.02155
G1 X96.813 Y88.390 E0.02281
G1 X105.114 Y87.651 E0.06186
G1 X114.506 Y87.639 E0.06972
G1 X123.295 Y88.402 E0.06548
G1 X126.182 Y88.847 E0.02168
G1 X129.276 Y89.442 E0.02339
G1 X130.580 Y89.967 E0.01043
G1 X131.736 Y90.755 E0.01039
G1 X132.699 Y91.771 E0.01039
G1 X133.426 Y92.974 E0.01043
G1 X133.867 Y94.256 E0.01006
G1 X134.034 Y95.607 E0.01011
G1 X134.035 Y124.332 E0.21321
G1 X133.969 Y125.200 E0.00646
G1 X133.789 Y126.046 E0.00642
G1 X133.500 Y126.860 E0.00642
G1 X133.102 Y127.635 E0.00646
G1 X132.347 Y128.653 E0.00941
G1 X131.409 Y129.506 E0.00941
G1 X130.325 Y130.162 E0.00941
G1 X129.134 Y130.597 E0.00941
G1 X126.225 Y131.146 E0.02197
G1 X123.294 Y131.598 E0.02201
G1 X114.829 Y132.352 E0.06308
G1 X105.235 Y132.355 E0.07122
G1 X96.869 Y131.616 E0.06234
G1 X91.061 Y130.644 E0.04371
G1 X90.067 Y130.334 E0.00773
G1 X89.134 Y129.871 E0.00773
G1 X87.887 Y128.898 E0.01174
G1 X86.910 Y127.655 E0.01174
G1 X86.260 Y126.213 E0.01174
G1 X85.976 Y124.658 E0.01174
G1 X85.967 Y95.542 E0.21612
G1 X86.044 Y94.713 E0.00618
G1 X86.228 Y93.894 E0.00623
G1 X86.513 Y93.111 E0.00618
G1 X86.898 Y92.365 E0.00623
G1 X87.419 Y91.620 E0.00675
G1 X88.039 Y90.955 E0.00675
G1 X88.750 Y90.379 E0.00679
G1 X89.477 Y89.942 E0.00630
G1 X89.569 Y90.096 F9000.000
G1 F1200.000
G1 X90.982 Y89.558 E0.01122
G1 X93.824 Y89.026 E0.02146
G1 X96.830 Y88.567 E0.02257
G1 X105.127 Y87.829 E0.06184
G1 X114.506 Y87.818 E0.06962
G1 X123.270 Y88.579 E0.06529
G1 X126.147 Y89.022 E0.02161
G1 X129.211 Y89.609 E0.02316
G1 X130.486 Y90.120 E0.01020
G1 X131.618 Y90.888 E0.01015
G1 X132.558 Y91.881 E0.01015
G1 X133.267 Y93.058 E0.01020
G1 X133.695 Y94.305 E0.00978
G1 X133.856 Y95.613 E0.00978
G1 X133.857 Y124.331 E0.21317
G1 X133.792 Y125.175 E0.00628
G1 X133.616 Y126.003 E0.00628
G1 X133.331 Y126.800 E0.00628
G1 X132.943 Y127.552 E0.00628
G1 X132.208 Y128.540 E0.00914
G1 X131.291 Y129.371 E0.00919
G1 X130.236 Y130.007 E0.00914
G1 X129.072 Y130.428 E0.00919
G1 X123.276 Y131.420 E0.04365
G1 X114.817 Y132.174 E0.06304
G1 X105.238 Y132.177 E0.07110
G1 X96.891 Y131.439 E0.06220
G1 X91.103 Y130.470 E0.04356
G1 X90.129 Y130.167 E0.00757
G1 X89.216 Y129.711 E0.00757
G1 X88.007 Y128.766 E0.01139
G1 X87.057 Y127.552 E0.01144
G1 X86.428 Y126.152 E0.01139
G1 X86.154 Y124.636 E0.01144
G1 X86.145 Y95.551 E0.21589
G1 X86.221 Y94.739 E0.00605
G1 X86.400 Y93.943 E0.00605
G1 X86.681 Y93.172 E0.00610
G1 X87.057 Y92.448 E0.00605
G1 X87.569 Y91.720 E0.00661
G1 X88.173 Y91.075 E0.00656
G1 X88.866 Y90.516 E0.00661
G1 X89.517 Y90.126 E0.00564
G1 X89.609 Y90.281 F9000.000
G1 F1200.000
G1 X89.737 Y90.205 E0.00111
G1 X91.038 Y89.729 E0.01028
G1 X93.866 Y89.200 E0.02136
G1 X96.846 Y88.745 E0.02238
G1 X105.141 Y88.007 E0.06181
G1 X114.506 Y87.996 E0.06952
G1 X123.245 Y88.756 E0.06511
G1 X126.117 Y89.198 E0.02157
G1 X129.146 Y89.776 E0.02289
G1 X130.388 Y90.269 E0.00992
G1 X131.499 Y91.022 E0.00996
G1 X132.418 Y91.992 E0.00992
G1 X133.107 Y93.136 E0.00992
G1 X133.522 Y94.349 E0.00951
G1 X133.678 Y95.620 E0.00951
G1 X133.678 Y124.330 E0.21311
G1 X133.614 Y125.156 E0.00615
G1 X133.441 Y125.966 E0.00615
G1 X133.160 Y126.745 E0.00615
G1 X132.781 Y127.475 E0.00610
G1 X132.061 Y128.437 E0.00892
G1 X131.168 Y129.241 E0.00892
G1 X130.136 Y129.857 E0.00892
G1 X129.004 Y130.261 E0.00892
G1 X123.251 Y131.244 E0.04332
G1 X114.792 Y131.997 E0.06304
G1 X105.248 Y131.998 E0.07084
G1 X96.908 Y131.261 E0.06215
G1 X91.146 Y130.297 E0.04336
G1 X90.191 Y129.999 E0.00742
G1 X89.297 Y129.552 E0.00742
G1 X88.122 Y128.628 E0.01109
G1 X87.203 Y127.449 E0.01109
G1 X86.594 Y126.084 E0.01109
G1 X86.331 Y124.613 E0.01109
G1 X86.324 Y95.560 E0.21566
G1 X86.397 Y94.765 E0.00592
G1 X86.573 Y93.987 E0.00592
G1 X86.850 Y93.232 E0.00597
G1 X87.219 Y92.525 E0.00592
G1 X87.718 Y91.819 E0.00642
G1 X88.312 Y91.189 E0.00642
G1 X88.992 Y90.645 E0.00647
G1 X89.557 Y90.312 E0.00487
G1 E-0.35000 F2700.000
;WIPE_START
G1 F7200.000
G1 X89.737 Y90.205 E-0.07453
G1 X89.916 Y90.139 E-0.06797
;WIPE_END
G1 E-0.00750 F2700.000
G1 Z0.600 F9000.000
G1 X113.457 Y94.632
G1 Z0.100
G1 E0.50000 F2400.000
;TYPE:Perimeter
G1 F1200.000
G1 X114.043 Y94.632 E0.00435
G1 X114.043 Y96.190 E0.01156
G1 X122.957 Y96.190 E0.06617
G1 X122.957 Y95.422 E0.00569
G1 X124.986 Y95.736 E0.01524
G1 X127.043 Y96.113 E0.01552
G1 X127.043 Y96.393 E0.00208
G1 X118.043 Y96.393 E0.06681
G1 X118.043 Y98.307 E0.01421
G1 X127.043 Y98.307 E0.06681
G1 X127.043 Y98.510 E0.00151
G1 X114.043 Y98.510 E0.09650
G1 X114.043 Y121.490 E0.17057
G1 X127.043 Y121.490 E0.09650
G1 X127.043 Y121.693 E0.00151
G1 X118.043 Y121.693 E0.06681
G1 X118.043 Y123.607 E0.01421
G1 X127.043 Y123.607 E0.06681
G1 X127.043 Y123.888 E0.00208
G1 X125.045 Y124.254 E0.01508
G1 X122.957 Y124.578 E0.01568
G1 X122.957 Y123.810 E0.00569
G1 X114.043 Y123.810 E0.06617
G1 X114.043 Y125.368 E0.01156
G1 X113.457 Y125.368 E0.00435
G1 X113.457 Y94.692 E0.22770
G1 X114.221 Y96.011 F9000.000
G1 F1200.000
G1 X122.779 Y96.011 E0.06352
G1 X122.779 Y95.214 E0.00592
G1 X125.015 Y95.560 E0.01680
G1 X127.221 Y95.964 E0.01665
G1 X127.221 Y96.571 E0.00451
G1 X118.221 Y96.571 E0.06681
G1 X118.221 Y98.129 E0.01156
G1 X127.221 Y98.129 E0.06681
G1 X127.221 Y98.689 E0.00416
G1 X114.221 Y98.689 E0.09650
G1 X114.221 Y121.311 E0.16792
G1 X127.221 Y121.311 E0.09650
G1 X127.221 Y121.871 E0.00416
G1 X118.221 Y121.871 E0.06681
G1 X118.221 Y123.429 E0.01156
G1 X127.221 Y123.429 E0.06681
G1 X127.221 Y124.036 E0.00451
G1 X125.074 Y124.430 E0.01620
G1 X122.779 Y124.786 E0.01724
G1 X122.779 Y123.989 E0.00591
G1 X114.221 Y123.989 E0.06352
G1 X114.221 Y125.546 E0.01156
G1 X113.279 Y125.546 E0.00700
G1 X113.279 Y94.454 E0.23080
G1 X114.221 Y94.454 E0.00700
G1 X114.221 Y95.951 E0.01112
G1 X114.400 Y95.832 F9000.000
;TYPE:External perimeter
G1 F1200.000
G1 X122.600 Y95.832 E0.06087
G1 X122.600 Y95.006 E0.00614
G1 X125.045 Y95.384 E0.01836
G1 X127.400 Y95.815 E0.01777
G1 X127.400 Y96.750 E0.00694
G1 X118.400 Y96.750 E0.06681
G1 X118.400 Y97.950 E0.00891
G1 X127.400 Y97.950 E0.06681
G1 X127.400 Y98.868 E0.00681
G1 X114.400 Y98.868 E0.09650
G1 X114.400 Y121.132 E0.16527
G1 X127.400 Y121.132 E0.09650
G1 X127.400 Y122.050 E0.00681
G1 X118.400 Y122.050 E0.06681
G1 X118.400 Y123.250 E0.00891
G1 X127.400 Y123.250 E0.06681
G1 X127.400 Y124.185 E0.00694
G1 X125.104 Y124.606 E0.01733
G1 X122.600 Y124.994 E0.01881
G1 X122.600 Y124.168 E0.00614
G1 X114.400 Y124.168 E0.06087
G1 X114.400 Y125.725 E0.01156
G1 X113.100 Y125.725 E0.00965
G1 X113.100 Y94.275 E0.23345
G1 X114.400 Y94.275 E0.00965
G1 X114.400 Y95.772 E0.01112
G1 X114.492 Y96.222 F9000.000
G1 E-0.35000 F2700.000
;WIPE_START
G1 F7200.000
G1 X114.800 Y95.775 E-0.14250
;WIPE_END
G1 E-0.00750 F2700.000
G1 Z0.600 F9000.000
G1 X117.537 Y96.243
G1 Z0.100
G1 E0.50000 F2400.000
;TYPE:Solid infill
;WIDTH:0.200896
G1 F1200.000
G1 X117.909 Y96.615 E0.00392
G1 X117.909 Y96.869 E0.00189
G1 X117.364 Y96.323 E0.00575
G1 X117.110 Y96.323 E0.00189
G1 X117.909 Y97.122 E0.00843
G1 X117.909 Y97.376 E0.00189
G1 X116.856 Y96.323 E0.01111
G1 X116.603 Y96.323 E0.00189
G1 X117.909 Y97.630 E0.01378
G1 X117.909 Y97.884 E0.00189
G1 X116.349 Y96.323 E0.01646
G1 X116.095 Y96.323 E0.00189
G1 X117.909 Y98.137 E0.01914
G1 X117.909 Y98.252 E0.00085
G1 X117.820 Y98.252 E0.00067
G1 X117.820 Y98.302 E0.00037
G1 X115.841 Y96.323 E0.02087
G1 X115.588 Y96.323 E0.00189
G1 X117.641 Y98.377 E0.02166
G1 X117.387 Y98.377 E0.00189
G1 X115.334 Y96.323 E0.02166
G1 X115.080 Y96.323 E0.00189
G1 X117.133 Y98.377 E0.02166
G1 X116.879 Y98.377 E0.00189
G1 X114.826 Y96.323 E0.02166
G1 X114.572 Y96.323 E0.00189
G1 X116.626 Y98.377 E0.02166
G1 X116.372 Y98.377 E0.00189
G1 X114.238 Y96.243 E0.02251
G1 X113.989 Y94.979 F9000.000
G1 F1200.000
G1 X113.776 Y94.766 E0.00225
G1 X113.591 Y94.766 E0.00138
G1 X113.591 Y94.834 E0.00051
G1 X113.909 Y95.152 E0.00336
G1 X113.909 Y95.406 E0.00189
G1 X113.591 Y95.088 E0.00336
G1 X113.591 Y95.342 E0.00189
G1 X113.909 Y95.660 E0.00336
G1 X113.909 Y95.914 E0.00189
G1 X113.591 Y95.596 E0.00336
G1 X113.591 Y95.849 E0.00189
G1 X116.118 Y98.377 E0.02666
G1 X115.864 Y98.377 E0.00189
G1 X113.591 Y96.103 E0.02398
G1 X113.591 Y96.357 E0.00189
G1 X115.611 Y98.377 E0.02131
G1 X115.357 Y98.377 E0.00189
G1 X113.591 Y96.611 E0.01863
G1 X113.591 Y96.864 E0.00189
G1 X115.103 Y98.377 E0.01595
G1 X114.849 Y98.377 E0.00189
G1 X113.591 Y97.118 E0.01328
G1 X113.591 Y97.372 E0.00189
G1 X114.596 Y98.377 E0.01060
G1 X114.342 Y98.377 E0.00189
G1 X113.591 Y97.626 E0.00792
G1 X113.591 Y97.880 E0.00189
G1 X114.088 Y98.377 E0.00524
G1 X113.909 Y98.377 E0.00134
G1 X113.909 Y98.451 E0.00056
G1 X113.591 Y98.133 E0.00336
G1 X113.591 Y98.387 E0.00189
G1 X113.909 Y98.705 E0.00336
G1 X113.909 Y98.959 E0.00189
G1 X113.591 Y98.641 E0.00336
G1 X113.591 Y98.895 E0.00189
G1 X113.909 Y99.213 E0.00336
G1 X113.909 Y99.466 E0.00189
G1 X113.591 Y99.148 E0.00336
G1 X113.591 Y99.402 E0.00189
G1 X113.909 Y99.720 E0.00336
G1 X113.909 Y99.974 E0.00189
G1 X113.591 Y99.656 E0.00336
G1 X113.591 Y99.910 E0.00189
G1 X113.909 Y100.228 E0.00336
G1 X113.909 Y100.481 E0.00189
G1 X113.591 Y100.163 E0.00336
G1 X113.591 Y100.417 E0.00189
G1 X113.909 Y100.735 E0.00336
G1 X113.909 Y100.989 E0.00189
G1 X113.591 Y100.671 E0.00336
G1 X113.591 Y100.925 E0.00189
G1 X113.909 Y101.243 E0.00336
G1 X113.909 Y101.496 E0.00189
G1 X113.591 Y101.178 E0.00336
G1 X113.591 Y101.432 E0.00189
G1 X113.909 Y101.750 E0.00336
G1 X113.909 Y102.004 E0.00189
G1 X113.591 Y101.686 E0.00336
G1 X113.591 Y101.940 E0.00189
G1 X113.909 Y102.258 E0.00336
G1 X113.909 Y102.512 E0.00189
G1 X113.591 Y102.193 E0.00336
G1 X113.591 Y102.447 E0.00189
G1 X113.909 Y102.765 E0.00336
G1 X113.909 Y103.019 E0.00189
G1 X113.591 Y102.701 E0.00336
G1 X113.591 Y102.955 E0.00189
G1 X113.909 Y103.273 E0.00336
G1 X113.909 Y103.527 E0.00189
G1 X113.591 Y103.209 E0.00336
G1 X113.591 Y103.462 E0.00189
G1 X113.909 Y103.780 E0.00336
G1 X113.909 Y104.034 E0.00189
G1 X113.591 Y103.716 E0.00336
G1 X113.591 Y103.970 E0.00189
G1 X113.909 Y104.288 E0.00336
G1 X113.909 Y104.542 E0.00189
G1 X113.591 Y104.224 E0.00336
G1 X113.591 Y104.477 E0.00189
G1 X113.909 Y104.795 E0.00336
G1 X113.909 Y105.049 E0.00189
G1 X113.591 Y104.731 E0.00336
G1 X113.591 Y104.985 E0.00189
G1 X113.909 Y105.303 E0.00336
G1 X113.909 Y105.557 E0.00189
G1 X113.591 Y105.239 E0.00336
G1 X113.591 Y105.492 E0.00189
G1 X113.909 Y105.810 E0.00336
G1 X113.909 Y106.064 E0.00189
G1 X113.591 Y105.746 E0.00336
G1 X113.591 Y106.000 E0.00189
G1 X113.909 Y106.318 E0.00336
G1 X113.909 Y106.572 E0.00189
G1 X113.591 Y106.254 E0.00336
G1 X113.591 Y106.507 E0.00189
G1 X113.909 Y106.825 E0.00336
G1 X113.909 Y107.079 E0.00189
G1 X113.591 Y106.761 E0.00336
G1 X113.591 Y107.015 E0.00189
G1 X113.909 Y107.333 E0.00336
G1 X113.909 Y107.587 E0.00189
G1 X113.591 Y107.269 E0.00336
G1 X113.591 Y107.522 E0.00189
G1 X113.909 Y107.841 E0.00336
G1 X113.909 Y108.094 E0.00189
G1 X113.591 Y107.776 E0.00336
G1 X113.591 Y108.030 E0.00189
G1 X113.909 Y108.348 E0.00336
G1 X113.909 Y108.602 E0.00189
G1 X113.591 Y108.284 E0.00336
G1 X113.591 Y108.537 E0.00189
G1 X113.909 Y108.856 E0.00336
G1 X113.909 Y109.109 E0.00189
G1 X113.591 Y108.791 E0.00336
G1 X113.591 Y109.045 E0.00189
G1 X113.909 Y109.363 E0.00336
G1 X113.909 Y109.617 E0.00189
G1 X113.591 Y109.299 E0.00336
G1 X113.591 Y109.553 E0.00189
G1 X113.909 Y109.871 E0.00336
G1 X113.909 Y110.124 E0.00189
G1 X113.591 Y109.806 E0.00336
G1 X113.591 Y110.060 E0.00189
G1 X113.909 Y110.378 E0.00336
G1 X113.909 Y110.632 E0.00189
G1 X113.591 Y110.314 E0.00336
G1 X113.591 Y110.568 E0.00189
G1 X113.909 Y110.886 E0.00336
G1 X113.909 Y111.139 E0.00189
G1 X113.591 Y110.821 E0.00336
G1 X113.591 Y111.075 E0.00189
G1 X113.909 Y111.393 E0.00336
G1 X113.909 Y111.647 E0.00189
G1 X113.591 Y111.329 E0.00336
G1 X113.591 Y111.583 E0.00189
G1 X113.909 Y111.901 E0.00336
G1 X113.909 Y112.154 E0.00189
G1 X113.591 Y111.836 E0.00336
G1 X113.591 Y112.090 E0.00189
G1 X113.909 Y112.408 E0.00336
G1 X113.909 Y112.662 E0.00189
G1 X113.591 Y112.344 E0.00336
G1 X113.591 Y112.598 E0.00189
G1 X113.909 Y112.916 E0.00336
G1 X113.909 Y113.169 E0.00189
G1 X113.591 Y112.851 E0.00336
G1 X113.591 Y113.105 E0.00189
G1 X113.909 Y113.423 E0.00336
G1 X113.909 Y113.677 E0.00189
G1 X113.591 Y113.359 E0.00336
G1 X113.591 Y113.613 E0.00189
G1 X113.909 Y113.931 E0.00336
G1 X113.909 Y114.185 E0.00189
G1 X113.591 Y113.866 E0.00336
G1 X113.591 Y114.120 E0.00189
G1 X113.909 Y114.438 E0.00336
G1 X113.909 Y114.692 E0.00189
G1 X113.591 Y114.374 E0.00336
G1 X113.591 Y114.628 E0.00189
G1 X113.909 Y114.946 E0.00336
G1 X113.909 Y115.200 E0.00189
G1 X113.591 Y114.881 E0.00336
G1 X113.591 Y115.135 E0.00189
G1 X113.909 Y115.453 E0.00336
G1 X113.909 Y115.707 E0.00189
G1 X113.591 Y115.389 E0.00336
G1 X113.591 Y115.643 E0.00189
G1 X113.909 Y115.961 E0.00336
G1 X113.909 Y116.215 E0.00189
G1 X113.591 Y115.897 E0.00336
G1 X113.591 Y116.150 E0.00189
G1 X113.909 Y116.468 E0.00336
G1 X113.909 Y116.722 E0.00189
G1 X113.591 Y116.404 E0.00336
G1 X113.591 Y116.658 E0.00189
G1 X113.909 Y116.976 E0.00336
G1 X113.909 Y117.230 E0.00189
G1 X113.591 Y116.912 E0.00336
G1 X113.591 Y117.165 E0.00189
G1 X113.909 Y117.483 E0.00336
G1 X113.909 Y117.737 E0.00189
G1 X113.591 Y117.419 E0.00336
G1 X113.591 Y117.673 E0.00189
G1 X113.909 Y117.991 E0.00336
G1 X113.909 Y118.245 E0.00189
G1 X113.591 Y117.927 E0.00336
G1 X113.591 Y118.180 E0.00189
G1 X113.909 Y118.498 E0.00336
G1 X113.909 Y118.752 E0.00189
G1 X113.591 Y118.434 E0.00336
G1 X113.591 Y118.688 E0.00189
G1 X113.909 Y119.006 E0.00336
G1 X113.909 Y119.260 E0.00189
G1 X113.591 Y118.942 E0.00336
