; generated by PrusaSlicer 2.3.0-rc2+ on 2021-04-16 at 18:47:20 UTC

; 

; external perimeters extrusion width = 0.45mm
; perimeters extrusion width = 0.45mm
; infill extrusion width = 0.45mm
; solid infill extrusion width = 0.45mm
; top infill extrusion width = 0.40mm
; support material extrusion width = 0.40mm
; first layer extrusion width = 0.20mm

M201 X500 Y500 Z100 E5000 ; sets maximum accelerations, mm/sec^2
M203 X500 Y500 Z10 E60 ; sets maximum feedrates, mm/sec
M204 P500 R1000 T500 ; sets acceleration (P, T) and retract acceleration (R), mm/sec^2
M205 X8.00 Y8.00 Z0.40 E5.00 ; sets the jerk limits, mm/sec
M205 S0 T0 ; sets the minimum extruding and travel feed rate, mm/sec
M107
M190 S80 ; set bed temperature and wait for it to be reached
M104 S220 ; set temperature
;TYPE:Custom
G28 ; Home
M109 S220 ; set temperature and wait for it to be reached
G21 ; set units to millimeters
G90 ; use absolute coordinates
M83 ; use relative distances for extrusion
;LAYER_CHANGE
;Z:0.1
;HEIGHT:0.1
;BEFORE_LAYER_CHANGE
;0.1


G1 E-0.50000 F2700.000
G1 Z0.500 F9000.000
;AFTER_LAYER_CHANGE
;0.1
G1 X79.232 Y83.108
G1 Z0.100
G1 E0.50000 F2400.000
;TYPE:Skirt
;WIDTH:0.2
G1 F1200.000
G1 X80.164 Y81.900 E0.01132
G1 X118.062 Y44.162 E0.39700
G1 X120.171 Y42.503 E0.01992
G1 X122.358 Y41.418 E0.01812
G1 X123.269 Y41.100 E0.00717
G1 X124.960 Y40.720 E0.01286
G1 X126.319 Y40.579 E0.01014
G1 X128.597 Y40.642 E0.01692
G1 X131.255 Y41.263 E0.02026
G1 X133.696 Y42.417 E0.02004
G1 X135.687 Y43.930 E0.01856
G1 X136.393 Y44.625 E0.00735
G1 X137.492 Y46.001 E0.01307
G1 X138.193 Y47.094 E0.00964
G1 X139.187 Y49.317 E0.01807
G1 X139.764 Y51.943 E0.01996
G1 X141.542 Y109.596 E0.42816
G1 X142.012 Y173.285 E0.47277
G1 X141.937 Y174.286 E0.00745
G1 X141.711 Y175.263 E0.00745
G1 X141.348 Y176.172 E0.00726
G1 X140.858 Y177.010 E0.00721
G1 X140.248 Y177.767 E0.00721
G1 X139.529 Y178.430 E0.00726
G1 X138.723 Y178.974 E0.00721
G1 X137.841 Y179.395 E0.00726
G1 X136.905 Y179.679 E0.00726
G1 X135.944 Y179.821 E0.00721
G1 X84.492 Y179.838 E0.38191
G1 X83.511 Y179.759 E0.00731
G1 X82.559 Y179.535 E0.00726
G1 X81.634 Y179.164 E0.00740
G1 X80.771 Y178.652 E0.00745
G1 X80.000 Y178.019 E0.00740
G1 X79.336 Y177.276 E0.00740
G1 X78.788 Y176.436 E0.00745
G1 X78.379 Y175.527 E0.00740
G1 X78.112 Y174.566 E0.00740
G1 X77.994 Y173.576 E0.00740
G1 X78.303 Y86.425 E0.64691
G1 X78.382 Y85.451 E0.00726
G1 X78.604 Y84.505 E0.00721
G1 X79.208 Y83.163 E0.01092
G1 X79.369 Y83.235 F9000.000
G1 F1200.000
G1 X80.296 Y82.021 E0.01134
G1 X118.181 Y44.295 E0.39686
G1 X120.264 Y42.655 E0.01968
G1 X122.426 Y41.583 E0.01791
G1 X123.313 Y41.273 E0.00698
G1 X124.998 Y40.895 E0.01282
G1 X126.318 Y40.757 E0.00986
G1 X128.566 Y40.818 E0.01669
G1 X131.194 Y41.430 E0.02002
G1 X133.606 Y42.571 E0.01981
G1 X135.569 Y44.064 E0.01831
G1 X136.261 Y44.745 E0.00721
G1 X137.352 Y46.112 E0.01298
G1 X138.037 Y47.180 E0.00942
G1 X139.019 Y49.377 E0.01786
G1 X139.588 Y51.972 E0.01973
G1 X141.364 Y109.600 E0.42797
G1 X141.833 Y173.286 E0.47274
G1 X141.761 Y174.261 E0.00725
G1 X141.539 Y175.212 E0.00725
G1 X141.186 Y176.096 E0.00707
G1 X140.708 Y176.913 E0.00702
G1 X140.115 Y177.649 E0.00702
G1 X139.413 Y178.293 E0.00707
G1 X138.629 Y178.822 E0.00702
G1 X137.769 Y179.231 E0.00707
G1 X136.864 Y179.506 E0.00702
G1 X135.922 Y179.643 E0.00707
G1 X84.493 Y179.659 E0.38175
G1 X83.544 Y179.583 E0.00707
G1 X82.611 Y179.364 E0.00711
G1 X81.710 Y179.002 E0.00721
G1 X80.875 Y178.507 E0.00721
G1 X80.125 Y177.891 E0.00721
G1 X79.473 Y177.163 E0.00725
G1 X78.944 Y176.349 E0.00721
G1 X78.546 Y175.464 E0.00721
G1 X78.285 Y174.522 E0.00725
G1 X78.172 Y173.558 E0.00721
G1 X78.481 Y86.426 E0.64677
G1 X78.559 Y85.477 E0.00707
G1 X78.775 Y84.556 E0.00702
G1 X79.345 Y83.290 E0.01031
G1 X79.507 Y83.363 F9000.000
G1 F1200.000
G1 X79.540 Y83.290 E0.00060
G1 X80.424 Y82.145 E0.01073
G1 X118.300 Y44.428 E0.39677
G1 X120.358 Y42.807 E0.01945
G1 X122.488 Y41.750 E0.01765
G1 X123.362 Y41.445 E0.00688
G1 X125.029 Y41.071 E0.01268
G1 X126.318 Y40.936 E0.00962
G1 X128.542 Y40.995 E0.01651
G1 X131.132 Y41.598 E0.01974
G1 X133.516 Y42.725 E0.01958
G1 X135.456 Y44.202 E0.01810
G1 X136.129 Y44.866 E0.00701
G1 X137.216 Y46.227 E0.01293
G1 X137.880 Y47.265 E0.00915
G1 X138.849 Y49.431 E0.01761
G1 X139.412 Y52.002 E0.01954
G1 X141.185 Y109.605 E0.42778
G1 X141.655 Y173.287 E0.47272
G1 X141.584 Y174.235 E0.00706
G1 X141.368 Y175.162 E0.00706
G1 X141.024 Y176.022 E0.00688
G1 X140.558 Y176.815 E0.00683
G1 X139.976 Y177.536 E0.00688
G1 X139.297 Y178.157 E0.00683
G1 X138.528 Y178.674 E0.00688
G1 X137.696 Y179.068 E0.00683
G1 X136.809 Y179.335 E0.00688
G1 X135.899 Y179.466 E0.00683
G1 X84.493 Y179.480 E0.38157
G1 X83.564 Y179.405 E0.00692
G1 X82.662 Y179.193 E0.00688
G1 X81.785 Y178.840 E0.00701
G1 X80.973 Y178.358 E0.00701
G1 X80.239 Y177.753 E0.00706
G1 X79.611 Y177.048 E0.00701
G1 X79.097 Y176.255 E0.00701
G1 X78.710 Y175.393 E0.00701
G1 X78.459 Y174.482 E0.00701
G1 X78.350 Y173.544 E0.00701
G1 X78.660 Y86.427 E0.64666
G1 X78.734 Y85.510 E0.00683
G1 X78.946 Y84.608 E0.00688
G1 X79.482 Y83.418 E0.00969
G1 E-0.35000 F2700.000
;WIPE_START
G1 F7200.000
G1 X79.540 Y83.290 E-0.05007
G1 X79.698 Y83.084 E-0.09243
;WIPE_END
G1 E-0.00750 F2700.000
G1 Z0.600 F9000.000
G1 X85.298 Y86.655
G1 Z0.100
G1 E0.50000 F2400.000
;TYPE:Perimeter
G1 F1200.000
G1 X122.792 Y49.313 E0.39280
G1 X123.930 Y48.403 E0.01082
G1 X125.107 Y47.849 E0.00965
G1 X126.363 Y47.571 E0.00955
G1 X127.648 Y47.572 E0.00954
G1 X128.906 Y47.852 E0.00956
G1 X130.084 Y48.408 E0.00967
G1 X131.141 Y49.246 E0.01001
G1 X131.979 Y50.303 E0.01001
G1 X132.535 Y51.481 E0.00967
G1 X132.814 Y52.738 E0.00956
G1 X132.815 Y54.023 E0.00954
G1 X132.538 Y55.280 E0.00955
G1 X131.984 Y56.456 E0.00965
G1 X131.073 Y57.594 E0.01082
G1 X101.134 Y87.535 E0.31430
G1 X100.605 Y88.279 E0.00677
G1 X100.275 Y89.251 E0.00762
G1 X100.247 Y90.265 E0.00753
G1 X100.526 Y91.250 E0.00760
G1 X101.111 Y92.126 E0.00782
G1 X101.970 Y92.787 E0.00805
G1 X102.891 Y93.122 E0.00727
G1 X123.680 Y96.794 E0.15670
G1 X126.304 Y97.485 E0.02014
G1 X128.584 Y98.608 E0.01886
G1 X130.572 Y100.142 E0.01864
G1 X132.217 Y102.050 E0.01870
G1 X133.466 Y104.297 E0.01908
G1 X134.263 Y106.856 E0.01990
G1 X134.548 Y109.701 E0.02122
G1 X134.266 Y112.542 E0.02119
G1 X133.457 Y115.089 E0.01984
G1 X132.190 Y117.329 E0.01910
G1 X130.525 Y119.236 E0.01879
G1 X128.526 Y120.774 E0.01873
G1 X126.257 Y121.906 E0.01882
G1 X123.694 Y122.612 E0.01973
G1 X110.235 Y124.992 E0.10145
G1 X109.091 Y125.477 E0.00923
G1 X108.148 Y126.455 E0.01009
G1 X107.685 Y127.656 E0.00955
G1 X107.685 Y128.909 E0.00930
G1 X108.148 Y130.110 E0.00955
G1 X109.091 Y131.088 E0.01009
G1 X110.235 Y131.573 E0.00923
G1 X133.213 Y135.631 E0.17320
G1 X133.626 Y135.742 E0.00317
G1 X133.899 Y135.883 E0.00228
G1 X134.133 Y136.070 E0.00223
G1 X134.324 Y136.297 E0.00221
G1 X134.468 Y136.561 E0.00223
G1 X134.558 Y136.854 E0.00228
G1 X134.596 Y137.282 E0.00319
G1 X134.953 Y166.050 E0.21356
G1 X135.015 Y172.845 E0.05044
G1 X84.985 Y172.845 E0.37136
G1 X85.338 Y137.389 E0.26320
G1 X85.403 Y128.371 E0.06694
G1 X85.756 Y124.988 E0.02525
G1 X86.707 Y122.151 E0.02222
G1 X88.158 Y119.737 E0.02090
G1 X90.017 Y117.743 E0.02024
G1 X92.188 Y116.177 E0.01987
G1 X94.566 Y115.060 E0.01950
G1 X97.131 Y114.390 E0.01968
G1 X105.037 Y112.990 E0.05960
G1 X106.158 Y112.496 E0.00909
G1 X107.075 Y111.553 E0.00977
G1 X107.546 Y110.379 E0.00939
G1 X107.559 Y109.138 E0.00921
G1 X107.115 Y107.952 E0.00940
G1 X106.223 Y106.981 E0.00978
G1 X105.072 Y106.427 E0.00949
G1 X93.708 Y104.415 E0.08566
G1 X91.757 Y103.862 E0.01505
G1 X90.037 Y102.968 E0.01439
G1 X88.505 Y101.751 E0.01452
G1 X87.223 Y100.260 E0.01460
G1 X86.247 Y98.543 E0.01466
G1 X85.627 Y96.651 E0.01478
G1 X85.403 Y94.511 E0.01597
G1 X85.299 Y86.715 E0.05787
G1 X85.120 Y86.718 F9000.000
G1 F1200.000
G1 X85.118 Y86.582 E0.00101
G1 X122.673 Y49.180 E0.39343
G1 X123.835 Y48.250 E0.01105
G1 X125.049 Y47.679 E0.00996
G1 X126.344 Y47.393 E0.00985
G1 X127.668 Y47.394 E0.00983
G1 X128.964 Y47.682 E0.00985
G1 X130.179 Y48.255 E0.00997
G1 X131.268 Y49.118 E0.01032
G1 X132.131 Y50.208 E0.01032
G1 X132.705 Y51.423 E0.00997
G1 X132.993 Y52.719 E0.00985
G1 X132.994 Y54.042 E0.00983
G1 X132.708 Y55.338 E0.00985
G1 X132.136 Y56.551 E0.00996
G1 X131.207 Y57.713 E0.01105
G1 X101.271 Y87.651 E0.31426
G1 X100.766 Y88.362 E0.00647
G1 X100.452 Y89.283 E0.00722
G1 X100.426 Y90.243 E0.00713
G1 X100.690 Y91.174 E0.00719
G1 X101.243 Y92.002 E0.00739
G1 X102.057 Y92.629 E0.00762
G1 X102.937 Y92.949 E0.00695
G1 X123.718 Y96.619 E0.15664
G1 X126.367 Y97.317 E0.02033
G1 X128.679 Y98.456 E0.01913
G1 X130.696 Y100.012 E0.01891
G1 X132.364 Y101.947 E0.01897
G1 X133.630 Y104.227 E0.01935
G1 X134.439 Y106.820 E0.02017
G1 X134.728 Y109.701 E0.02149
G1 X134.441 Y112.578 E0.02146
G1 X133.621 Y115.161 E0.02012
G1 X132.336 Y117.433 E0.01938
G1 X130.648 Y119.366 E0.01905
G1 X128.621 Y120.926 E0.01899
G1 X126.321 Y122.074 E0.01908
G1 X123.733 Y122.786 E0.01992
G1 X110.286 Y125.164 E0.10136
G1 X109.194 Y125.627 E0.00881
G1 X108.301 Y126.553 E0.00955
G1 X107.864 Y127.689 E0.00904
G1 X107.864 Y128.876 E0.00881
G1 X108.301 Y130.012 E0.00904
G1 X109.194 Y130.938 E0.00955
G1 X110.286 Y131.401 E0.00881
G1 X133.252 Y135.457 E0.17311
G1 X133.690 Y135.575 E0.00337
G1 X133.996 Y135.732 E0.00255
G1 X134.258 Y135.941 E0.00249
G1 X134.472 Y136.196 E0.00247
G1 X134.633 Y136.491 E0.00249
G1 X134.735 Y136.819 E0.00255
G1 X134.775 Y137.273 E0.00338
G1 X135.132 Y166.048 E0.21361
G1 X135.195 Y173.023 E0.05178
G1 X84.805 Y173.023 E0.37404
G1 X85.159 Y137.387 E0.26453
G1 X85.225 Y128.361 E0.06700
G1 X85.580 Y124.950 E0.02546
G1 X86.544 Y122.075 E0.02251
G1 X88.015 Y119.629 E0.02119
G1 X89.898 Y117.608 E0.02051
G1 X92.097 Y116.022 E0.02012
G1 X94.505 Y114.892 E0.01974
G1 X97.093 Y114.216 E0.01986
G1 X104.985 Y112.818 E0.05949
G1 X106.054 Y112.347 E0.00868
G1 X106.923 Y111.453 E0.00925
G1 X107.367 Y110.343 E0.00888
G1 X107.380 Y109.170 E0.00871
G1 X106.960 Y108.047 E0.00890
G1 X106.115 Y107.127 E0.00927
G1 X105.017 Y106.598 E0.00905
G1 X93.668 Y104.589 E0.08555
G1 X91.691 Y104.029 E0.01525
G1 X89.939 Y103.118 E0.01465
G1 X88.381 Y101.881 E0.01477
G1 X87.076 Y100.363 E0.01485
G1 X86.083 Y98.616 E0.01492
G1 X85.451 Y96.688 E0.01506
G1 X85.225 Y94.521 E0.01617
G1 X85.121 Y86.778 E0.05748
G1 X84.939 Y86.509 F9000.000
;TYPE:External perimeter
G1 F1200.000
G1 X122.554 Y49.047 E0.39406
G1 X123.740 Y48.098 E0.01128
G1 X124.991 Y47.509 E0.01026
G1 X126.325 Y47.214 E0.01014
G1 X127.688 Y47.215 E0.01012
G1 X129.022 Y47.512 E0.01015
G1 X130.274 Y48.103 E0.01027
G1 X131.395 Y48.991 E0.01062
G1 X132.284 Y50.113 E0.01062
G1 X132.875 Y51.364 E0.01027
G1 X133.171 Y52.699 E0.01015
G1 X133.172 Y54.062 E0.01012
G1 X132.878 Y55.396 E0.01014
G1 X132.289 Y56.646 E0.01026
G1 X131.340 Y57.833 E0.01128
G1 X101.408 Y87.767 E0.31422
G1 X100.927 Y88.444 E0.00617
G1 X100.630 Y89.315 E0.00683
G1 X100.605 Y90.220 E0.00673
G1 X100.854 Y91.099 E0.00678
G1 X101.375 Y91.879 E0.00696
G1 X102.144 Y92.471 E0.00720
G1 X102.983 Y92.776 E0.00663
G1 X123.756 Y96.445 E0.15658
G1 X126.430 Y97.149 E0.02052
G1 X128.774 Y98.304 E0.01939
G1 X130.819 Y99.882 E0.01918
G1 X132.511 Y101.845 E0.01924
G1 X133.795 Y104.156 E0.01963
G1 X134.615 Y106.785 E0.02044
G1 X134.907 Y109.701 E0.02175
G1 X134.617 Y112.614 E0.02173
G1 X133.786 Y115.232 E0.02039
G1 X132.482 Y117.536 E0.01965
G1 X130.771 Y119.497 E0.01932
G1 X128.716 Y121.078 E0.01925
G1 X126.385 Y122.241 E0.01934
G1 X123.773 Y122.961 E0.02011
G1 X110.337 Y125.336 E0.10127
G1 X109.297 Y125.777 E0.00839
G1 X108.455 Y126.651 E0.00901
G1 X108.042 Y127.722 E0.00853
G1 X108.042 Y128.842 E0.00831
G1 X108.455 Y129.914 E0.00853
G1 X109.297 Y130.788 E0.00901
G1 X110.337 Y131.229 E0.00839
G1 X133.291 Y135.282 E0.17302
G1 X133.755 Y135.407 E0.00357
G1 X134.094 Y135.581 E0.00283
G1 X134.384 Y135.813 E0.00275
G1 X134.620 Y136.095 E0.00273
G1 X134.798 Y136.421 E0.00275
G1 X134.911 Y136.785 E0.00283
G1 X134.953 Y137.264 E0.00357
G1 X135.311 Y166.046 E0.21366
G1 X135.375 Y173.202 E0.05312
G1 X84.625 Y173.202 E0.37671
G1 X84.981 Y137.386 E0.26587
G1 X85.046 Y128.351 E0.06706
G1 X85.404 Y124.912 E0.02567
G1 X86.381 Y122.000 E0.02280
G1 X87.871 Y119.521 E0.02147
G1 X89.780 Y117.474 E0.02078
G1 X92.006 Y115.868 E0.02038
G1 X94.444 Y114.723 E0.01999
G1 X97.055 Y114.041 E0.02003
G1 X104.932 Y112.646 E0.05938
G1 X105.951 Y112.198 E0.00826
G1 X106.770 Y111.354 E0.00873
G1 X107.189 Y110.308 E0.00837
G1 X107.201 Y109.201 E0.00822
G1 X106.805 Y108.142 E0.00839
G1 X106.007 Y107.273 E0.00876
G1 X104.961 Y106.770 E0.00861
G1 X93.628 Y104.763 E0.08543
G1 X91.625 Y104.195 E0.01545
G1 X89.842 Y103.269 E0.01492
G1 X88.256 Y102.010 E0.01503
G1 X86.930 Y100.466 E0.01511
G1 X85.919 Y98.689 E0.01518
G1 X85.275 Y96.726 E0.01533
G1 X85.046 Y94.532 E0.01637
G1 X84.940 Y86.569 E0.05911
G1 X85.339 Y86.505 F9000.000
G1 E-0.35000 F2700.000
;WIPE_START
G1 F7200.000
G1 X85.223 Y86.286 E-0.14250
;WIPE_END
G1 E-0.00750 F2700.000
G1 Z0.600 F9000.000
G1 X129.773 Y48.320
G1 Z0.100
G1 E0.50000 F2400.000
;TYPE:Solid infill
;WIDTH:0.200187
G1 F1200.000
G1 X131.898 Y50.445 E0.02233
G1 X132.124 Y50.924 E0.00393
G1 X129.463 Y48.263 E0.02797
G1 X128.984 Y48.037 E0.00393
G1 X132.350 Y51.403 E0.03537
G1 X132.407 Y51.524 E0.00100
G1 X132.461 Y51.767 E0.00184
G1 X128.620 Y47.925 E0.04037
G1 X128.295 Y47.853 E0.00247
G1 X132.533 Y52.092 E0.04454
G1 X132.606 Y52.417 E0.00247
G1 X127.970 Y47.781 E0.04871
G1 X127.645 Y47.709 E0.00247
G1 X132.678 Y52.742 E0.05289
G1 X132.680 Y52.997 E0.00190
G1 X127.389 Y47.706 E0.05560
G1 X127.136 Y47.706 E0.00188
G1 X132.681 Y53.250 E0.05826
G1 X132.681 Y53.503 E0.00188
G1 X126.884 Y47.706 E0.06092
G1 X126.631 Y47.705 E0.00188
G1 X132.681 Y53.756 E0.06358
G1 X132.681 Y54.009 E0.00188
G1 X126.378 Y47.705 E0.06624
G1 X126.171 Y47.751 E0.00158
G1 X132.635 Y54.216 E0.06793
G1 X132.590 Y54.423 E0.00158
G1 X125.964 Y47.797 E0.06963
G1 X125.757 Y47.843 E0.00158
G1 X132.544 Y54.630 E0.07132
G1 X132.498 Y54.837 E0.00158
G1 X125.550 Y47.888 E0.07302
G1 X125.343 Y47.934 E0.00158
G1 X132.452 Y55.044 E0.07471
G1 X132.404 Y55.248 E0.00156
G1 X125.138 Y47.982 E0.07636
G1 X124.966 Y48.063 E0.00141
G1 X132.323 Y55.420 E0.07731
G1 X132.242 Y55.592 E0.00141
G1 X124.794 Y48.144 E0.07827
G1 X124.622 Y48.225 E0.00141
G1 X132.161 Y55.764 E0.07922
G1 X132.081 Y55.936 E0.00141
G1 X124.451 Y48.306 E0.08018
G1 X124.279 Y48.387 E0.00141
G1 X132.000 Y56.108 E0.08113
G1 X131.919 Y56.279 E0.00141
G1 X124.107 Y48.468 E0.08209
G1 X123.947 Y48.561 E0.00137
G1 X131.826 Y56.439 E0.08279
G1 X131.713 Y56.580 E0.00134
G1 X123.807 Y48.673 E0.08308
G1 X123.666 Y48.785 E0.00134
G1 X131.601 Y56.720 E0.08338
G1 X131.489 Y56.860 E0.00134
G1 X123.526 Y48.898 E0.08368
G1 X123.386 Y49.010 E0.00134
G1 X131.376 Y57.001 E0.08397
G1 X131.264 Y57.141 E0.00134
G1 X123.245 Y49.122 E0.08427
G1 X123.105 Y49.235 E0.00134
G1 X131.152 Y57.282 E0.08456
G1 X131.039 Y57.422 E0.00134
G1 X122.964 Y49.347 E0.08486
G1 X122.829 Y49.465 E0.00133
G1 X130.921 Y57.557 E0.08503
G1 X130.795 Y57.683 E0.00133
G1 X122.703 Y49.591 E0.08504
G1 X122.576 Y49.717 E0.00133
G1 X130.669 Y57.810 E0.08504
G1 X130.542 Y57.936 E0.00133
G1 X122.450 Y49.843 E0.08504
G1 X122.323 Y49.969 E0.00133
G1 X130.416 Y58.062 E0.08504
G1 X130.289 Y58.189 E0.00133
G1 X122.196 Y50.096 E0.08505
G1 X122.070 Y50.222 E0.00133
G1 X130.163 Y58.315 E0.08505
G1 X130.037 Y58.442 E0.00133
G1 X121.943 Y50.348 E0.08505
G1 X121.816 Y50.474 E0.00133
G1 X129.910 Y58.568 E0.08505
G1 X129.784 Y58.694 E0.00133
G1 X121.690 Y50.600 E0.08506
G1 X121.563 Y50.726 E0.00133
G1 X129.658 Y58.821 E0.08506
G1 X129.531 Y58.947 E0.00133
G1 X121.436 Y50.852 E0.08506
G1 X121.310 Y50.978 E0.00133
G1 X129.405 Y59.073 E0.08507
G1 X129.278 Y59.200 E0.00133
G1 X121.183 Y51.105 E0.08507
G1 X121.057 Y51.231 E0.00133
G1 X129.152 Y59.326 E0.08507
G1 X129.026 Y59.453 E0.00133
G1 X120.930 Y51.357 E0.08507
G1 X120.803 Y51.483 E0.00133
G1 X128.899 Y59.579 E0.08508
G1 X128.773 Y59.705 E0.00133
G1 X120.677 Y51.609 E0.08508
G1 X120.550 Y51.735 E0.00133
G1 X128.647 Y59.832 E0.08508
