; generated by PrusaSlicer 2.3.0-rc2+ on 2021-04-05 at 20:40:49 UTC

; 

; external perimeters extrusion width = 0.48mm
; perimeters extrusion width = 0.48mm
; infill extrusion width = 0.40mm
; solid infill extrusion width = 0.40mm
; top infill extrusion width = 0.40mm
; support material extrusion width = 0.48mm
; first layer extrusion width = 0.48mm

M201 X500 Y500 Z100 E5000 ; sets maximum accelerations, mm/sec^2
M203 X500 Y500 Z10 E60 ; sets maximum feedrates, mm/sec
M204 P500 R1000 T500 ; sets acceleration (P, T) and retract acceleration (R), mm/sec^2
M205 X8.00 Y8.00 Z0.40 E5.00 ; sets the jerk limits, mm/sec
M205 S0 T0 ; sets the minimum extruding and travel feed rate, mm/sec
M107
M190 S80 ; set bed temperature and wait for it to be reached
M104 S220 ; set temperature
;TYPE:Custom
G28 ; Home
M109 S220 ; set temperature and wait for it to be reached
G21 ; set units to millimeters
G90 ; use absolute coordinates
M83 ; use relative distances for extrusion
;LAYER_CHANGE
;Z:0.1
;HEIGHT:0.1
;BEFORE_LAYER_CHANGE
;0.1


G1 E-0.50000 F2700.000
G1 Z0.500 F9000.000
;AFTER_LAYER_CHANGE
;0.1
G1 X90.858 Y91.058
G1 Z0.100
G1 E0.50000 F2400.000
;TYPE:Skirt
;WIDTH:0.48
G1 F1200.000
G1 X91.752 Y90.233 E0.02320
G1 X92.779 Y89.477 E0.02430
G1 X93.681 Y88.946 E0.01996
G1 X94.826 Y88.418 E0.02404
G1 X96.000 Y88.028 E0.02358
G1 X97.055 Y87.793 E0.02060
G1 X98.948 Y87.625 E0.03623
G1 X121.007 Y87.624 E0.42053
G1 X122.963 Y87.796 E0.03744
G1 X124.675 Y88.235 E0.03370
G1 X126.470 Y89.026 E0.03738
G1 X128.087 Y90.103 E0.03705
G1 X129.381 Y91.310 E0.03374
G1 X130.580 Y92.866 E0.03745
G1 X131.495 Y94.615 E0.03763
G1 X132.041 Y96.266 E0.03315
G1 X132.284 Y97.565 E0.02519
G1 X132.375 Y98.907 E0.02565
G1 X132.359 Y121.610 E0.43281
G1 X132.181 Y123.095 E0.02851
G1 X131.818 Y124.516 E0.02796
G1 X131.284 Y125.862 E0.02761
G1 X130.548 Y127.183 E0.02882
G1 X129.772 Y128.243 E0.02505
G1 X128.887 Y129.197 E0.02481
G1 X127.868 Y130.067 E0.02553
G1 X126.934 Y130.703 E0.02155
G1 X125.803 Y131.311 E0.02448
G1 X124.519 Y131.818 E0.02632
G1 X123.196 Y132.161 E0.02605
G1 X121.921 Y132.337 E0.02455
G1 X98.296 Y132.354 E0.45038
G1 X96.865 Y132.174 E0.02749
G1 X95.458 Y131.810 E0.02771
G1 X94.129 Y131.279 E0.02729
G1 X92.823 Y130.551 E0.02851
G1 X91.757 Y129.772 E0.02518
G1 X90.803 Y128.887 E0.02481
G1 X89.925 Y127.857 E0.02579
G1 X89.299 Y126.937 E0.02121
G1 X88.689 Y125.803 E0.02455
G1 X88.182 Y124.519 E0.02632
G1 X87.839 Y123.196 E0.02605
G1 X87.663 Y121.918 E0.02460
G1 X87.646 Y98.296 E0.45032
G1 X87.826 Y96.865 E0.02749
G1 X88.190 Y95.458 E0.02771
G1 X88.721 Y94.129 E0.02729
G1 X89.452 Y92.817 E0.02864
G1 X90.149 Y91.855 E0.02264
G1 X90.818 Y91.103 E0.01920
G1 E-0.35000 F2700.000
;WIPE_START
G1 F7200.000
G1 X91.111 Y90.830 E-0.14250
;WIPE_END
G1 E-0.00750 F2700.000
G1 Z0.600 F9000.000
G1 X89.144 Y94.307
G1 Z0.100
G1 E0.50000 F2400.000
G1 F1200.000
G1 X89.856 Y93.038 E0.02774
G1 X90.566 Y92.068 E0.02292
G1 X91.375 Y91.188 E0.02279
G1 X92.120 Y90.525 E0.01902
G1 X93.050 Y89.847 E0.02193
G1 X93.903 Y89.347 E0.01886
G1 X95.008 Y88.839 E0.02317
G1 X96.138 Y88.465 E0.02270
G1 X97.162 Y88.240 E0.01997
G1 X98.957 Y88.083 E0.03436
G1 X121.006 Y88.083 E0.42035
G1 X122.883 Y88.247 E0.03591
G1 X124.524 Y88.668 E0.03229
G1 X126.250 Y89.428 E0.03596
G1 X127.815 Y90.473 E0.03587
G1 X129.048 Y91.626 E0.03219
G1 X130.201 Y93.125 E0.03604
G1 X131.080 Y94.809 E0.03622
G1 X131.604 Y96.409 E0.03210
G1 X131.830 Y97.629 E0.02366
G1 X131.917 Y98.918 E0.02462
G1 X131.901 Y121.579 E0.43200
G1 X131.729 Y123.017 E0.02762
G1 X131.380 Y124.382 E0.02686
G1 X130.863 Y125.679 E0.02662
G1 X130.144 Y126.962 E0.02803
G1 X129.393 Y127.982 E0.02415
G1 X128.494 Y128.938 E0.02502
G1 X127.489 Y129.779 E0.02499
G1 X126.455 Y130.455 E0.02355
G1 X125.502 Y130.944 E0.02040
G1 X124.283 Y131.411 E0.02489
G1 X123.069 Y131.719 E0.02389
G1 X121.852 Y131.883 E0.02340
G1 X98.330 Y131.897 E0.44842
G1 X96.944 Y131.722 E0.02663
G1 X95.587 Y131.370 E0.02673
G1 X94.313 Y130.859 E0.02617
G1 X93.038 Y130.144 E0.02786
G1 X92.018 Y129.393 E0.02415
G1 X91.062 Y128.494 E0.02502
G1 X90.213 Y127.478 E0.02525
G1 X89.548 Y126.460 E0.02317
G1 X89.059 Y125.508 E0.02041
G1 X88.591 Y124.290 E0.02489
G1 X88.281 Y123.069 E0.02401
G1 X88.117 Y121.856 E0.02332
G1 X88.103 Y98.330 E0.44850
G1 X88.278 Y96.944 E0.02663
G1 X88.630 Y95.587 E0.02673
G1 X89.121 Y94.363 E0.02515
G1 X89.101 Y95.628 F9000.000
G1 F1200.000
G1 X89.734 Y94.152 E0.03061
G1 X90.429 Y93.009 E0.02551
G1 X91.018 Y92.244 E0.01839
G1 X91.821 Y91.395 E0.02229
G1 X92.710 Y90.646 E0.02216
G1 X93.475 Y90.121 E0.01768
G1 X94.432 Y89.592 E0.02085
G1 X95.330 Y89.208 E0.01862
G1 X96.403 Y88.869 E0.02146
G1 X97.563 Y88.641 E0.02253
G1 X98.972 Y88.542 E0.02694
G1 X121.006 Y88.541 E0.42005
G1 X122.822 Y88.702 E0.03475
G1 X124.408 Y89.113 E0.03123
G1 X126.069 Y89.852 E0.03466
G1 X127.611 Y90.897 E0.03551
G1 X128.926 Y92.178 E0.03499
G1 X129.888 Y93.489 E0.03100
G1 X130.714 Y95.124 E0.03492
G1 X131.233 Y96.847 E0.03431
G1 X131.388 Y97.800 E0.01839
G1 X131.458 Y98.947 E0.02192
G1 X131.441 Y121.605 E0.43193
G1 X131.269 Y122.982 E0.02647
G1 X130.905 Y124.354 E0.02706
G1 X130.269 Y125.842 E0.03085
G1 X129.571 Y126.991 E0.02563
G1 X128.942 Y127.804 E0.01959
G1 X128.073 Y128.703 E0.02384
G1 X127.150 Y129.459 E0.02274
G1 X126.106 Y130.127 E0.02362
G1 X125.015 Y130.656 E0.02313
G1 X124.078 Y130.995 E0.01899
G1 X122.931 Y131.279 E0.02252
G1 X121.717 Y131.434 E0.02335
G1 X98.333 Y131.437 E0.44578
G1 X96.993 Y131.264 E0.02575
G1 X95.628 Y130.899 E0.02694
G1 X94.152 Y130.266 E0.03061
G1 X93.009 Y129.571 E0.02551
G1 X92.196 Y128.942 E0.01959
G1 X91.297 Y128.073 E0.02384
G1 X90.533 Y127.139 E0.02300
G1 X89.873 Y126.106 E0.02337
G1 X89.341 Y125.009 E0.02325
G1 X89.005 Y124.078 E0.01887
G1 X88.721 Y122.931 E0.02252
G1 X88.566 Y121.715 E0.02337
G1 X88.563 Y98.333 E0.44576
G1 X88.736 Y96.993 E0.02575
G1 X89.085 Y95.686 E0.02580
G1 E-0.35000 F2700.000
;WIPE_START
G1 F7200.000
G1 X89.241 Y95.317 E-0.14250
;WIPE_END
G1 E-0.00750 F2700.000
G1 Z0.600 F9000.000
G1 X95.425 Y97.835
G1 Z0.100
G1 E0.50000 F2400.000
;TYPE:External perimeter
G1 F1200.000
G1 X95.596 Y97.402 E0.00886
G1 X95.820 Y96.996 E0.00884
G1 X96.106 Y96.600 E0.00931
G1 X96.257 Y96.429 E0.00435
G1 X96.604 Y96.103 E0.00907
G1 X96.986 Y95.826 E0.00900
G1 X97.392 Y95.602 E0.00884
G1 X97.613 Y95.506 E0.00460
G1 X98.065 Y95.359 E0.00907
G1 X98.533 Y95.269 E0.00907
G1 X98.760 Y95.248 E0.00436
G1 X121.005 Y95.240 E0.42407
G1 X121.475 Y95.270 E0.00898
G1 X121.701 Y95.306 E0.00436
G1 X122.165 Y95.425 E0.00914
G1 X122.384 Y95.504 E0.00443
G1 X122.597 Y95.596 E0.00443
G1 X123.015 Y95.826 E0.00907
G1 X123.390 Y96.098 E0.00884
G1 X123.574 Y96.259 E0.00467
G1 X123.738 Y96.424 E0.00442
G1 X124.044 Y96.793 E0.00914
G1 X124.173 Y96.982 E0.00436
G1 X124.396 Y97.388 E0.00884
G1 X124.576 Y97.839 E0.00924
G1 X124.694 Y98.299 E0.00907
G1 X124.730 Y98.525 E0.00436
G1 X124.760 Y99.007 E0.00922
G1 X124.752 Y121.236 E0.42376
G1 X124.693 Y121.704 E0.00900
G1 X124.575 Y122.165 E0.00907
G1 X124.496 Y122.384 E0.00443
G1 X124.404 Y122.598 E0.00443
G1 X124.180 Y123.004 E0.00884
G1 X123.897 Y123.397 E0.00924
G1 X123.574 Y123.741 E0.00900
G1 X123.207 Y124.044 E0.00907
G1 X123.018 Y124.172 E0.00436
G1 X122.601 Y124.402 E0.00907
G1 X122.162 Y124.576 E0.00900
G1 X121.704 Y124.693 E0.00900
G1 X121.244 Y124.751 E0.00884
G1 X120.996 Y124.760 E0.00474
G1 X98.764 Y124.752 E0.42383
G1 X98.296 Y124.693 E0.00900
G1 X97.835 Y124.575 E0.00907
G1 X97.616 Y124.496 E0.00443
G1 X97.402 Y124.404 E0.00443
G1 X96.996 Y124.180 E0.00884
G1 X96.600 Y123.894 E0.00931
G1 X96.429 Y123.743 E0.00435
G1 X96.103 Y123.396 E0.00907
G1 X95.826 Y123.014 E0.00900
G1 X95.598 Y122.601 E0.00900
G1 X95.424 Y122.162 E0.00900
G1 X95.306 Y121.701 E0.00907
G1 X95.270 Y121.475 E0.00436
G1 X95.240 Y120.993 E0.00922
G1 X95.248 Y98.764 E0.42376
G1 X95.307 Y98.296 E0.00900
G1 X95.410 Y97.893 E0.00793
G1 X95.817 Y97.751 F9000.000
G1 E-0.35000 F2700.000
;WIPE_START
G1 F7200.000
G1 X95.552 Y97.519 E-0.14250
;WIPE_END
G1 E-0.00750 F2700.000
G1 Z0.600 F9000.000
G1 X98.597 Y95.724
G1 Z0.100
G1 E0.50000 F2400.000
;TYPE:Perimeter
G1 F1200.000
G1 X98.782 Y95.706 E0.00354
G1 X120.990 Y95.699 E0.42338
G1 X121.608 Y95.756 E0.01182
G1 X122.030 Y95.864 E0.00832
G1 X122.215 Y95.931 E0.00374
G1 X122.395 Y96.009 E0.00374
G1 X122.769 Y96.214 E0.00812
G1 X123.104 Y96.457 E0.00789
G1 X123.399 Y96.732 E0.00770
G1 X123.781 Y97.222 E0.01185
G1 X123.981 Y97.585 E0.00789
G1 X124.139 Y97.981 E0.00813
G1 X124.273 Y98.575 E0.01162
G1 X124.301 Y99.022 E0.00853
G1 X124.294 Y121.207 E0.42294
G1 X124.242 Y121.618 E0.00790
G1 X124.136 Y122.030 E0.00811
G1 X123.991 Y122.396 E0.00749
G1 X123.792 Y122.758 E0.00789
G1 X123.542 Y123.104 E0.00813
G1 X123.259 Y123.406 E0.00789
G1 X122.931 Y123.677 E0.00811
G1 X122.405 Y123.986 E0.01163
G1 X122.020 Y124.139 E0.00790
G1 X121.618 Y124.242 E0.00791
G1 X121.207 Y124.294 E0.00789
G1 X98.793 Y124.294 E0.42731
G1 X98.382 Y124.242 E0.00790
G1 X97.970 Y124.136 E0.00811
G1 X97.604 Y123.991 E0.00749
G1 X97.242 Y123.792 E0.00789
G1 X96.887 Y123.536 E0.00834
G1 X96.457 Y123.104 E0.01162
G1 X96.214 Y122.768 E0.00790
G1 X96.014 Y122.405 E0.00790
G1 X95.861 Y122.020 E0.00790
G1 X95.727 Y121.425 E0.01163
G1 X95.699 Y120.978 E0.00853
G1 X95.706 Y98.793 E0.42294
G1 X95.758 Y98.382 E0.00790
G1 X95.864 Y97.970 E0.00811
G1 X95.931 Y97.785 E0.00374
G1 X96.208 Y97.242 E0.01162
G1 X96.464 Y96.887 E0.00834
G1 X96.586 Y96.748 E0.00352
G1 X96.896 Y96.457 E0.00811
G1 X97.232 Y96.213 E0.00791
G1 X97.595 Y96.014 E0.00789
G1 X97.776 Y95.935 E0.00377
G1 X98.179 Y95.804 E0.00809
G1 X98.538 Y95.735 E0.00697
G1 E-0.35000 F2700.000
;WIPE_START
G1 F7200.000
G1 X98.782 Y95.706 E-0.08739
G1 X98.937 Y95.706 E-0.05511
;WIPE_END
G1 E-0.00750 F2700.000
G1 Z0.600 F9000.000
G1 X109.282 Y117.355
G1 Z0.100
G1 E0.50000 F2400.000
;TYPE:External perimeter
G1 F1200.000
G1 X109.724 Y117.273 E0.00858
G1 X110.163 Y117.264 E0.00836
G1 X110.395 Y117.288 E0.00445
G1 X110.826 Y117.387 E0.00843
G1 X111.242 Y117.557 E0.00858
G1 X111.616 Y117.787 E0.00836
G1 X111.798 Y117.932 E0.00445
G1 X112.108 Y118.248 E0.00842
G1 X112.361 Y118.609 E0.00842
G1 X112.471 Y118.816 E0.00445
G1 X112.631 Y119.231 E0.00849
G1 X112.719 Y119.661 E0.00836
G1 X112.738 Y119.893 E0.00445
G1 X112.720 Y120.335 E0.00842
G1 X112.631 Y120.767 E0.00842
G1 X112.556 Y120.988 E0.00445
G1 X112.364 Y121.387 E0.00842
G1 X112.108 Y121.752 E0.00852
G1 X111.798 Y122.068 E0.00842
G1 X111.616 Y122.213 E0.00445
G1 X111.244 Y122.442 E0.00833
G1 X111.031 Y122.539 E0.00445
G1 X110.610 Y122.672 E0.00842
G1 X110.168 Y122.736 E0.00852
G1 X109.721 Y122.727 E0.00852
G1 X109.286 Y122.646 E0.00842
G1 X109.064 Y122.576 E0.00445
G1 X108.666 Y122.394 E0.00833
G1 X108.465 Y122.270 E0.00451
G1 X108.122 Y121.996 E0.00836
G1 X107.826 Y121.668 E0.00842
G1 X107.692 Y121.477 E0.00445
G1 X107.484 Y121.087 E0.00842
G1 X107.341 Y120.664 E0.00852
G1 X107.269 Y120.228 E0.00842
G1 X107.260 Y119.995 E0.00445
G1 X107.296 Y119.555 E0.00842
G1 X107.403 Y119.126 E0.00842
G1 X107.486 Y118.908 E0.00445
G1 X107.694 Y118.518 E0.00842
G1 X107.966 Y118.163 E0.00852
G1 X108.294 Y117.855 E0.00858
G1 X108.658 Y117.611 E0.00836
G1 X108.866 Y117.505 E0.00445
G1 X109.225 Y117.375 E0.00728
G1 X109.389 Y116.970 F9000.000
G1 X109.161 Y116.911
;TYPE:Perimeter
G1 F1200.000
G1 X109.678 Y116.816 E0.01001
G1 X110.182 Y116.805 E0.00960
G1 X110.469 Y116.835 E0.00552
G1 X110.965 Y116.948 E0.00968
G1 X111.451 Y117.147 E0.01001
G1 X111.880 Y117.411 E0.00960
G1 X112.106 Y117.591 E0.00552
G1 X112.461 Y117.954 E0.00967
G1 X112.753 Y118.369 E0.00967
G1 X112.889 Y118.625 E0.00553
G1 X113.072 Y119.102 E0.00974
G1 X113.174 Y119.595 E0.00960
G1 X113.198 Y119.884 E0.00552
G1 X113.177 Y120.391 E0.00967
G1 X113.074 Y120.888 E0.00967
G1 X112.981 Y121.162 E0.00552
G1 X112.761 Y121.619 E0.00967
G1 X112.461 Y122.046 E0.00995
G1 X112.106 Y122.409 E0.00967
G1 X111.880 Y122.589 E0.00552
G1 X111.460 Y122.847 E0.00940
G1 X111.196 Y122.968 E0.00552
G1 X110.712 Y123.121 E0.00967
G1 X110.196 Y123.195 E0.00995
G1 X109.674 Y123.184 E0.00995
G1 X109.175 Y123.092 E0.00967
G1 X108.899 Y123.004 E0.00552
G1 X108.450 Y122.799 E0.00941
G1 X108.201 Y122.646 E0.00559
G1 X107.807 Y122.331 E0.00960
G1 X107.467 Y121.955 E0.00967
G1 X107.301 Y121.718 E0.00552
G1 X107.062 Y121.270 E0.00967
G1 X106.895 Y120.776 E0.00995
G1 X106.812 Y120.275 E0.00967
G1 X106.800 Y119.986 E0.00552
G1 X106.842 Y119.480 E0.00967
G1 X106.965 Y118.988 E0.00967
G1 X107.069 Y118.717 E0.00552
G1 X107.307 Y118.269 E0.00967
G1 X107.624 Y117.855 E0.00995
G1 X108.007 Y117.495 E0.01001
G1 X108.426 Y117.214 E0.00960
G1 X108.684 Y117.084 E0.00552
G1 X109.105 Y116.931 E0.00854
G1 E-0.35000 F2700.000
;WIPE_START
G1 F7200.000
G1 X109.497 Y116.852 E-0.14250
;WIPE_END
G1 E-0.00750 F2700.000
G1 Z0.600 F9000.000
G1 X108.454 Y124.159
G1 Z0.100
G1 E0.50000 F2400.000
;TYPE:Solid infill
;WIDTH:0.484196
G1 F1200.000
G1 X96.046 Y111.751 E0.33760
G1 X96.045 Y112.405 E0.01259
G1 X107.593 Y123.953 E0.31418
G1 X106.938 Y123.953 E0.01259
G1 X96.045 Y113.059 E0.29637
G1 X96.045 Y113.714 E0.01259
G1 X106.284 Y123.952 E0.27857
G1 X105.629 Y123.952 E0.01259
G1 X96.045 Y114.368 E0.26076
G1 X96.045 Y115.022 E0.01259
G1 X104.975 Y123.952 E0.24296
G1 X104.320 Y123.952 E0.01259
G1 X96.044 Y115.676 E0.22516
G1 X96.044 Y116.330 E0.01259
G1 X103.665 Y123.951 E0.20735
G1 X103.011 Y123.951 E0.01259
G1 X96.044 Y116.984 E0.18955
G1 X96.044 Y117.639 E0.01259
G1 X102.356 Y123.951 E0.17174
G1 X101.701 Y123.951 E0.01259
G1 X96.043 Y118.293 E0.15394
G1 X96.043 Y118.947 E0.01259
G1 X101.047 Y123.950 E0.13613
G1 X100.392 Y123.950 E0.01259
G1 X96.043 Y119.601 E0.11833
G1 X96.043 Y120.255 E0.01259
G1 X99.737 Y123.950 E0.10052
G1 X99.083 Y123.950 E0.01259
G1 X96.042 Y120.909 E0.08272
G1 X96.096 Y121.549 E0.01235
G1 X96.119 Y121.640 E0.00182
G1 X98.360 Y123.881 E0.06096
G1 X97.922 Y123.753 E0.00877
G1 X97.422 Y123.498 E0.01080
G1 X97.010 Y123.186 E0.00994
G1 X96.118 Y122.294 E0.02427
G1 E-0.35000 F2700.000
;WIPE_START
G1 F7200.000
G1 X96.401 Y122.576 E-0.14250
;WIPE_END
G1 E-0.00750 F2700.000
G1 Z0.600 F9000.000
G1 X118.274 Y124.163
G1 Z0.100
G1 E0.50000 F2400.000
G1 F1200.000
G1 X113.478 Y119.367 E0.13048
G1 X113.515 Y119.546 E0.00352
G1 X113.542 Y119.877 E0.00638
G1 X113.534 Y120.077 E0.00387
G1 X117.413 Y123.956 E0.10553
G1 X116.758 Y123.956 E0.01259
G1 X113.471 Y120.669 E0.08944
G1 X113.407 Y120.978 E0.00608
G1 X113.336 Y121.188 E0.00426
G1 X116.103 Y123.956 E0.07531
G1 X115.449 Y123.956 E0.01259
G1 X113.133 Y121.640 E0.06301
G1 X113.059 Y121.794 E0.00329
G1 X112.883 Y122.044 E0.00589
G1 X114.794 Y123.955 E0.05200
G1 X114.140 Y123.955 E0.01259
G1 X112.590 Y122.406 E0.04215
G1 X112.258 Y122.728 E0.00890
G1 X113.485 Y123.955 E0.03339
G1 X112.830 Y123.955 E0.01259
G1 X111.873 Y122.997 E0.02605
G1 X111.622 Y123.152 E0.00567
G1 X111.451 Y123.230 E0.00361
G1 X112.176 Y123.954 E0.01972
G1 X111.521 Y123.954 E0.01259
G1 X110.967 Y123.401 E0.01506
G1 X110.789 Y123.457 E0.00360
G1 X110.422 Y123.510 E0.00713
G1 X110.866 Y123.954 E0.01209
G1 X110.212 Y123.954 E0.01259
G1 X109.788 Y123.531 E0.01151
G1 X109.639 Y123.527 E0.00288
G1 X109.001 Y123.397 E0.01253
G1 X109.557 Y123.954 E0.01514
G1 X108.902 Y123.953 E0.01259
G1 X96.046 Y111.097 E0.34979
G1 X96.046 Y110.443 E0.01259
G1 X106.609 Y121.006 E0.28739
G1 X106.560 Y120.859 E0.00297
G1 X106.465 Y120.207 E0.01268
G1 X96.046 Y109.788 E0.28346
G1 X96.047 Y109.134 E0.01259
G1 X106.489 Y119.576 E0.28410
G1 X106.501 Y119.424 E0.00294
G1 X106.599 Y119.032 E0.00777
G1 X96.047 Y108.480 E0.28709
G1 X96.047 Y107.826 E0.01259
G1 X106.769 Y118.548 E0.29172
G1 X106.997 Y118.121 E0.00931
G1 X96.047 Y107.172 E0.29790
G1 X96.048 Y106.518 E0.01259
G1 X107.275 Y117.745 E0.30547
G1 X107.368 Y117.623 E0.00295
G1 X107.595 Y117.411 E0.00598
G1 X96.048 Y105.863 E0.31417
G1 X96.048 Y105.209 E0.01259
G1 X107.955 Y117.116 E0.32395
G1 X108.357 Y116.864 E0.00913
G1 X96.048 Y104.555 E0.33488
G1 X96.049 Y103.901 E0.01259
G1 X108.817 Y116.670 E0.34740
G1 X109.071 Y116.578 E0.00519
G1 X109.332 Y116.530 E0.00510
G1 X96.049 Y103.247 E0.36139
