; generated by PrusaSlicer 2.3.0-rc2+ on 2021-04-05 at 21:11:38 UTC

; 

; external perimeters extrusion width = 0.45mm
; perimeters extrusion width = 0.45mm
; infill extrusion width = 0.45mm
; solid infill extrusion width = 0.45mm
; top infill extrusion width = 0.40mm
; support material extrusion width = 0.40mm
; first layer extrusion width = 0.20mm

M201 X500 Y500 Z100 E5000 ; sets maximum accelerations, mm/sec^2
M203 X500 Y500 Z10 E60 ; sets maximum feedrates, mm/sec
M204 P500 R1000 T500 ; sets acceleration (P, T) and retract acceleration (R), mm/sec^2
M205 X8.00 Y8.00 Z0.40 E5.00 ; sets the jerk limits, mm/sec
M205 S0 T0 ; sets the minimum extruding and travel feed rate, mm/sec
M107
M190 S80 ; set bed temperature and wait for it to be reached
M104 S220 ; set temperature
;TYPE:Custom
G28 ; Home
M109 S220 ; set temperature and wait for it to be reached
G21 ; set units to millimeters
G90 ; use absolute coordinates
M83 ; use relative distances for extrusion
;LAYER_CHANGE
;Z:0.1
;HEIGHT:0.1
;BEFORE_LAYER_CHANGE
;0.1


G1 E-0.50000 F2700.000
G1 Z0.500 F9000.000
;AFTER_LAYER_CHANGE
;0.1
G1 X91.541 Y91.309
G1 Z0.100
G1 E0.50000 F2400.000
;TYPE:Skirt
;WIDTH:0.2
G1 F1200.000
G1 X92.276 Y90.660 E0.00728
G1 X93.233 Y89.971 E0.00875
G1 X94.272 Y89.387 E0.00885
G1 X95.187 Y88.988 E0.00741
G1 X96.305 Y88.631 E0.00871
G1 X97.461 Y88.398 E0.00875
G1 X98.967 Y88.286 E0.01121
G1 X121.006 Y88.286 E0.16359
G1 X122.850 Y88.448 E0.01374
G1 X124.462 Y88.861 E0.01235
G1 X126.155 Y89.608 E0.01374
G1 X127.690 Y90.633 E0.01370
G1 X128.901 Y91.765 E0.01231
G1 X130.031 Y93.237 E0.01377
G1 X130.896 Y94.895 E0.01389
G1 X131.411 Y96.473 E0.01232
G1 X131.630 Y97.664 E0.00899
G1 X131.714 Y98.923 E0.00936
G1 X131.699 Y121.571 E0.16811
G1 X131.529 Y122.983 E0.01056
G1 X131.184 Y124.329 E0.01031
G1 X130.675 Y125.601 E0.01017
G1 X129.965 Y126.864 E0.01076
G1 X129.231 Y127.859 E0.00918
G1 X128.348 Y128.797 E0.00956
G1 X127.360 Y129.621 E0.00955
G1 X126.346 Y130.284 E0.00900
G1 X125.415 Y130.760 E0.00776
G1 X124.219 Y131.219 E0.00951
G1 X123.027 Y131.521 E0.00913
G1 X121.827 Y131.681 E0.00899
G1 X98.346 Y131.694 E0.17430
G1 X96.986 Y131.523 E0.01018
G1 X95.647 Y131.176 E0.01027
G1 X94.392 Y130.672 E0.01004
G1 X93.136 Y129.965 E0.01070
G1 X92.141 Y129.231 E0.00918
G1 X91.203 Y128.348 E0.00956
G1 X90.374 Y127.355 E0.00960
G1 X89.716 Y126.346 E0.00894
G1 X89.240 Y125.415 E0.00776
G1 X88.781 Y124.219 E0.00951
G1 X88.478 Y123.021 E0.00917
G1 X88.318 Y121.825 E0.00895
G1 X88.306 Y98.346 E0.17428
G1 X88.477 Y96.986 E0.01018
G1 X88.824 Y95.647 E0.01027
G1 X89.328 Y94.392 E0.01004
G1 X90.035 Y93.136 E0.01070
G1 X90.729 Y92.190 E0.00871
G1 X91.501 Y91.354 E0.00845
G1 X91.634 Y91.480 F9000.000
G1 F1200.000
G1 X91.763 Y91.344 E0.00139
G1 X92.658 Y90.589 E0.00869
G1 X93.433 Y90.056 E0.00698
G1 X94.398 Y89.524 E0.00818
G1 X95.301 Y89.136 E0.00730
G1 X96.383 Y88.795 E0.00842
G1 X97.551 Y88.565 E0.00884
G1 X98.971 Y88.464 E0.01056
G1 X121.006 Y88.464 E0.16356
G1 X122.834 Y88.626 E0.01362
G1 X124.431 Y89.040 E0.01225
G1 X126.105 Y89.784 E0.01360
G1 X127.659 Y90.836 E0.01393
G1 X128.984 Y92.127 E0.01373
G1 X129.953 Y93.448 E0.01216
G1 X130.785 Y95.095 E0.01370
G1 X131.307 Y96.824 E0.01341
G1 X131.465 Y97.789 E0.00726
G1 X131.535 Y98.946 E0.00860
G1 X131.518 Y121.614 E0.16826
G1 X131.344 Y123.002 E0.01038
G1 X130.979 Y124.378 E0.01056
G1 X130.456 Y125.641 E0.01015
G1 X129.638 Y127.029 E0.01196
G1 X129.005 Y127.848 E0.00768
G1 X128.126 Y128.759 E0.00940
G1 X127.196 Y129.520 E0.00892
G1 X126.151 Y130.191 E0.00922
G1 X125.045 Y130.727 E0.00912
G1 X124.102 Y131.068 E0.00745
G1 X122.947 Y131.354 E0.00883
G1 X121.729 Y131.510 E0.00911
G1 X98.323 Y131.514 E0.17374
G1 X96.973 Y131.339 E0.01010
G1 X95.604 Y130.973 E0.01052
G1 X94.118 Y130.334 E0.01201
G1 X92.971 Y129.638 E0.00996
G1 X92.152 Y129.005 E0.00768
G1 X91.241 Y128.126 E0.00940
G1 X90.471 Y127.186 E0.00902
G1 X89.806 Y126.145 E0.00917
G1 X89.273 Y125.045 E0.00907
G1 X88.932 Y124.102 E0.00745
G1 X88.646 Y122.947 E0.00883
G1 X88.490 Y121.728 E0.00912
G1 X88.486 Y98.323 E0.17373
G1 X88.661 Y96.973 E0.01010
G1 X89.027 Y95.604 E0.01052
G1 X89.666 Y94.118 E0.01201
G1 X90.362 Y92.971 E0.00996
G1 X90.958 Y92.195 E0.00726
G1 X91.593 Y91.523 E0.00686
G1 E-0.35000 F2700.000
;WIPE_START
G1 F7200.000
G1 X91.763 Y91.344 E-0.08796
G1 X91.880 Y91.245 E-0.05454
;WIPE_END
G1 E-0.00750 F2700.000
G1 Z0.600 F9000.000
G1 X89.828 Y94.193
G1 Z0.100
G1 E0.50000 F2400.000
G1 F1200.000
G1 X90.516 Y93.060 E0.00984
G1 X91.100 Y92.304 E0.00709
G1 X91.892 Y91.467 E0.00855
G1 X92.772 Y90.726 E0.00854
G1 X93.530 Y90.207 E0.00682
G1 X94.478 Y89.683 E0.00804
G1 X95.367 Y89.302 E0.00718
G1 X96.430 Y88.967 E0.00827
G1 X97.584 Y88.741 E0.00873
G1 X98.974 Y88.643 E0.01034
G1 X121.006 Y88.643 E0.16354
G1 X122.799 Y88.801 E0.01336
G1 X124.371 Y89.208 E0.01205
G1 X126.016 Y89.939 E0.01336
G1 X127.548 Y90.976 E0.01373
G1 X128.850 Y92.245 E0.01349
G1 X129.803 Y93.544 E0.01196
G1 X130.620 Y95.163 E0.01346
G1 X131.136 Y96.876 E0.01327
G1 X131.288 Y97.813 E0.00705
G1 X131.357 Y98.949 E0.00845
G1 X131.340 Y121.600 E0.16813
G1 X131.169 Y122.965 E0.01021
G1 X130.809 Y124.324 E0.01044
G1 X130.175 Y125.802 E0.01194
G1 X129.484 Y126.940 E0.00988
G1 X128.863 Y127.739 E0.00751
G1 X128.003 Y128.630 E0.00919
G1 X127.089 Y129.378 E0.00877
G1 X126.055 Y130.039 E0.00911
G1 X124.969 Y130.566 E0.00896
G1 X124.046 Y130.898 E0.00728
G1 X122.911 Y131.179 E0.00868
G1 X121.708 Y131.332 E0.00900
G1 X98.338 Y131.336 E0.17347
G1 X97.011 Y131.164 E0.00993
G1 X95.659 Y130.803 E0.01039
G1 X94.193 Y130.172 E0.01184
G1 X93.060 Y129.484 E0.00984
G1 X92.261 Y128.863 E0.00751
G1 X91.370 Y128.003 E0.00919
G1 X90.614 Y127.078 E0.00887
G1 X89.961 Y126.055 E0.00901
G1 X89.434 Y124.969 E0.00896
G1 X89.102 Y124.046 E0.00728
G1 X88.821 Y122.911 E0.00868
G1 X88.667 Y121.707 E0.00901
G1 X88.664 Y98.338 E0.17346
G1 X88.836 Y97.011 E0.00993
G1 X89.197 Y95.659 E0.01039
G1 X89.804 Y94.248 E0.01140
G1 X89.968 Y94.318 F9000.000
G1 F1200.000
G1 X90.675 Y93.146 E0.01016
G1 X91.238 Y92.417 E0.00684
G1 X92.021 Y91.591 E0.00844
G1 X92.886 Y90.863 E0.00840
G1 X93.637 Y90.350 E0.00675
G1 X94.629 Y89.808 E0.00840
G1 X95.671 Y89.383 E0.00835
G1 X97.629 Y88.914 E0.01495
G1 X98.978 Y88.822 E0.01003
G1 X121.006 Y88.821 E0.16351
G1 X122.777 Y88.978 E0.01319
G1 X124.316 Y89.378 E0.01181
G1 X125.932 Y90.096 E0.01313
G1 X127.442 Y91.120 E0.01354
G1 X128.720 Y92.368 E0.01326
G1 X129.652 Y93.641 E0.01171
G1 X130.458 Y95.238 E0.01328
G1 X130.965 Y96.933 E0.01313
G1 X131.178 Y98.953 E0.01508
G1 X131.161 Y121.592 E0.16805
G1 X130.993 Y122.934 E0.01003
G1 X130.638 Y124.270 E0.01026
G1 X130.013 Y125.727 E0.01177
G1 X129.325 Y126.854 E0.00981
G1 X128.726 Y127.625 E0.00725
G1 X127.876 Y128.505 E0.00908
G1 X126.977 Y129.239 E0.00861
G1 X125.955 Y129.891 E0.00900
G1 X124.898 Y130.402 E0.00871
G1 X123.991 Y130.728 E0.00716
G1 X122.875 Y131.004 E0.00853
G1 X121.687 Y131.155 E0.00889
G1 X98.352 Y131.158 E0.17321
G1 X97.042 Y130.988 E0.00981
G1 X95.713 Y130.632 E0.01022
G1 X94.268 Y130.010 E0.01168
G1 X93.146 Y129.325 E0.00976
G1 X92.375 Y128.726 E0.00725
G1 X91.495 Y127.876 E0.00908
G1 X90.753 Y126.966 E0.00871
G1 X90.109 Y125.955 E0.00890
G1 X89.596 Y124.892 E0.00876
G1 X89.272 Y123.991 E0.00711
G1 X88.996 Y122.875 E0.00853
G1 X88.845 Y121.686 E0.00889
G1 X88.842 Y98.352 E0.17320
G1 X89.012 Y97.042 E0.00981
G1 X89.368 Y95.713 E0.01021
G1 X89.944 Y94.374 E0.01082
G1 E-0.35000 F2700.000
;WIPE_START
G1 F7200.000
G1 X90.149 Y94.030 E-0.14250
;WIPE_END
G1 E-0.00750 F2700.000
G1 Z0.600 F9000.000
G1 X108.158 Y117.685
G1 Z0.100
G1 E0.50000 F2400.000
;TYPE:Perimeter
G1 F1200.000
G1 X108.548 Y117.423 E0.00348
G1 X108.780 Y117.306 E0.00193
G1 X109.225 Y117.145 E0.00351
G1 X109.702 Y117.057 E0.00361
G1 X110.172 Y117.047 E0.00348
G1 X110.430 Y117.074 E0.00193
G1 X110.891 Y117.179 E0.00351
G1 X111.341 Y117.363 E0.00361
G1 X111.741 Y117.609 E0.00348
G1 X111.944 Y117.771 E0.00193
G1 X112.275 Y118.109 E0.00351
G1 X112.547 Y118.496 E0.00351
G1 X112.669 Y118.725 E0.00193
G1 X112.840 Y119.170 E0.00354
G1 X112.935 Y119.630 E0.00348
G1 X112.956 Y119.889 E0.00193
G1 X112.936 Y120.361 E0.00351
G1 X112.841 Y120.824 E0.00351
G1 X112.757 Y121.071 E0.00193
G1 X112.552 Y121.497 E0.00351
G1 X112.275 Y121.891 E0.00358
G1 X111.944 Y122.229 E0.00351
G1 X111.741 Y122.391 E0.00193
G1 X111.346 Y122.634 E0.00344
G1 X111.109 Y122.742 E0.00193
G1 X110.658 Y122.884 E0.00351
G1 X110.181 Y122.953 E0.00358
G1 X109.699 Y122.943 E0.00358
G1 X109.234 Y122.857 E0.00351
G1 X108.986 Y122.779 E0.00193
G1 X108.564 Y122.586 E0.00344
G1 X108.340 Y122.448 E0.00196
G1 X107.973 Y122.155 E0.00348
G1 X107.656 Y121.804 E0.00351
G1 X107.507 Y121.591 E0.00193
G1 X107.284 Y121.174 E0.00351
G1 X107.130 Y120.717 E0.00358
G1 X107.053 Y120.250 E0.00351
G1 X107.042 Y119.991 E0.00193
G1 X107.081 Y119.519 E0.00351
G1 X107.195 Y119.060 E0.00351
G1 X107.289 Y118.818 E0.00193
G1 X107.511 Y118.400 E0.00351
G1 X107.804 Y118.017 E0.00358
G1 X108.115 Y117.726 E0.00316
G1 X108.237 Y117.856 F9000.000
G1 F1200.000
G1 X108.638 Y117.577 E0.00363
G1 X108.851 Y117.470 E0.00177
G1 X109.272 Y117.318 E0.00332
G1 X109.721 Y117.235 E0.00339
G1 X110.164 Y117.226 E0.00329
G1 X110.401 Y117.250 E0.00177
G1 X110.837 Y117.350 E0.00332
G1 X111.260 Y117.523 E0.00339
G1 X111.638 Y117.755 E0.00329
G1 X111.824 Y117.903 E0.00177
G1 X112.137 Y118.223 E0.00332
G1 X112.394 Y118.589 E0.00332
G1 X112.506 Y118.799 E0.00177
G1 X112.668 Y119.220 E0.00335
G1 X112.758 Y119.655 E0.00329
G1 X112.777 Y119.892 E0.00177
G1 X112.759 Y120.339 E0.00332
G1 X112.668 Y120.777 E0.00332
G1 X112.592 Y121.003 E0.00177
G1 X112.398 Y121.406 E0.00332
G1 X112.137 Y121.777 E0.00336
G1 X111.824 Y122.097 E0.00332
G1 X111.638 Y122.245 E0.00177
G1 X111.262 Y122.476 E0.00328
G1 X111.045 Y122.575 E0.00177
G1 X110.618 Y122.710 E0.00332
G1 X110.170 Y122.774 E0.00336
G1 X109.717 Y122.765 E0.00336
G1 X109.277 Y122.683 E0.00332
G1 X109.050 Y122.612 E0.00177
G1 X108.648 Y122.428 E0.00328
G1 X108.443 Y122.301 E0.00179
G1 X108.096 Y122.025 E0.00329
G1 X107.796 Y121.693 E0.00332
G1 X107.659 Y121.498 E0.00177
G1 X107.449 Y121.103 E0.00332
G1 X107.303 Y120.674 E0.00336
G1 X107.231 Y120.232 E0.00332
G1 X107.221 Y119.994 E0.00177
G1 X107.257 Y119.548 E0.00332
G1 X107.366 Y119.114 E0.00332
G1 X107.451 Y118.892 E0.00177
G1 X107.662 Y118.497 E0.00332
G1 X107.937 Y118.137 E0.00336
G1 X108.193 Y117.897 E0.00261
G1 X108.382 Y117.965 F9000.000
;TYPE:External perimeter
G1 F1200.000
G1 X108.729 Y117.732 E0.00311
G1 X108.922 Y117.634 E0.00160
G1 X109.318 Y117.491 E0.00313
G1 X109.739 Y117.413 E0.00317
G1 X110.157 Y117.405 E0.00311
G1 X110.372 Y117.427 E0.00160
G1 X110.783 Y117.520 E0.00313
G1 X111.179 Y117.682 E0.00317
G1 X111.535 Y117.901 E0.00311
G1 X111.704 Y118.036 E0.00160
G1 X112.000 Y118.338 E0.00313
G1 X112.242 Y118.683 E0.00313
G1 X112.344 Y118.874 E0.00161
G1 X112.496 Y119.271 E0.00316
G1 X112.580 Y119.681 E0.00311
G1 X112.598 Y119.896 E0.00160
G1 X112.581 Y120.317 E0.00313
G1 X112.495 Y120.731 E0.00313
G1 X112.426 Y120.935 E0.00160
G1 X112.243 Y121.315 E0.00313
G1 X112.000 Y121.662 E0.00315
G1 X111.704 Y121.964 E0.00313
G1 X111.535 Y122.099 E0.00160
G1 X111.178 Y122.318 E0.00312
G1 X110.981 Y122.408 E0.00160
G1 X110.579 Y122.535 E0.00313
G1 X110.159 Y122.595 E0.00315
G1 X109.735 Y122.587 E0.00315
G1 X109.320 Y122.510 E0.00313
G1 X109.114 Y122.445 E0.00160
G1 X108.732 Y122.270 E0.00312
G1 X108.545 Y122.155 E0.00163
G1 X108.218 Y121.894 E0.00311
G1 X107.936 Y121.581 E0.00313
G1 X107.811 Y121.404 E0.00160
G1 X107.613 Y121.032 E0.00313
G1 X107.477 Y120.630 E0.00315
G1 X107.409 Y120.214 E0.00313
G1 X107.400 Y119.998 E0.00160
G1 X107.434 Y119.578 E0.00313
G1 X107.536 Y119.168 E0.00313
G1 X107.614 Y118.966 E0.00160
G1 X107.812 Y118.594 E0.00313
G1 X108.070 Y118.257 E0.00315
G1 X108.338 Y118.006 E0.00273
G1 X108.322 Y117.569 F9000.000
G1 E-0.35000 F2700.000
;WIPE_START
G1 F7200.000
G1 X108.665 Y117.776 E-0.14250
;WIPE_END
G1 E-0.00750 F2700.000
G1 Z0.600 F9000.000
G1 X108.335 Y124.538
G1 Z0.100
G1 E0.50000 F2400.000
;TYPE:Perimeter
G1 F1200.000
G1 X98.778 Y124.535 E0.07095
G1 X98.336 Y124.479 E0.00330
G1 X97.898 Y124.367 E0.00336
G1 X97.498 Y124.208 E0.00320
G1 X97.112 Y123.997 E0.00327
G1 X96.736 Y123.725 E0.00345
G1 X96.580 Y123.587 E0.00154
G1 X96.271 Y123.258 E0.00336
G1 X96.009 Y122.898 E0.00330
G1 X95.795 Y122.508 E0.00330
G1 X95.631 Y122.095 E0.00330
G1 X95.519 Y121.657 E0.00336
G1 X95.486 Y121.451 E0.00155
G1 X95.457 Y120.986 E0.00346
G1 X95.465 Y98.778 E0.16485
G1 X95.521 Y98.336 E0.00330
G1 X95.633 Y97.898 E0.00336
G1 X95.792 Y97.498 E0.00320
G1 X96.003 Y97.112 E0.00327
G1 X96.275 Y96.736 E0.00345
G1 X96.413 Y96.580 E0.00154
G1 X96.742 Y96.271 E0.00336
G1 X97.102 Y96.009 E0.00330
G1 X97.488 Y95.797 E0.00327
G1 X97.690 Y95.709 E0.00164
G1 X98.119 Y95.569 E0.00335
G1 X98.563 Y95.485 E0.00336
G1 X98.770 Y95.465 E0.00155
G1 X120.998 Y95.457 E0.16499
G1 X121.451 Y95.486 E0.00337
G1 X121.657 Y95.519 E0.00155
G1 X122.102 Y95.633 E0.00341
G1 X122.502 Y95.792 E0.00320
G1 X122.898 Y96.009 E0.00336
G1 X123.254 Y96.268 E0.00327
G1 X123.577 Y96.570 E0.00328
G1 X123.870 Y96.924 E0.00341
G1 X123.987 Y97.096 E0.00155
G1 X124.200 Y97.481 E0.00327
G1 X124.369 Y97.906 E0.00339
G1 X124.481 Y98.343 E0.00335
G1 X124.514 Y98.549 E0.00155
G1 X124.543 Y99.014 E0.00346
G1 X124.535 Y121.222 E0.16485
G1 X124.479 Y121.664 E0.00330
G1 X124.367 Y122.102 E0.00336
G1 X124.208 Y122.502 E0.00320
G1 X123.997 Y122.888 E0.00327
G1 X123.729 Y123.258 E0.00339
G1 X123.425 Y123.582 E0.00330
G1 X123.076 Y123.870 E0.00336
G1 X122.904 Y123.987 E0.00155
G1 X122.508 Y124.205 E0.00336
G1 X122.095 Y124.369 E0.00330
G1 X121.664 Y124.479 E0.00330
G1 X121.227 Y124.535 E0.00327
G1 X120.992 Y124.543 E0.00174
G1 X108.395 Y124.538 E0.09350
G1 X108.395 Y124.717 F9000.000
G1 F1200.000
G1 X98.766 Y124.714 E0.07147
G1 X98.303 Y124.655 E0.00347
G1 X97.846 Y124.538 E0.00350
G1 X97.419 Y124.369 E0.00340
G1 X97.017 Y124.148 E0.00341
G1 X96.624 Y123.864 E0.00359
G1 X96.456 Y123.716 E0.00167
G1 X96.133 Y123.372 E0.00350
G1 X95.858 Y122.994 E0.00347
G1 X95.633 Y122.584 E0.00347
G1 X95.461 Y122.150 E0.00347
G1 X95.344 Y121.693 E0.00350
G1 X95.309 Y121.471 E0.00167
G1 X95.279 Y120.991 E0.00357
G1 X95.286 Y98.766 E0.16497
G1 X95.345 Y98.303 E0.00347
G1 X95.462 Y97.846 E0.00350
G1 X95.631 Y97.419 E0.00340
G1 X95.852 Y97.017 E0.00341
G1 X96.136 Y96.624 E0.00359
G1 X96.284 Y96.456 E0.00167
G1 X96.628 Y96.133 E0.00350
G1 X97.006 Y95.858 E0.00347
G1 X97.409 Y95.637 E0.00341
G1 X97.626 Y95.542 E0.00176
G1 X98.075 Y95.396 E0.00350
G1 X98.538 Y95.308 E0.00350
G1 X98.762 Y95.286 E0.00167
G1 X121.004 Y95.279 E0.16510
G1 X121.471 Y95.309 E0.00347
G1 X121.693 Y95.344 E0.00167
G1 X122.154 Y95.462 E0.00353
G1 X122.580 Y95.631 E0.00340
G1 X122.994 Y95.858 E0.00350
G1 X123.366 Y96.128 E0.00341
G1 X123.710 Y96.449 E0.00349
G1 X124.013 Y96.816 E0.00353
G1 X124.140 Y97.002 E0.00167
G1 X124.361 Y97.405 E0.00341
G1 X124.539 Y97.850 E0.00356
G1 X124.656 Y98.307 E0.00350
G1 X124.691 Y98.529 E0.00167
G1 X124.721 Y99.009 E0.00357
G1 X124.714 Y121.234 E0.16497
G1 X124.655 Y121.697 E0.00347
G1 X124.538 Y122.154 E0.00350
G1 X124.369 Y122.581 E0.00340
G1 X124.148 Y122.983 E0.00341
G1 X123.867 Y123.372 E0.00356
G1 X123.547 Y123.712 E0.00347
G1 X123.184 Y124.013 E0.00350
G1 X122.998 Y124.140 E0.00167
G1 X122.584 Y124.367 E0.00350
G1 X122.150 Y124.539 E0.00347
G1 X121.697 Y124.655 E0.00347
G1 X121.241 Y124.713 E0.00341
G1 X120.995 Y124.721 E0.00183
G1 X108.455 Y124.717 E0.09308
G1 X108.455 Y124.896 F9000.000
;TYPE:External perimeter
G1 F1200.000
G1 X98.755 Y124.892 E0.07200
G1 X98.269 Y124.831 E0.00364
G1 X97.793 Y124.709 E0.00365
G1 X97.341 Y124.529 E0.00361
G1 X96.921 Y124.299 E0.00355
G1 X96.513 Y124.004 E0.00374
G1 X96.331 Y123.844 E0.00179
G1 X95.995 Y123.486 E0.00365
G1 X95.707 Y123.090 E0.00364
G1 X95.471 Y122.660 E0.00364
G1 X95.291 Y122.205 E0.00364
G1 X95.169 Y121.729 E0.00365
G1 X95.131 Y121.490 E0.00180
G1 X95.100 Y120.997 E0.00367
G1 X95.108 Y98.755 E0.16510
G1 X95.169 Y98.269 E0.00364
G1 X95.291 Y97.793 E0.00365
G1 X95.471 Y97.341 E0.00361
